;FLAVOR:Marlin
;TIME:12250
;Filament used: 8.45831m
;Layer height: 0.2
;MINX:56.915
;MINY:53.466
;MINZ:0.2
;MAXX:178.084
;MAXY:181.5
;MAXZ:53
;Generated with Cura_SteamEngine 4.6.2
M140 S80
M105
M190 S80
M104 S240
M105
M109 S240
M82 ;absolute extrusion mode
; Ender 3 Custom Start G-code
G92 E0 ; Reset Extruder
G28 ; Home all axes
G1 Z2.0 F3000 ; Move Z Axis up little to prevent scratching of Heat Bed
G1 X0.1 Y20 Z0.3 F5000.0 ; Move to start position
G1 X0.1 Y200.0 Z0.3 F1500.0 E15 ; Draw the first line
G1 X0.4 Y200.0 Z0.3 F5000.0 ; Move to side a little
G1 X0.4 Y20 Z0.3 F1500.0 E30 ; Draw the second line
G92 E0 ; Reset Extruder
G1 Z2.0 F3000 ; Move Z Axis up little to prevent scratching of Heat Bed
G1 X5 Y20 Z0.3 F5000.0 ; Move over to prevent blob squish
G92 E0
G92 E0
G1 F2700 E-6
;LAYER_COUNT:226
;LAYER:0
M107
M204 S500
M205 X8 Y8
G0 F7500 X113.23 Y54.276 Z0.2
;TYPE:SKIRT
G1 F2700 E0
G1 F1500 X114.131 Y54.329 E0.02852
G1 X114.947 Y54.447 E0.05457
G1 X116.106 Y54.663 E0.09182
G1 X116.877 Y54.817 E0.11666
G1 X119.368 Y55.241 E0.1965
G1 X121.936 Y55.604 E0.27845
G1 X123.929 Y55.837 E0.34185
G1 X124.621 Y55.942 E0.36397
G1 X125.353 Y56.079 E0.3875
G1 X126.404 Y56.334 E0.42167
G1 X126.661 Y56.411 E0.43015
G1 X127.514 Y56.708 E0.45869
G1 X128.064 Y56.946 E0.47762
G1 X128.849 Y57.314 E0.50502
G1 X129.834 Y57.844 E0.54036
G1 X130.252 Y58.104 E0.55592
G1 X130.572 Y58.313 E0.56799
G1 X132.123 Y59.342 E0.6268
G1 X132.727 Y59.754 E0.64991
G1 X133.45 Y60.295 E0.67844
G1 X133.87 Y60.659 E0.696
G1 X135.209 Y61.886 E0.75338
G1 X137.128 Y63.579 E0.83424
G1 X139.05 Y65.182 E0.91332
G1 X141.946 Y67.44 E1.02936
G1 X142.63 Y68.029 E1.05788
G1 X143.259 Y68.677 E1.08641
G1 X143.829 Y69.378 E1.11496
G1 X144.335 Y70.126 E1.14349
G1 X144.583 Y70.555 E1.15915
G1 X145.43 Y72.1 E1.21482
G1 X146.722 Y74.354 E1.29691
G1 X148.052 Y76.53 E1.37749
G1 X149.44 Y78.664 E1.45793
G1 X150.874 Y80.736 E1.53755
G1 X152.39 Y82.8 E1.61847
G1 X153.943 Y84.794 E1.69833
G1 X155.572 Y86.767 E1.77917
G1 X157.231 Y88.665 E1.85882
G1 X158.959 Y90.533 E1.93923
G1 X160.744 Y92.355 E2.01982
G1 X162.563 Y94.11 E2.09969
G1 X164.419 Y95.803 E2.17906
G1 X166.386 Y97.499 E2.26113
G1 X168.317 Y99.067 E2.33972
G1 X171.186 Y101.243 E2.4535
G1 X172.258 Y102.025 E2.49543
G1 X172.963 Y102.589 E2.52395
G1 X173.578 Y103.174 E2.55077
G1 X173.756 Y103.358 E2.55886
G1 X174.253 Y103.91 E2.58233
G1 X174.578 Y104.299 E2.59835
G1 X175.125 Y105.017 E2.62687
G1 X175.757 Y106.053 E2.66521
G1 X175.901 Y106.324 E2.67491
G1 X176.082 Y106.679 E2.6875
G1 X176.272 Y107.073 E2.70132
G1 X176.627 Y107.904 E2.72988
G1 X176.908 Y108.762 E2.7584
G1 X177.113 Y109.642 E2.78695
G1 X177.238 Y110.536 E2.81548
G1 X177.284 Y111.504 E2.8461
G1 X177.284 Y113.486 E2.90872
G1 X177.244 Y114.388 E2.93725
G1 X177.124 Y115.283 E2.96578
G1 X176.926 Y116.164 E2.99431
G1 X176.651 Y117.024 E3.02284
G1 X176.416 Y117.604 E3.04262
G1 X176.232 Y118.021 E3.05702
G1 X175.82 Y118.85 E3.08627
G1 X175.272 Y119.836 E3.12191
G1 X144.938 Y172.379 E5.03893
G1 X143.924 Y174.131 E5.10289
G1 X143.571 Y174.722 E5.12464
G1 X143.065 Y175.488 E5.15365
G1 X142.839 Y175.799 E5.1658
G1 X142.277 Y176.506 E5.19433
G1 X141.61 Y177.201 E5.22477
G1 X141.394 Y177.406 E5.23418
G1 X140.712 Y177.999 E5.26274
G1 X139.973 Y178.532 E5.29153
G1 X139.556 Y178.806 E5.30729
G1 X138.78 Y179.268 E5.33583
G1 X137.966 Y179.66 E5.36437
G1 X137.386 Y179.888 E5.38407
G1 X136.98 Y180.033 E5.39769
G1 X136.117 Y180.299 E5.42622
G1 X134.887 Y180.539 E5.46582
G1 X134.426 Y180.6 E5.48051
G1 X133.535 Y180.678 E5.50877
G1 X133.307 Y180.688 E5.51598
G1 X132.917 Y180.698 E5.52831
G1 X132.56 Y180.7 E5.53959
G1 X102.491 Y180.699 E6.48969
G1 X101.793 Y180.689 E6.51174
G1 X100.936 Y180.641 E6.53886
G1 X100.501 Y180.598 E6.55268
G1 X99.607 Y180.469 E6.58122
G1 X98.428 Y180.172 E6.61963
G1 X98.077 Y180.061 E6.63126
G1 X97.229 Y179.751 E6.65979
G1 X96.197 Y179.251 E6.69603
G1 X95.821 Y179.042 E6.70962
G1 X95.052 Y178.569 E6.73815
G1 X94.121 Y177.856 E6.7752
G1 X93.804 Y177.583 E6.78842
G1 X93.146 Y176.964 E6.81696
G1 X92.327 Y176.01 E6.85669
G1 X92.056 Y175.652 E6.87088
G1 X91.55 Y174.919 E6.89902
G1 X91.286 Y174.491 E6.91491
G1 X91.086 Y174.151 E6.92737
G1 X60.586 Y121.321 E8.85487
G1 X59.568 Y119.556 E8.91925
G1 X59.256 Y118.999 E8.93942
G1 X58.993 Y118.503 E8.95716
G1 X58.623 Y117.703 E8.98501
G1 X58.48 Y117.355 E8.9969
G1 X58.175 Y116.505 E9.02543
G1 X57.945 Y115.632 E9.05396
G1 X57.794 Y114.741 E9.08251
G1 X57.715 Y113.473 E9.12265
G1 X57.716 Y111.497 E9.18509
G1 X57.756 Y110.595 E9.21362
G1 X57.877 Y109.7 E9.24215
G1 X58.075 Y108.819 E9.27069
G1 X58.351 Y107.959 E9.29922
G1 X58.737 Y107.055 E9.33028
G1 X59.021 Y106.476 E9.35066
G1 X59.192 Y106.147 E9.36238
G1 X59.644 Y105.365 E9.39092
G1 X60.236 Y104.532 E9.42321
G1 X60.382 Y104.347 E9.43065
G1 X60.751 Y103.906 E9.44882
G1 X61.036 Y103.584 E9.46241
G1 X61.664 Y102.935 E9.49094
G1 X62.551 Y102.186 E9.52763
G1 X63.234 Y101.676 E9.55456
G1 X65.449 Y100.082 E9.64079
G1 X67.457 Y98.55 E9.72059
G1 X69.451 Y96.936 E9.80165
G1 X71.369 Y95.291 E9.88149
G1 X73.25 Y93.584 E9.96175
G1 X75.071 Y91.834 E10.04155
G1 X76.885 Y89.993 E10.12321
G1 X78.592 Y88.155 E10.20247
G1 X80.261 Y86.254 E10.2824
G1 X81.89 Y84.292 E10.36298
G1 X83.452 Y82.295 E10.44309
G1 X84.957 Y80.256 E10.52316
G1 X86.415 Y78.158 E10.60389
G1 X87.798 Y76.046 E10.68366
G1 X89.546 Y73.177 E10.78981
G1 X89.903 Y72.631 E10.81042
G1 X90.362 Y71.976 E10.83569
G1 X90.702 Y71.518 E10.85372
G1 X91.391 Y70.651 E10.88871
G1 X92.039 Y69.877 E10.9206
G1 X92.688 Y69.133 E10.9518
G1 X93.292 Y68.506 E10.97931
G1 X94.069 Y67.764 E11.01326
G1 X95.981 Y65.888 E11.09789
G1 X97.717 Y64.086 E11.17695
G1 X99.429 Y62.205 E11.25732
G1 X101.094 Y60.27 E11.33798
G1 X101.563 Y59.693 E11.36147
G1 X102.228 Y58.898 E11.39422
G1 X102.838 Y58.231 E11.42278
G1 X103.504 Y57.621 E11.45132
G1 X104.294 Y57.022 E11.48265
G1 X104.879 Y56.624 E11.505
G1 X105.464 Y56.239 E11.52713
G1 X106.007 Y55.892 E11.54749
G1 X106.789 Y55.44 E11.57603
G1 X107.608 Y55.059 E11.60457
G1 X108.457 Y54.751 E11.63311
G1 X109.33 Y54.52 E11.66164
G1 X110.22 Y54.368 E11.69017
G1 X110.721 Y54.317 E11.70608
G1 X110.995 Y54.296 E11.71477
G1 X111.757 Y54.266 E11.73886
G1 X112.43 Y54.266 E11.76013
G0 F1350 X112.53 Y54.266
G0 X113.23 Y54.276
G0 F7500 X113.235 Y53.876
G1 F1500 X114.155 Y53.929 E11.78924
G1 X115.02 Y54.053 E11.81685
G1 X116.184 Y54.271 E11.85427
G1 X116.95 Y54.424 E11.87895
G1 X119.42 Y54.845 E11.95813
G1 X121.994 Y55.208 E12.04026
G1 X123.976 Y55.44 E12.10331
G1 X124.695 Y55.549 E12.12629
G1 X125.427 Y55.686 E12.14982
G1 X126.519 Y55.951 E12.18533
G1 X126.776 Y56.028 E12.19381
G1 X127.646 Y56.33 E12.2229
G1 X128.233 Y56.584 E12.24311
G1 X129.018 Y56.952 E12.27051
G1 X130.042 Y57.503 E12.30725
G1 X130.47 Y57.769 E12.32317
G1 X130.793 Y57.979 E12.33535
G1 X132.348 Y59.011 E12.39431
G1 X132.952 Y59.423 E12.41742
G1 X133.689 Y59.975 E12.44651
G1 X134.14 Y60.365 E12.46535
G1 X135.458 Y61.573 E12.52184
G1 X137.385 Y63.273 E12.60304
G1 X139.316 Y64.884 E12.6825
G1 X142.193 Y67.126 E12.79774
G1 X142.891 Y67.726 E12.82683
G1 X143.534 Y68.384 E12.8559
G1 X144.118 Y69.096 E12.88499
G1 X144.638 Y69.856 E12.91409
G1 X144.934 Y70.362 E12.93261
G1 X145.793 Y71.929 E12.98908
G1 X147.076 Y74.168 E13.07062
G1 X148.385 Y76.309 E13.14991
G1 X149.761 Y78.424 E13.22963
G1 X151.222 Y80.535 E13.31075
G1 X152.699 Y82.547 E13.38962
G1 X154.265 Y84.557 E13.47013
G1 X155.865 Y86.495 E13.54953
G1 X157.526 Y88.396 E13.6293
G1 X159.237 Y90.245 E13.7089
G1 X161.025 Y92.07 E13.78963
G1 X162.828 Y93.81 E13.8688
G1 X164.704 Y95.521 E13.94902
G1 X166.637 Y97.187 E14.02966
G1 X168.558 Y98.747 E14.10785
G1 X171.466 Y100.953 E14.22318
G1 X172.493 Y101.702 E14.26334
G1 X173.213 Y102.276 E14.29244
G1 X173.866 Y102.896 E14.32089
G1 X174.044 Y103.08 E14.32898
G1 X174.56 Y103.654 E14.35337
G1 X174.885 Y104.043 E14.36938
G1 X175.444 Y104.774 E14.39846
G1 X176.111 Y105.865 E14.43886
G1 X176.255 Y106.136 E14.44856
G1 X176.442 Y106.506 E14.46166
G1 X176.632 Y106.9 E14.47548
G1 X176.995 Y107.746 E14.50457
G1 X177.284 Y108.62 E14.53366
G1 X177.496 Y109.516 E14.56275
G1 X177.629 Y110.427 E14.59184
G1 X177.684 Y111.504 E14.62591
G1 X177.684 Y113.486 E14.68854
G1 X177.644 Y114.406 E14.71764
G1 X177.524 Y115.319 E14.74673
G1 X177.326 Y116.218 E14.77582
G1 X177.05 Y117.096 E14.8049
G1 X176.782 Y117.765 E14.82767
G1 X176.598 Y118.182 E14.84207
G1 X176.17 Y119.044 E14.87248
G1 X175.618 Y120.036 E14.90835
G1 X145.284 Y172.579 E16.82537
G1 X144.267 Y174.337 E16.88954
G1 X143.914 Y174.928 E16.91129
G1 X143.389 Y175.723 E16.94139
G1 X143.163 Y176.034 E16.95354
G1 X142.59 Y176.755 E16.98264
G1 X141.885 Y177.492 E17.01487
G1 X141.669 Y177.697 E17.02428
G1 X140.974 Y178.301 E17.05337
G1 X140.193 Y178.867 E17.08385
G1 X139.776 Y179.141 E17.09961
G1 X138.985 Y179.612 E17.1287
G1 X138.157 Y180.014 E17.15778
G1 X137.52 Y180.264 E17.17941
G1 X137.114 Y180.409 E17.19303
G1 X136.235 Y180.681 E17.2221
G1 X134.939 Y180.935 E17.26383
G1 X134.478 Y180.996 E17.27852
G1 X133.552 Y181.078 E17.3079
G1 X133.324 Y181.088 E17.31511
G1 X132.919 Y181.098 E17.32791
G1 X132.562 Y181.1 E17.33919
G1 X102.485 Y181.099 E18.28954
G1 X101.787 Y181.089 E18.31159
G1 X100.896 Y181.039 E18.33979
G1 X100.461 Y180.996 E18.3536
G1 X99.55 Y180.865 E18.38268
G1 X98.308 Y180.554 E18.42314
G1 X97.957 Y180.443 E18.43477
G1 X97.092 Y180.127 E18.46387
G1 X96.003 Y179.601 E18.50208
G1 X95.627 Y179.392 E18.51567
G1 X94.843 Y178.91 E18.54475
G1 X93.86 Y178.159 E18.58384
G1 X93.543 Y177.886 E18.59706
G1 X92.872 Y177.255 E18.62616
G1 X92.008 Y176.252 E18.66799
G1 X91.737 Y175.894 E18.68218
G1 X91.211 Y175.132 E18.71144
G1 X90.941 Y174.693 E18.72772
G1 X90.74 Y174.351 E18.74026
G1 X60.24 Y121.521 E20.66775
G1 X59.219 Y119.751 E20.73231
G1 X58.907 Y119.194 E20.75248
G1 X58.638 Y118.686 E20.77065
G1 X58.253 Y117.855 E20.79959
G1 X58.11 Y117.507 E20.81147
G1 X57.798 Y116.641 E20.84056
G1 X57.562 Y115.751 E20.86965
G1 X57.403 Y114.844 E20.89875
G1 X57.315 Y113.473 E20.94216
G1 X57.316 Y111.497 E21.00459
G1 X57.356 Y110.577 E21.03369
G1 X57.477 Y109.664 E21.06279
G1 X57.675 Y108.765 E21.09188
G1 X57.952 Y107.887 E21.12097
G1 X58.377 Y106.88 E21.1555
G1 X58.667 Y106.291 E21.17625
G1 X58.838 Y105.962 E21.18796
G1 X59.297 Y105.165 E21.21702
G1 X59.922 Y104.284 E21.25115
G1 X60.068 Y104.099 E21.2586
G1 X60.452 Y103.641 E21.27748
G1 X60.737 Y103.319 E21.29107
G1 X61.376 Y102.656 E21.32017
G1 X62.311 Y101.866 E21.35884
G1 X63.001 Y101.351 E21.38605
G1 X65.202 Y99.768 E21.47171
G1 X67.226 Y98.223 E21.55217
G1 X69.188 Y96.635 E21.63192
G1 X71.102 Y94.993 E21.71161
G1 X72.968 Y93.3 E21.79122
G1 X74.81 Y91.53 E21.87193
G1 X76.59 Y89.723 E21.95208
G1 X78.282 Y87.902 E22.03062
G1 X79.953 Y85.997 E22.11069
G1 X81.582 Y84.035 E22.19126
G1 X83.144 Y82.04 E22.27132
G1 X84.639 Y80.014 E22.35088
G1 X86.085 Y77.933 E22.43095
G1 X87.445 Y75.856 E22.5094
G1 X89.204 Y72.969 E22.61621
G1 X89.575 Y72.402 E22.63762
G1 X90.034 Y71.747 E22.6629
G1 X90.388 Y71.271 E22.68164
G1 X91.084 Y70.395 E22.71699
G1 X91.736 Y69.616 E22.74909
G1 X92.389 Y68.869 E22.78044
G1 X93.016 Y68.217 E22.80902
G1 X93.796 Y67.472 E22.8431
G1 X95.678 Y65.626 E22.9264
G1 X97.433 Y63.803 E23.00636
G1 X99.131 Y61.938 E23.08605
G1 X100.793 Y60.007 E23.16655
G1 X101.256 Y59.436 E23.18978
G1 X101.921 Y58.641 E23.22253
G1 X102.542 Y57.961 E23.25163
G1 X103.22 Y57.338 E23.28072
G1 X104.068 Y56.692 E23.3144
G1 X104.658 Y56.291 E23.33694
G1 X105.249 Y55.902 E23.3593
G1 X105.792 Y55.555 E23.37966
G1 X106.589 Y55.093 E23.40877
G1 X107.422 Y54.703 E23.43783
G1 X108.287 Y54.386 E23.46694
G1 X109.175 Y54.145 E23.49601
G1 X110.081 Y53.982 E23.5251
G1 X110.69 Y53.918 E23.54445
G1 X110.964 Y53.897 E23.55313
G1 X111.757 Y53.866 E23.57821
G1 X112.435 Y53.866 E23.59963
G0 F1350 X112.535 Y53.866
G0 X113.235 Y53.876
G0 F7500 X113.241 Y53.476
G1 F1500 X114.177 Y53.529 E23.62925
G1 X115.093 Y53.66 E23.65849
G1 X116.262 Y53.878 E23.69606
G1 X117.024 Y54.03 E23.72061
G1 X119.506 Y54.453 E23.80017
G1 X122.016 Y54.807 E23.88026
G1 X124.022 Y55.042 E23.94408
G1 X124.769 Y55.156 E23.96796
G1 X125.501 Y55.293 E23.99149
G1 X126.634 Y55.568 E24.02833
G1 X126.891 Y55.645 E24.0368
G1 X127.777 Y55.952 E24.06643
G1 X128.403 Y56.222 E24.08797
G1 X129.188 Y56.59 E24.11537
G1 X130.251 Y57.161 E24.15349
G1 X130.689 Y57.434 E24.1698
G1 X131.014 Y57.646 E24.18206
G1 X132.574 Y58.681 E24.24122
G1 X133.178 Y59.093 E24.26432
G1 X133.929 Y59.654 E24.29394
G1 X134.41 Y60.07 E24.31403
G1 X135.71 Y61.262 E24.36976
G1 X137.64 Y62.964 E24.45107
G1 X139.569 Y64.573 E24.53044
G1 X142.44 Y66.811 E24.64546
G1 X143.152 Y67.422 E24.6751
G1 X143.809 Y68.092 E24.70475
G1 X144.407 Y68.814 E24.73438
G1 X144.94 Y69.585 E24.76399
G1 X145.285 Y70.17 E24.78545
G1 X146.143 Y71.737 E24.8419
G1 X147.421 Y73.966 E24.92309
G1 X148.728 Y76.104 E25.00226
G1 X150.081 Y78.184 E25.08067
G1 X151.541 Y80.292 E25.16169
G1 X153.022 Y82.31 E25.24078
G1 X154.574 Y84.302 E25.32057
G1 X156.174 Y86.24 E25.39998
G1 X157.823 Y88.127 E25.47916
G1 X159.551 Y89.995 E25.55956
G1 X161.287 Y91.767 E25.63795
G1 X163.109 Y93.525 E25.71795
G1 X164.971 Y95.223 E25.79757
G1 X166.884 Y96.872 E25.87737
G1 X168.802 Y98.43 E25.95545
G1 X171.721 Y100.644 E26.07121
G1 X172.729 Y101.379 E26.11063
G1 X173.463 Y101.963 E26.14027
G1 X174.153 Y102.618 E26.17033
G1 X174.331 Y102.802 E26.17842
G1 X174.867 Y103.397 E26.20372
G1 X175.192 Y103.786 E26.21974
G1 X175.762 Y104.531 E26.24938
G1 X176.464 Y105.677 E26.29184
G1 X176.608 Y105.948 E26.30154
G1 X176.802 Y106.332 E26.31513
G1 X176.992 Y106.726 E26.32895
G1 X177.363 Y107.587 E26.35858
G1 X177.659 Y108.477 E26.38821
G1 X177.879 Y109.389 E26.41785
G1 X178.02 Y110.316 E26.44748
G1 X178.084 Y111.504 E26.48507
G1 X178.084 Y113.486 E26.5477
G1 X178.044 Y114.423 E26.57733
G1 X177.924 Y115.353 E26.60696
G1 X177.726 Y116.27 E26.6366
G1 X177.45 Y117.166 E26.66623
G1 X177.148 Y117.927 E26.6921
G1 X176.964 Y118.344 E26.7065
G1 X176.52 Y119.238 E26.73804
G1 X175.964 Y120.236 E26.77414
G1 X145.63 Y172.779 E28.69115
G1 X144.611 Y174.542 E28.75549
G1 X144.258 Y175.133 E28.77724
G1 X143.713 Y175.958 E28.80849
G1 X143.487 Y176.269 E28.82063
G1 X142.903 Y177.004 E28.8503
G1 X142.16 Y177.782 E28.88429
G1 X141.944 Y177.987 E28.8937
G1 X141.237 Y178.603 E28.92333
G1 X140.413 Y179.201 E28.9555
G1 X139.996 Y179.475 E28.97126
G1 X139.19 Y179.956 E29.00092
G1 X138.347 Y180.367 E29.03055
G1 X137.655 Y180.641 E29.05407
G1 X137.249 Y180.786 E29.06769
G1 X136.353 Y181.064 E29.09733
G1 X134.992 Y181.332 E29.14116
G1 X134.531 Y181.393 E29.15586
G1 X133.57 Y181.477 E29.18634
G1 X133.342 Y181.487 E29.19355
G1 X132.922 Y181.498 E29.20682
G1 X132.565 Y181.5 E29.2181
G1 X102.479 Y181.499 E30.16874
G1 X101.781 Y181.489 E30.19079
G1 X100.857 Y181.437 E30.22003
G1 X100.422 Y181.394 E30.23385
G1 X99.493 Y181.262 E30.2635
G1 X98.187 Y180.935 E30.30603
G1 X97.836 Y180.824 E30.31767
G1 X96.955 Y180.503 E30.34729
G1 X95.809 Y179.951 E30.38749
G1 X95.433 Y179.742 E30.40108
G1 X94.633 Y179.251 E30.43074
G1 X93.599 Y178.462 E30.47183
G1 X93.282 Y178.189 E30.48505
G1 X92.598 Y177.547 E30.51469
G1 X91.689 Y176.493 E30.55867
G1 X91.418 Y176.135 E30.57286
G1 X90.873 Y175.345 E30.60318
G1 X90.597 Y174.896 E30.61984
G1 X90.394 Y174.551 E30.63249
G1 X59.894 Y121.721 E32.55998
G1 X58.87 Y119.947 E32.6247
G1 X58.558 Y119.39 E32.64487
G1 X58.282 Y118.87 E32.66347
G1 X57.884 Y118.007 E32.6935
G1 X57.741 Y117.659 E32.70539
G1 X57.421 Y116.777 E32.73504
G1 X57.178 Y115.871 E32.76467
G1 X57.014 Y114.948 E32.7943
G1 X56.928 Y114.014 E32.82393
G1 X56.915 Y113.472 E32.84106
G1 X56.916 Y111.496 E32.9035
G1 X56.956 Y110.559 E32.93313
G1 X57.077 Y109.629 E32.96276
G1 X57.276 Y108.713 E32.99238
G1 X57.552 Y107.817 E33.02201
G1 X58.017 Y106.706 E33.06006
G1 X58.312 Y106.107 E33.08116
G1 X58.483 Y105.778 E33.09288
G1 X58.95 Y104.965 E33.1225
G1 X59.608 Y104.036 E33.15847
G1 X59.754 Y103.851 E33.16592
G1 X60.152 Y103.375 E33.18552
G1 X60.437 Y103.053 E33.19911
G1 X61.088 Y102.378 E33.22874
G1 X62.071 Y101.546 E33.26943
G1 X62.767 Y101.027 E33.29687
G1 X64.965 Y99.446 E33.38242
