;FLAVOR:Marlin
;TIME:12177
;Filament used: 8.3596m
;Layer height: 0.2
;MINX:56.915
;MINY:54.491
;MINZ:0.2
;MAXX:178.084
;MAXY:181.5
;MAXZ:53
;Generated with Cura_SteamEngine 4.6.2
M140 S60
M105
M190 S60
M104 S200
M105
M109 S200
M82 ;absolute extrusion mode
; Ender 3 Custom Start G-code
G92 E0 ; Reset Extruder
G28 ; Home all axes
G1 Z2.0 F3000 ; Move Z Axis up little to prevent scratching of Heat Bed
G1 X0.1 Y20 Z0.3 F5000.0 ; Move to start position
G1 X0.1 Y200.0 Z0.3 F1500.0 E15 ; Draw the first line
G1 X0.4 Y200.0 Z0.3 F5000.0 ; Move to side a little
G1 X0.4 Y20 Z0.3 F1500.0 E30 ; Draw the second line
G92 E0 ; Reset Extruder
G1 Z2.0 F3000 ; Move Z Axis up little to prevent scratching of Heat Bed
G1 X5 Y20 Z0.3 F5000.0 ; Move over to prevent blob squish
G92 E0
G92 E0
G1 F2700 E-6
;LAYER_COUNT:226
;LAYER:0
M107
M204 S500
M205 X8 Y8
G0 F7500 X129.418 Y55.311 Z0.2
;TYPE:SKIRT
G1 F2700 E0
G1 F1500 X130.319 Y55.368 E0.02853
G1 X131.212 Y55.505 E0.05707
G1 X132.288 Y55.78 E0.09216
G1 X132.688 Y55.906 E0.10541
G1 X133.152 Y56.065 E0.12091
G1 X133.453 Y56.176 E0.13105
G1 X133.936 Y56.368 E0.14747
G1 X134.663 Y56.679 E0.17246
G1 X134.987 Y56.825 E0.18369
G1 X135.556 Y57.096 E0.2036
G1 X136.036 Y57.338 E0.22058
G1 X136.824 Y57.78 E0.24913
G1 X137.296 Y58.091 E0.26699
G1 X138.027 Y58.603 E0.29519
G1 X138.286 Y58.791 E0.3053
G1 X138.85 Y59.213 E0.32756
G1 X139.617 Y59.847 E0.359
G1 X140.735 Y60.869 E0.40687
G1 X141.759 Y61.825 E0.45113
G1 X142.268 Y62.335 E0.4739
G1 X142.784 Y62.894 E0.49793
G1 X143.038 Y63.179 E0.51
G1 X143.714 Y64.024 E0.54419
G1 X144.247 Y64.776 E0.57331
G1 X144.453 Y65.083 E0.585
G1 X144.922 Y65.854 E0.61351
G1 X145.303 Y66.621 E0.64057
G1 X145.799 Y67.75 E0.67953
G1 X146.844 Y70.038 E0.75901
G1 X147.985 Y72.36 E0.84076
G1 X149.152 Y74.577 E0.91992
G1 X150.398 Y76.789 E1.00014
G1 X151.714 Y78.975 E1.08076
G1 X153.086 Y81.116 E1.16111
G1 X154.516 Y83.217 E1.24141
G1 X155.994 Y85.259 E1.32106
G1 X157.553 Y87.291 E1.40199
G1 X159.158 Y89.264 E1.48235
G1 X160.797 Y91.167 E1.56171
G1 X162.533 Y93.069 E1.64308
G1 X164.259 Y94.858 E1.72162
G1 X166.119 Y96.68 E1.80389
G1 X167.964 Y98.385 E1.88327
G1 X169.888 Y100.066 E1.964
G1 X171.819 Y101.66 E2.04311
G1 X172.433 Y102.147 E2.06788
G1 X172.717 Y102.379 E2.07946
G1 X173.39 Y102.98 E2.10797
G1 X173.711 Y103.308 E2.12247
G1 X173.872 Y103.48 E2.12992
G1 X174.253 Y103.91 E2.14807
G1 X174.578 Y104.299 E2.16409
G1 X175.125 Y105.017 E2.19261
G1 X175.757 Y106.053 E2.23095
G1 X175.901 Y106.324 E2.24065
G1 X176.082 Y106.679 E2.25324
G1 X176.272 Y107.073 E2.26706
G1 X176.627 Y107.904 E2.29561
G1 X176.908 Y108.762 E2.32414
G1 X177.113 Y109.642 E2.35269
G1 X177.238 Y110.536 E2.38121
G1 X177.284 Y111.504 E2.41183
G1 X177.284 Y113.486 E2.47446
G1 X177.244 Y114.388 E2.50299
G1 X177.124 Y115.283 E2.53152
G1 X176.926 Y116.164 E2.56005
G1 X176.651 Y117.024 E2.58858
G1 X176.416 Y117.604 E2.60835
G1 X176.232 Y118.021 E2.62276
G1 X175.82 Y118.85 E2.65201
G1 X175.272 Y119.836 E2.68765
G1 X144.938 Y172.379 E4.60467
G1 X143.924 Y174.131 E4.66863
G1 X143.571 Y174.722 E4.69038
G1 X143.065 Y175.488 E4.71939
G1 X142.839 Y175.799 E4.73153
G1 X142.277 Y176.506 E4.76007
G1 X141.61 Y177.201 E4.79051
G1 X141.394 Y177.406 E4.79992
G1 X140.712 Y177.999 E4.82847
G1 X139.973 Y178.532 E4.85726
G1 X139.556 Y178.806 E4.87303
G1 X138.78 Y179.268 E4.90156
G1 X137.966 Y179.66 E4.93011
G1 X137.386 Y179.888 E4.9498
G1 X136.98 Y180.033 E4.96343
G1 X136.117 Y180.299 E4.99196
G1 X134.887 Y180.539 E5.03156
G1 X134.426 Y180.6 E5.04625
G1 X133.535 Y180.678 E5.07451
G1 X133.307 Y180.688 E5.08172
G1 X132.917 Y180.698 E5.09405
G1 X132.56 Y180.7 E5.10533
G1 X102.491 Y180.699 E6.05542
G1 X101.793 Y180.689 E6.07748
G1 X100.936 Y180.641 E6.1046
G1 X100.501 Y180.598 E6.11841
G1 X99.607 Y180.469 E6.14695
G1 X98.428 Y180.172 E6.18537
G1 X98.077 Y180.061 E6.197
G1 X97.229 Y179.751 E6.22553
G1 X96.197 Y179.251 E6.26177
G1 X95.821 Y179.042 E6.27536
G1 X95.052 Y178.569 E6.30388
G1 X94.121 Y177.856 E6.34094
G1 X93.804 Y177.583 E6.35416
G1 X93.146 Y176.964 E6.3827
G1 X92.327 Y176.01 E6.42243
G1 X92.056 Y175.652 E6.43662
G1 X91.55 Y174.919 E6.46476
G1 X91.286 Y174.491 E6.48065
G1 X91.086 Y174.151 E6.49311
G1 X60.586 Y121.321 E8.4206
G1 X59.568 Y119.556 E8.48498
G1 X59.256 Y118.999 E8.50516
G1 X58.993 Y118.503 E8.5229
G1 X58.623 Y117.703 E8.55075
G1 X58.48 Y117.355 E8.56263
G1 X58.175 Y116.505 E8.59117
G1 X57.945 Y115.632 E8.61969
G1 X57.794 Y114.741 E8.64825
G1 X57.715 Y113.473 E8.68839
G1 X57.716 Y111.497 E8.75083
G1 X57.756 Y110.595 E8.77936
G1 X57.877 Y109.7 E8.80789
G1 X58.075 Y108.819 E8.83642
G1 X58.351 Y107.959 E8.86496
G1 X58.737 Y107.055 E8.89602
G1 X59.021 Y106.476 E8.9164
G1 X59.192 Y106.147 E8.92811
G1 X59.644 Y105.365 E8.95665
G1 X60.236 Y104.532 E8.98894
G1 X60.382 Y104.347 E8.99639
G1 X60.739 Y103.919 E9.014
G1 X61.023 Y103.597 E9.02757
G1 X61.65 Y102.947 E9.0561
G1 X62.553 Y102.184 E9.09346
G1 X63.309 Y101.617 E9.12332
G1 X65.363 Y100.029 E9.20535
G1 X67.337 Y98.414 E9.28594
G1 X69.231 Y96.77 E9.36518
G1 X71.122 Y95.036 E9.44625
G1 X72.944 Y93.266 E9.52651
G1 X74.724 Y91.435 E9.6072
G1 X76.433 Y89.575 E9.68701
G1 X78.099 Y87.655 E9.76733
G1 X79.714 Y85.685 E9.84782
G1 X81.252 Y83.698 E9.92722
G1 X82.756 Y81.635 E10.00789
G1 X84.182 Y79.558 E10.08749
G1 X85.577 Y77.398 E10.16874
G1 X86.898 Y75.22 E10.24923
G1 X88.143 Y73.033 E10.32874
G1 X89.329 Y70.8 E10.40863
G1 X90.478 Y68.484 E10.49032
G1 X91.304 Y66.711 E10.55212
G1 X91.817 Y65.582 E10.59131
G1 X92.101 Y64.977 E10.61243
G1 X92.52 Y64.177 E10.64096
G1 X93.009 Y63.417 E10.66952
G1 X93.563 Y62.704 E10.69805
G1 X94.178 Y62.043 E10.72657
G1 X94.849 Y61.438 E10.75512
G1 X95.437 Y60.988 E10.77852
G1 X96.446 Y60.276 E10.81754
G1 X97.439 Y59.604 E10.85542
G1 X98.037 Y59.211 E10.87803
G1 X98.813 Y58.749 E10.90657
G1 X99.627 Y58.357 E10.93511
G1 X100.472 Y58.039 E10.96364
G1 X101.768 Y57.708 E11.00591
G1 X102.708 Y57.534 E11.03611
G1 X103.25 Y57.442 E11.05348
G1 X103.953 Y57.333 E11.07596
G1 X104.959 Y57.228 E11.10792
G1 X107.698 Y57.078 E11.19459
G1 X110.251 Y56.865 E11.27554
G1 X112.776 Y56.584 E11.35582
G1 X113.673 Y56.471 E11.38438
G1 X114.397 Y56.406 E11.40735
G1 X117.036 Y56.264 E11.49086
G1 X119.596 Y56.053 E11.57202
G1 X122.1 Y55.775 E11.65163
G1 X123.539 Y55.568 E11.69756
G1 X124.853 Y55.395 E11.73944
G1 X126.027 Y55.309 E11.77663
G1 X127.333 Y55.291 E11.8179
G1 X128.618 Y55.297 E11.85851
G0 F1350 X128.642 Y55.297
G0 X129.418 Y55.311
G0 F7500 X129.426 Y54.911
G1 F1500 X130.344 Y54.968 E11.88757
G1 X131.255 Y55.106 E11.91668
G1 X132.408 Y55.399 E11.95427
G1 X132.808 Y55.525 E11.96752
G1 X133.291 Y55.69 E11.98365
G1 X133.592 Y55.801 E11.99379
G1 X134.093 Y56 E12.01082
G1 X134.82 Y56.311 E12.0358
G1 X135.157 Y56.462 E12.04747
G1 X135.736 Y56.739 E12.06775
G1 X136.216 Y56.981 E12.08474
G1 X137.019 Y57.431 E12.11382
G1 X137.525 Y57.764 E12.13296
G1 X138.256 Y58.276 E12.16116
G1 X138.525 Y58.471 E12.17166
G1 X139.089 Y58.893 E12.19392
G1 X139.886 Y59.552 E12.22659
G1 X141.008 Y60.577 E12.27461
G1 X142.032 Y61.533 E12.31888
G1 X142.561 Y62.063 E12.34254
G1 X143.082 Y62.627 E12.3668
G1 X143.336 Y62.912 E12.37886
G1 X144.039 Y63.791 E12.41442
G1 X144.579 Y64.553 E12.44393
G1 X144.785 Y64.86 E12.45562
G1 X145.264 Y65.646 E12.4847
G1 X145.668 Y66.459 E12.51339
G1 X146.174 Y67.607 E12.55303
G1 X147.209 Y69.874 E12.63177
G1 X148.333 Y72.161 E12.71229
G1 X149.52 Y74.415 E12.79278
G1 X150.746 Y76.592 E12.87172
G1 X152.049 Y78.758 E12.95159
G1 X153.404 Y80.872 E13.03093
G1 X154.843 Y82.986 E13.11174
G1 X156.332 Y85.044 E13.192
G1 X157.865 Y87.041 E13.27155
G1 X159.455 Y88.997 E13.35119
G1 X161.095 Y90.9 E13.43057
G1 X162.817 Y92.787 E13.51129
G1 X164.579 Y94.613 E13.59147
G1 X166.365 Y96.363 E13.67047
G1 X168.233 Y98.09 E13.75086
G1 X170.122 Y99.739 E13.83009
G1 X172.108 Y101.379 E13.91147
G1 X172.686 Y101.837 E13.93477
G1 X172.97 Y102.069 E13.94636
G1 X173.657 Y102.682 E13.97545
G1 X174.003 Y103.034 E13.99105
G1 X174.164 Y103.206 E13.99849
G1 X174.56 Y103.654 E14.01738
G1 X174.885 Y104.043 E14.0334
G1 X175.444 Y104.774 E14.06248
G1 X176.111 Y105.865 E14.10288
G1 X176.255 Y106.136 E14.11258
G1 X176.442 Y106.506 E14.12568
G1 X176.632 Y106.9 E14.1395
G1 X176.995 Y107.746 E14.16859
G1 X177.284 Y108.62 E14.19767
G1 X177.496 Y109.516 E14.22676
G1 X177.629 Y110.427 E14.25585
G1 X177.684 Y111.504 E14.28993
G1 X177.684 Y113.486 E14.35255
G1 X177.644 Y114.406 E14.38165
G1 X177.524 Y115.319 E14.41075
G1 X177.326 Y116.218 E14.43983
G1 X177.05 Y117.096 E14.46892
G1 X176.782 Y117.765 E14.49169
G1 X176.598 Y118.182 E14.50609
G1 X176.17 Y119.044 E14.5365
G1 X175.618 Y120.036 E14.57237
G1 X145.284 Y172.579 E16.48938
G1 X144.267 Y174.337 E16.55356
G1 X143.914 Y174.928 E16.57531
G1 X143.389 Y175.723 E16.60541
G1 X143.163 Y176.034 E16.61756
G1 X142.59 Y176.755 E16.64666
G1 X141.885 Y177.492 E16.67888
G1 X141.669 Y177.697 E16.68829
G1 X140.974 Y178.301 E16.71739
G1 X140.193 Y178.867 E16.74786
G1 X139.776 Y179.141 E16.76363
G1 X138.985 Y179.612 E16.79272
G1 X138.157 Y180.014 E16.8218
G1 X137.52 Y180.264 E16.84342
G1 X137.114 Y180.409 E16.85704
G1 X136.235 Y180.681 E16.88612
G1 X134.939 Y180.935 E16.92785
G1 X134.478 Y180.996 E16.94254
G1 X133.552 Y181.078 E16.97191
G1 X133.324 Y181.088 E16.97912
G1 X132.919 Y181.098 E16.99193
G1 X132.562 Y181.1 E17.00321
G1 X102.485 Y181.099 E17.95355
G1 X101.787 Y181.089 E17.97561
G1 X100.896 Y181.039 E18.00381
G1 X100.461 Y180.996 E18.01762
G1 X99.55 Y180.865 E18.0467
G1 X98.308 Y180.554 E18.08716
G1 X97.957 Y180.443 E18.09879
G1 X97.092 Y180.127 E18.12789
G1 X96.003 Y179.601 E18.1661
G1 X95.627 Y179.392 E18.17969
G1 X94.843 Y178.91 E18.20877
G1 X93.86 Y178.159 E18.24786
G1 X93.543 Y177.886 E18.26108
G1 X92.872 Y177.255 E18.29018
G1 X92.008 Y176.252 E18.33201
G1 X91.737 Y175.894 E18.3462
G1 X91.211 Y175.132 E18.37545
G1 X90.941 Y174.693 E18.39174
G1 X90.74 Y174.351 E18.40427
G1 X60.24 Y121.521 E20.33176
G1 X59.219 Y119.751 E20.39633
G1 X58.907 Y119.194 E20.4165
G1 X58.638 Y118.686 E20.43466
G1 X58.253 Y117.855 E20.4636
G1 X58.11 Y117.507 E20.47549
G1 X57.798 Y116.641 E20.50457
G1 X57.562 Y115.751 E20.53367
G1 X57.403 Y114.844 E20.56276
G1 X57.315 Y113.473 E20.60617
G1 X57.316 Y111.497 E20.66861
G1 X57.356 Y110.577 E20.6977
G1 X57.477 Y109.664 E20.72681
G1 X57.675 Y108.765 E20.75589
G1 X57.952 Y107.887 E20.78498
G1 X58.377 Y106.88 E20.81952
G1 X58.667 Y106.291 E20.84026
G1 X58.838 Y105.962 E20.85198
G1 X59.297 Y105.165 E20.88104
G1 X59.922 Y104.284 E20.91517
G1 X60.068 Y104.099 E20.92262
G1 X60.439 Y103.654 E20.94092
G1 X60.723 Y103.332 E20.95449
G1 X61.362 Y102.669 E20.98358
G1 X62.313 Y101.864 E21.02295
G1 X63.07 Y101.296 E21.05286
G1 X65.128 Y99.705 E21.13505
G1 X67.068 Y98.119 E21.21422
G1 X68.982 Y96.457 E21.29432
G1 X70.839 Y94.754 E21.37393
G1 X72.661 Y92.983 E21.45422
G1 X74.425 Y91.17 E21.53414
G1 X76.121 Y89.323 E21.61338
G1 X77.801 Y87.388 E21.69435
G1 X79.39 Y85.45 E21.77353
G1 X80.945 Y83.44 E21.85383
G1 X82.43 Y81.402 E21.93351
G1 X83.866 Y79.312 E22.01363
G1 X85.217 Y77.22 E22.09232
G1 X86.56 Y75.006 E22.17414
G1 X87.799 Y72.827 E22.25334
G1 X88.975 Y70.614 E22.33252
G1 X90.115 Y68.316 E22.41358
G1 X90.942 Y66.542 E22.47542
G1 X91.455 Y65.412 E22.51463
G1 X91.739 Y64.807 E22.53575
G1 X92.166 Y63.991 E22.56485
G1 X92.662 Y63.216 E22.59392
G1 X93.223 Y62.486 E22.62302
G1 X93.846 Y61.808 E22.65211
G1 X94.526 Y61.187 E22.68121
G1 X95.206 Y60.662 E22.70835
G1 X96.222 Y59.945 E22.74764
G1 X97.219 Y59.27 E22.78569
G1 X97.817 Y58.877 E22.8083
G1 X98.608 Y58.405 E22.8374
G1 X99.437 Y58.004 E22.8665
G1 X100.297 Y57.676 E22.89558
G1 X101.182 Y57.424 E22.92466
G1 X101.695 Y57.315 E22.94123
G1 X102.64 Y57.14 E22.97159
G1 X103.189 Y57.047 E22.98919
G1 X103.892 Y56.938 E23.01167
G1 X104.937 Y56.829 E23.04486
G1 X107.679 Y56.679 E23.13163
G1 X110.171 Y56.471 E23.21065
G1 X112.767 Y56.182 E23.29318
G1 X113.624 Y56.074 E23.32047
G1 X114.376 Y56.006 E23.34433
G1 X117.054 Y55.862 E23.42907
G1 X119.552 Y55.656 E23.50827
G1 X122.03 Y55.381 E23.58705
G1 X123.486 Y55.172 E23.63352
G1 X124.8 Y54.999 E23.6754
G1 X126.02 Y54.909 E23.71405
G1 X127.335 Y54.891 E23.75561
G1 X128.626 Y54.897 E23.7964
G0 F1350 X128.644 Y54.897
G0 X129.426 Y54.911
G0 F7500 X129.433 Y54.511
G1 F1500 X130.369 Y54.569 E23.82603
G1 X131.297 Y54.706 E23.85567
G1 X132.528 Y55.017 E23.89579
G1 X132.928 Y55.143 E23.90904
G1 X133.429 Y55.314 E23.92577
G1 X133.73 Y55.425 E23.9359
G1 X134.25 Y55.633 E23.9536
G1 X134.977 Y55.944 E23.97859
G1 X135.327 Y56.1 E23.99069
G1 X135.916 Y56.382 E24.01133
G1 X136.396 Y56.624 E24.02831
G1 X137.215 Y57.081 E24.05795
G1 X137.755 Y57.436 E24.07837
G1 X138.486 Y57.948 E24.10657
G1 X138.765 Y58.151 E24.11747
G1 X139.329 Y58.573 E24.13972
G1 X140.156 Y59.257 E24.17363
G1 X141.281 Y60.284 E24.22177
G1 X142.305 Y61.24 E24.26603
G1 X142.854 Y61.791 E24.29061
G1 X143.381 Y62.361 E24.31514
G1 X143.635 Y62.646 E24.3272
G1 X144.364 Y63.558 E24.36409
G1 X144.718 Y64.052 E24.38329
G1 X144.911 Y64.33 E24.39399
G1 X145.117 Y64.637 E24.40567
G1 X145.606 Y65.437 E24.43529
G1 X146.034 Y66.296 E24.46562
G1 X146.535 Y67.434 E24.50491
G1 X147.568 Y69.697 E24.58351
G1 X148.695 Y71.992 E24.66429
G1 X149.856 Y74.196 E24.74301
G1 X151.104 Y76.41 E24.82331
G1 X152.386 Y78.542 E24.90192
G1 X153.755 Y80.678 E24.98208
G1 X155.165 Y82.749 E25.06124
G1 X156.628 Y84.772 E25.14013
G1 X158.177 Y86.79 E25.22051
G1 X159.784 Y88.766 E25.30099
G1 X161.395 Y90.635 E25.37895
G1 X163.1 Y92.503 E25.45887
G1 X164.864 Y94.332 E25.53916
G1 X166.657 Y96.088 E25.61845
G1 X168.487 Y97.78 E25.6972
G1 X170.395 Y99.446 E25.77724
G1 X172.371 Y101.078 E25.85822
G1 X172.939 Y101.527 E25.88109
G1 X173.223 Y101.759 E25.89268
G1 X173.923 Y102.383 E25.92231
G1 X174.295 Y102.761 E25.93907
G1 X174.456 Y102.933 E25.94651
G1 X174.867 Y103.397 E25.9661
G1 X175.192 Y103.786 E25.98212
G1 X175.762 Y104.531 E26.01176
G1 X176.464 Y105.677 E26.05422
G1 X176.608 Y105.948 E26.06392
G1 X176.802 Y106.332 E26.07751
G1 X176.992 Y106.726 E26.09133
G1 X177.363 Y107.587 E26.12095
G1 X177.659 Y108.477 E26.15059
G1 X177.879 Y109.389 E26.18023
G1 X178.02 Y110.316 E26.20986
G1 X178.084 Y111.504 E26.24745
G1 X178.084 Y113.486 E26.31008
G1 X178.044 Y114.423 E26.33971
G1 X177.924 Y115.353 E26.36934
G1 X177.726 Y116.27 E26.39898
G1 X177.45 Y117.166 E26.42861
G1 X177.148 Y117.927 E26.45448
G1 X176.964 Y118.344 E26.46888
G1 X176.52 Y119.238 E26.50042
G1 X175.964 Y120.236 E26.53651
G1 X145.63 Y172.779 E28.45353
G1 X144.611 Y174.542 E28.51787
G1 X144.258 Y175.133 E28.53962
G1 X143.713 Y175.958 E28.57087
G1 X143.487 Y176.269 E28.58301
G1 X142.903 Y177.004 E28.61267
G1 X142.16 Y177.782 E28.64667
G1 X141.944 Y177.987 E28.65608
G1 X141.237 Y178.603 E28.68571
G1 X140.413 Y179.201 E28.71788
G1 X139.996 Y179.475 E28.73364
G1 X139.19 Y179.956 E28.7633
G1 X138.347 Y180.367 E28.79293
G1 X137.655 Y180.641 E28.81645
G1 X137.249 Y180.786 E28.83007
G1 X136.353 Y181.064 E28.85971
G1 X134.992 Y181.332 E28.90354
G1 X134.531 Y181.393 E28.91824
G1 X133.57 Y181.477 E28.94872
G1 X133.342 Y181.487 E28.95593
G1 X132.922 Y181.498 E28.9692
G1 X132.565 Y181.5 E28.98048
G1 X102.479 Y181.499 E29.93111
G1 X101.781 Y181.489 E29.95317
G1 X100.857 Y181.437 E29.98241
G1 X100.422 Y181.394 E29.99623
G1 X99.493 Y181.262 E30.02587
G1 X98.187 Y180.935 E30.06841
G1 X97.836 Y180.824 E30.08005
G1 X96.955 Y180.503 E30.10967
G1 X95.809 Y179.951 E30.14986
G1 X95.433 Y179.742 E30.16346
G1 X94.633 Y179.251 E30.19312
G1 X93.599 Y178.462 E30.23421
G1 X93.282 Y178.189 E30.24743
G1 X92.598 Y177.547 E30.27707
G1 X91.689 Y176.493 E30.32105
G1 X91.418 Y176.135 E30.33524
G1 X90.873 Y175.345 E30.36556
G1 X90.597 Y174.896 E30.38222
G1 X90.394 Y174.551 E30.39486
G1 X59.894 Y121.721 E32.32236
G1 X58.87 Y119.947 E32.38708
G1 X58.558 Y119.39 E32.40725
G1 X58.282 Y118.87 E32.42585
G1 X57.884 Y118.007 E32.45588
G1 X57.741 Y117.659 E32.46777
G1 X57.421 Y116.777 E32.49741
G1 X57.178 Y115.871 E32.52705
G1 X57.014 Y114.948 E32.55667
G1 X56.928 Y114.014 E32.58631
G1 X56.915 Y113.472 E32.60344
G1 X56.916 Y111.496 E32.66588
G1 X56.956 Y110.559 E32.69551
G1 X57.077 Y109.629 E32.72514
