;FLAVOR:Marlin
;TIME:13119
;Filament used: 8.70149m
;Layer height: 0.2
;MINX:58.229
;MINY:51.097
;MINZ:0.2
;MAXX:176.77
;MAXY:183.225
;MAXZ:44.4
;Generated with Cura_SteamEngine 4.6.1
M140 S80
M105
M190 S80
M104 S240
M105
M109 S240
M82 ;absolute extrusion mode
; Ender 3 Custom Start G-code
G92 E0 ; Reset Extruder
G28 ; Home all axes
G1 Z2.0 F3000 ; Move Z Axis up little to prevent scratching of Heat Bed
G1 X0.1 Y20 Z0.3 F5000.0 ; Move to start position
G1 X0.1 Y200.0 Z0.3 F1500.0 E15 ; Draw the first line
G1 X0.4 Y200.0 Z0.3 F5000.0 ; Move to side a little
G1 X0.4 Y20 Z0.3 F1500.0 E30 ; Draw the second line
G92 E0 ; Reset Extruder
G1 Z2.0 F3000 ; Move Z Axis up little to prevent scratching of Heat Bed
G1 X5 Y20 Z0.3 F5000.0 ; Move over to prevent blob squish
G92 E0
G92 E0
G1 F2700 E-5
;LAYER_COUNT:222
;LAYER:0
M107
G0 F6000 X124.264 Y52.001 Z0.2
;TYPE:SKIRT
G1 F2700 E0
G1 F900 X125.15 Y52.172 E0.03001
G1 X126.424 Y52.567 E0.07438
G1 X127.157 Y52.852 E0.10053
G1 X127.886 Y53.16 E0.12686
G1 X128.487 Y53.429 E0.14876
G1 X130.875 Y54.457 E0.23523
G1 X133.249 Y55.402 E0.32021
G1 X136.831 Y56.681 E0.44672
G1 X137.646 Y56.958 E0.47535
G1 X138.172 Y57.151 E0.49398
G1 X139.005 Y57.5 E0.52402
G1 X139.915 Y57.986 E0.55833
G1 X140.354 Y58.25 E0.57537
G1 X140.642 Y58.43 E0.58667
G1 X141.15 Y58.759 E0.6068
G1 X141.885 Y59.283 E0.63682
G1 X142.683 Y59.976 E0.67197
G1 X143.301 Y60.578 E0.70067
G1 X143.705 Y60.993 E0.71993
G1 X144.305 Y61.667 E0.74995
G1 X144.942 Y62.539 E0.78586
G1 X145.245 Y63.004 E0.80432
G1 X145.411 Y63.269 E0.81472
G1 X145.702 Y63.747 E0.83334
G1 X146.137 Y64.538 E0.86336
G1 X146.542 Y65.474 E0.89728
G1 X146.733 Y65.984 E0.91539
G1 X146.854 Y66.326 E0.92746
G1 X147.423 Y68.029 E0.98718
G1 X148.297 Y70.523 E1.07508
G1 X149.208 Y72.906 E1.15993
G1 X150.182 Y75.253 E1.24445
G1 X151.216 Y77.556 E1.32841
G1 X152.323 Y79.85 E1.41313
G1 X153.499 Y82.118 E1.4981
G1 X154.717 Y84.311 E1.58154
G1 X156.025 Y86.517 E1.66683
G1 X157.378 Y88.661 E1.75116
G1 X158.785 Y90.755 E1.83507
G1 X160.279 Y92.85 E1.92065
G1 X161.794 Y94.85 E2.0041
G1 X163.403 Y96.856 E2.08963
G1 X165.02 Y98.758 E2.17266
G1 X166.742 Y100.67 E2.25824
G1 X168.473 Y102.488 E2.34174
G1 X170.341 Y104.341 E2.42925
G1 X171.279 Y105.252 E2.47274
G1 X171.93 Y105.924 E2.50386
G1 X172.275 Y106.298 E2.52078
G1 X172.858 Y106.988 E2.55083
G1 X173.377 Y107.727 E2.58086
G1 X173.828 Y108.509 E2.61089
G1 X174.253 Y109.437 E2.64484
G1 X174.835 Y110.899 E2.69717
G1 X175.028 Y111.406 E2.71522
G1 X175.265 Y112.012 E2.73686
G1 X175.556 Y112.867 E2.7669
G1 X175.77 Y113.745 E2.79696
G1 X175.906 Y114.638 E2.827
G1 X175.962 Y115.534 E2.85686
G1 X175.97 Y115.966 E2.87123
G1 X175.97 Y116.363 E2.88443
G1 X175.958 Y116.952 E2.90403
G1 X175.9 Y117.853 E2.93406
G1 X175.772 Y118.695 E2.96238
G1 X175.644 Y119.352 E2.98465
G1 X175.57 Y119.697 E2.99638
G1 X175.497 Y120.013 E3.00717
G1 X175.255 Y120.883 E3.0372
G1 X174.955 Y121.686 E3.06572
G1 X174.653 Y122.401 E3.09153
G1 X174.491 Y122.764 E3.10475
G1 X174.362 Y123.039 E3.11485
G1 X174.138 Y123.488 E3.13154
G1 X174.008 Y123.733 E3.14077
G1 X173.843 Y124.033 E3.15216
G1 X173.515 Y124.604 E3.17406
G1 X155.695 Y155.47 E4.35947
G1 X154.443 Y157.711 E4.44485
G1 X153.261 Y159.976 E4.52983
G1 X152.144 Y162.269 E4.61466
G1 X151.1 Y164.578 E4.69894
G1 X150.121 Y166.916 E4.78325
G1 X149.205 Y169.298 E4.86813
G1 X148.361 Y171.684 E4.95231
G1 X147.56 Y174.172 E5.03924
G1 X147.252 Y175.18 E5.0743
G1 X146.95 Y176.031 E5.10433
G1 X146.574 Y176.852 E5.13437
G1 X146.126 Y177.636 E5.1644
G1 X145.611 Y178.378 E5.19444
G1 X145.032 Y179.072 E5.2245
G1 X144.395 Y179.711 E5.25451
G1 X143.703 Y180.291 E5.28454
G1 X142.962 Y180.808 E5.31459
G1 X142.179 Y181.258 E5.34463
G1 X141.359 Y181.636 E5.37466
G1 X140.509 Y181.941 E5.4047
G1 X139.635 Y182.169 E5.43474
G1 X138.425 Y182.353 E5.47545
G1 X138.096 Y182.383 E5.48644
G1 X137.17 Y182.425 E5.51727
G1 X98.061 Y182.424 E6.81804
G1 X97.363 Y182.414 E6.84125
G1 X96.461 Y182.361 E6.87131
G1 X95.568 Y182.229 E6.90133
G1 X94.69 Y182.018 E6.93137
G1 X93.834 Y181.73 E6.9614
G1 X93.007 Y181.368 E6.99143
G1 X92.215 Y180.933 E7.02148
G1 X91.464 Y180.431 E7.05153
G1 X90.761 Y179.864 E7.08157
G1 X90.111 Y179.237 E7.11161
G1 X89.519 Y178.555 E7.14164
G1 X88.989 Y177.824 E7.17167
G1 X88.527 Y177.048 E7.20171
G1 X88.134 Y176.235 E7.23175
G1 X87.814 Y175.385 E7.26195
G1 X87.673 Y174.948 E7.27723
G1 X87.022 Y172.827 E7.35102
G1 X86.22 Y170.457 E7.43424
G1 X85.322 Y168.034 E7.52018
G1 X84.383 Y165.706 E7.60367
G1 X83.358 Y163.354 E7.68901
G1 X82.28 Y161.063 E7.77322
G1 X81.156 Y158.837 E7.85616
G1 X79.3 Y155.463 E7.98424
G1 X61.323 Y124.321 E9.18022
G1 X60.976 Y123.7 E9.20388
G1 X60.712 Y123.196 E9.2228
G1 X60.613 Y122.993 E9.23031
G1 X60.426 Y122.586 E9.24521
G1 X60.118 Y121.877 E9.27092
G1 X59.795 Y121.034 E9.30094
G1 X59.545 Y120.154 E9.33137
G1 X59.396 Y119.522 E9.35297
G1 X59.331 Y119.224 E9.36311
G1 X59.249 Y118.823 E9.37673
G1 X59.107 Y117.932 E9.40674
G1 X59.051 Y117.21 E9.43082
G1 X59.038 Y116.902 E9.44107
G1 X59.029 Y116.39 E9.45811
G1 X59.035 Y115.644 E9.48292
G1 X59.083 Y114.742 E9.51296
G1 X59.209 Y113.848 E9.54299
G1 X59.415 Y112.969 E9.57302
G1 X59.752 Y111.969 E9.60812
G1 X60.002 Y111.338 E9.63069
G1 X60.691 Y109.563 E9.69402
G1 X61.054 Y108.736 E9.72406
G1 X61.489 Y107.945 E9.75408
G1 X61.993 Y107.195 E9.78414
G1 X62.66 Y106.383 E9.81909
G1 X63.162 Y105.832 E9.84388
G1 X63.401 Y105.578 E9.85548
G1 X63.885 Y105.088 E9.87839
G1 X64.816 Y104.186 E9.9215
G1 X66.67 Y102.338 E10.00857
G1 X68.426 Y100.485 E10.09348
G1 X70.116 Y98.598 E10.17773
G1 X71.751 Y96.666 E10.26191
G1 X73.339 Y94.677 E10.34656
G1 X74.879 Y92.632 E10.43171
G1 X76.337 Y90.578 E10.51549
G1 X77.74 Y88.478 E10.59949
G1 X79.092 Y86.324 E10.68407
G1 X80.397 Y84.109 E10.76958
G1 X81.615 Y81.9 E10.85348
G1 X82.778 Y79.645 E10.93787
G1 X83.886 Y77.336 E11.02305
G1 X84.898 Y75.065 E11.10574
G1 X85.885 Y72.671 E11.19187
G1 X86.789 Y70.292 E11.27652
G1 X87.57 Y68.039 E11.35583
G1 X88.226 Y66.099 E11.42394
G1 X88.426 Y65.553 E11.44328
G1 X88.774 Y64.719 E11.47334
G1 X89.289 Y63.761 E11.50951
G1 X89.707 Y63.082 E11.53603
G1 X90.035 Y62.575 E11.55612
G1 X90.559 Y61.839 E11.58617
G1 X91.263 Y61.028 E11.62189
G1 X91.855 Y60.422 E11.65006
G1 X92.27 Y60.018 E11.66933
G1 X92.944 Y59.418 E11.69934
G1 X93.827 Y58.774 E11.73569
G1 X94.537 Y58.317 E11.76377
G1 X95.003 Y58.032 E11.78194
G1 X95.794 Y57.596 E11.81198
G1 X96.296 Y57.363 E11.83039
G1 X97.289 Y56.936 E11.86634
G1 X99.702 Y55.859 E11.95423
G1 X101.962 Y54.772 E12.03764
G1 X104.001 Y53.725 E12.11387
G1 X104.495 Y53.463 E12.13247
G1 X105.04 Y53.195 E12.15267
G1 X105.334 Y53.061 E12.16342
G1 X106.171 Y52.723 E12.19344
G1 X107.035 Y52.46 E12.22348
G1 X107.919 Y52.275 E12.25352
G1 X108.816 Y52.169 E12.28356
G1 X109.576 Y52.142 E12.30885
G1 X111.135 Y52.144 E12.36071
G1 X113.703 Y52.105 E12.44613
G1 X114.432 Y52.084 E12.47039
G1 X116.427 Y51.998 E12.5368
G1 X117.168 Y51.981 E12.56145
G1 X118.36 Y51.98 E12.6011
G1 X121.064 Y51.94 E12.69104
G1 X122.462 Y51.897 E12.73756
G1 X123.365 Y51.909 E12.7676
G1 X124.264 Y52.001 E12.79766
G0 F6000 X124.287 Y51.6
G1 F900 X125.191 Y51.771 E12.82826
G1 X126.078 Y52.02 E12.8589
G1 X126.567 Y52.194 E12.87616
G1 X127.311 Y52.483 E12.90271
G1 X128.05 Y52.794 E12.92938
G1 X128.661 Y53.067 E12.95164
G1 X131.058 Y54.1 E13.03845
G1 X133.378 Y55.023 E13.12149
G1 X136.997 Y56.315 E13.2493
G1 X137.783 Y56.583 E13.27692
G1 X138.309 Y56.776 E13.29556
G1 X139.159 Y57.13 E13.32618
G1 X140.121 Y57.643 E13.36245
G1 X140.56 Y57.907 E13.37948
G1 X140.859 Y58.094 E13.39121
G1 X141.367 Y58.423 E13.41134
G1 X142.117 Y58.956 E13.44195
G1 X142.961 Y59.688 E13.4791
G1 X143.348 Y60.061 E13.49698
G1 X143.587 Y60.299 E13.5082
G1 X143.991 Y60.714 E13.52746
G1 X144.604 Y61.401 E13.55809
G1 X145.277 Y62.321 E13.596
G1 X145.58 Y62.786 E13.61446
G1 X145.753 Y63.061 E13.62526
G1 X146.044 Y63.539 E13.64388
G1 X146.488 Y64.345 E13.67448
G1 X146.917 Y65.333 E13.71031
G1 X147.108 Y65.843 E13.72842
G1 X147.234 Y66.199 E13.74098
G1 X147.83 Y67.981 E13.80348
G1 X148.676 Y70.397 E13.88862
G1 X149.569 Y72.734 E13.97183
G1 X150.545 Y75.085 E14.05649
G1 X151.583 Y77.397 E14.14079
G1 X152.681 Y79.671 E14.22478
G1 X153.839 Y81.904 E14.30844
G1 X155.076 Y84.133 E14.39323
G1 X156.374 Y86.322 E14.47787
G1 X157.705 Y88.43 E14.56079
G1 X159.11 Y90.522 E14.6446
G1 X160.596 Y92.605 E14.72971
G1 X162.109 Y94.603 E14.81307
G1 X163.704 Y96.591 E14.89784
G1 X165.337 Y98.512 E14.9817
G1 X167.03 Y100.392 E15.06584
G1 X168.762 Y102.21 E15.14936
G1 X170.618 Y104.052 E15.23633
G1 X171.565 Y104.972 E15.28024
G1 X172.011 Y105.428 E15.30146
G1 X172.224 Y105.653 E15.31176
G1 X172.569 Y106.027 E15.32869
G1 X173.164 Y106.73 E15.35932
G1 X173.695 Y107.482 E15.38994
G1 X174.158 Y108.277 E15.42054
G1 X174.624 Y109.289 E15.45759
G1 X175.208 Y110.757 E15.51014
G1 X175.374 Y111.191 E15.5256
G1 X175.638 Y111.867 E15.54973
G1 X175.935 Y112.738 E15.58034
G1 X176.156 Y113.632 E15.61097
G1 X176.298 Y114.542 E15.6416
G1 X176.362 Y115.527 E15.67443
G1 X176.37 Y115.959 E15.6888
G1 X176.37 Y116.371 E15.70251
G1 X176.358 Y116.96 E15.7221
G1 X176.299 Y117.879 E15.75273
G1 X176.164 Y118.771 E15.78274
G1 X176.036 Y119.428 E15.805
G1 X175.96 Y119.787 E15.8172
G1 X175.887 Y120.103 E15.82799
G1 X175.641 Y120.99 E15.85861
G1 X175.324 Y121.841 E15.88881
G1 X175.022 Y122.556 E15.91463
G1 X174.854 Y122.934 E15.92839
G1 X174.725 Y123.209 E15.93849
G1 X174.491 Y123.675 E15.95583
G1 X174.361 Y123.92 E15.96506
G1 X174.189 Y124.232 E15.97691
G1 X173.861 Y124.803 E15.99881
G1 X156.048 Y155.659 E17.18382
G1 X154.789 Y157.912 E17.26966
G1 X153.631 Y160.129 E17.35285
G1 X152.511 Y162.43 E17.43797
G1 X151.463 Y164.749 E17.52261
G1 X150.482 Y167.089 E17.607
G1 X149.589 Y169.414 E17.68984
G1 X148.743 Y171.804 E17.77416
G1 X147.945 Y174.285 E17.86084
G1 X147.635 Y175.297 E17.89605
G1 X147.328 Y176.165 E17.92667
G1 X146.946 Y177.003 E17.9573
G1 X146.493 Y177.804 E17.98791
G1 X145.973 Y178.564 E18.01854
G1 X145.388 Y179.275 E18.04916
G1 X144.744 Y179.933 E18.07978
G1 X144.045 Y180.532 E18.1104
G1 X143.297 Y181.069 E18.14103
G1 X142.505 Y181.538 E18.17164
G1 X141.675 Y181.938 E18.20228
G1 X140.814 Y182.263 E18.23289
G1 X139.928 Y182.513 E18.26351
G1 X139.024 Y182.685 E18.29412
G1 X138.462 Y182.751 E18.31294
G1 X138.133 Y182.781 E18.32393
G1 X137.17 Y182.825 E18.35599
G1 X98.055 Y182.824 E19.65696
G1 X97.357 Y182.814 E19.68018
G1 X96.438 Y182.761 E19.7108
G1 X95.527 Y182.628 E19.74142
G1 X94.631 Y182.417 E19.77203
G1 X93.757 Y182.129 E19.80264
G1 X92.91 Y181.766 E19.83329
G1 X92.099 Y181.331 E19.8639
G1 X91.329 Y180.827 E19.89451
G1 X90.605 Y180.258 E19.92513
G1 X89.933 Y179.628 E19.95577
G1 X89.318 Y178.943 E19.98639
G1 X88.765 Y178.207 E20.01701
G1 X88.278 Y177.426 E20.04762
G1 X87.861 Y176.605 E20.07825
G1 X87.434 Y175.509 E20.11737
G1 X87.291 Y175.066 E20.13285
G1 X86.644 Y172.958 E20.20619
G1 X85.841 Y170.588 E20.28942
G1 X84.947 Y168.174 E20.37504
G1 X84.017 Y165.866 E20.4578
G1 X82.993 Y163.518 E20.543
G1 X81.919 Y161.235 E20.62692
G1 X80.812 Y159.043 E20.70859
G1 X78.93 Y155.621 E20.83849
G1 X60.974 Y124.517 E22.03302
G1 X60.627 Y123.896 E22.05668
G1 X60.353 Y123.371 E22.07638
G1 X60.254 Y123.168 E22.08389
G1 X60.059 Y122.745 E22.09938
G1 X59.751 Y122.036 E22.12509
G1 X59.421 Y121.177 E22.1557
G1 X59.156 Y120.245 E22.18792
G1 X58.939 Y119.305 E22.22001
G1 X58.857 Y118.904 E22.23362
G1 X58.712 Y117.994 E22.26427
G1 X58.651 Y117.227 E22.28986
G1 X58.638 Y116.919 E22.30012
G1 X58.629 Y116.387 E22.31781
G1 X58.635 Y115.641 E22.34263
G1 X58.683 Y114.721 E22.37327
G1 X58.81 Y113.809 E22.40389
G1 X59.015 Y112.912 E22.4345
G1 X59.38 Y111.822 E22.47273
G1 X59.63 Y111.191 E22.4953
G1 X60.318 Y109.418 E22.55856
G1 X60.688 Y108.575 E22.58918
G1 X61.129 Y107.767 E22.61979
G1 X61.639 Y107.001 E22.6504
G1 X62.364 Y106.113 E22.68853
G1 X62.866 Y105.562 E22.71332
G1 X63.115 Y105.299 E22.72537
G1 X63.607 Y104.801 E22.74865
G1 X64.503 Y103.933 E22.79014
G1 X66.397 Y102.044 E22.87911
G1 X68.121 Y100.226 E22.96245
G1 X69.811 Y98.338 E23.04672
G1 X71.434 Y96.421 E23.13027
G1 X73.039 Y94.41 E23.21584
G1 X74.532 Y92.428 E23.29837
G1 X76.022 Y90.329 E23.38399
G1 X77.418 Y88.24 E23.46756
G1 X78.753 Y86.113 E23.55108
G1 X80.045 Y83.919 E23.63577
G1 X81.245 Y81.745 E23.71836
G1 X82.44 Y79.424 E23.80518
G1 X83.505 Y77.207 E23.88699
G1 X84.552 Y74.856 E23.97259
G1 X85.501 Y72.556 E24.05534
G1 X86.413 Y70.156 E24.14073
G1 X87.192 Y67.908 E24.21987
G1 X87.851 Y65.961 E24.28823
G1 X88.051 Y65.415 E24.30757
G1 X88.405 Y64.565 E24.3382
G1 X88.948 Y63.553 E24.3764
G1 X89.371 Y62.864 E24.40329
G1 X89.699 Y62.357 E24.42337
G1 X90.232 Y61.607 E24.45397
G1 X90.976 Y60.75 E24.49172
G1 X91.576 Y60.136 E24.52027
G1 X91.991 Y59.732 E24.53954
G1 X92.678 Y59.119 E24.57016
G1 X93.609 Y58.439 E24.6085
G1 X94.328 Y57.976 E24.63695
G1 X94.794 Y57.691 E24.65512
G1 X95.6 Y57.245 E24.68575
G1 X96.138 Y56.996 E24.70547
G1 X97.117 Y56.575 E24.74092
G1 X99.515 Y55.504 E24.82827
G1 X101.785 Y54.413 E24.91204
G1 X103.777 Y53.39 E24.98652
G1 X104.307 Y53.109 E25.00647
G1 X104.874 Y52.831 E25.02747
G1 X105.168 Y52.697 E25.03822
G1 X106.021 Y52.352 E25.06882
G1 X106.902 Y52.082 E25.09947
G1 X107.802 Y51.889 E25.13008
G1 X108.716 Y51.776 E25.16071
G1 X109.577 Y51.742 E25.18937
G1 X111.129 Y51.744 E25.24099
G1 X113.684 Y51.705 E25.32598
G1 X114.405 Y51.685 E25.34997
G1 X116.416 Y51.598 E25.41692
G1 X117.168 Y51.581 E25.44194
G1 X118.354 Y51.58 E25.48139
G1 X121.046 Y51.54 E25.57093
G1 X122.45 Y51.497 E25.61765
G1 X123.37 Y51.509 E25.64825
G1 X124.287 Y51.6 E25.6789
G0 F6000 X124.309 Y51.199
G1 F900 X125.231 Y51.37 E25.71009
G1 X126.136 Y51.618 E25.7413
G1 X126.71 Y51.82 E25.76154
G1 X127.465 Y52.114 E25.78849
G1 X128.213 Y52.429 E25.81548
G1 X128.834 Y52.706 E25.8381
G1 X131.215 Y53.732 E25.92433
G1 X133.526 Y54.652 E26.00706
G1 X137.056 Y55.913 E26.13174
G1 X137.921 Y56.207 E26.16212
G1 X138.447 Y56.4 E26.18076
G1 X139.313 Y56.761 E26.21196
G1 X140.327 Y57.3 E26.25016
G1 X140.766 Y57.564 E26.2672
G1 X141.077 Y57.758 E26.27939
G1 X141.585 Y58.087 E26.29952
G1 X142.349 Y58.63 E26.33069
G1 X143.239 Y59.4 E26.36984
G1 X143.626 Y59.773 E26.38771
G1 X143.874 Y60.02 E26.39935
G1 X144.278 Y60.435 E26.41862
G1 X144.903 Y61.134 E26.44981
G1 X145.612 Y62.103 E26.48974
G1 X146.095 Y62.853 E26.51941
G1 X146.386 Y63.331 E26.53802
G1 X146.839 Y64.152 E26.56921
G1 X147.291 Y65.193 E26.60696
G1 X147.482 Y65.703 E26.62507
G1 X147.613 Y66.072 E26.63809
G1 X148.183 Y67.777 E26.69789
G1 X149.056 Y70.269 E26.78571
G1 X149.942 Y72.587 E26.86825
G1 X150.916 Y74.934 E26.95276
G1 X151.951 Y77.238 E27.03677
G1 X153.038 Y79.492 E27.12
G1 X154.2 Y81.732 E27.20393
G1 X155.412 Y83.915 E27.28698
G1 X156.698 Y86.083 E27.37082
G1 X158.059 Y88.24 E27.45565
G1 X159.451 Y90.313 E27.5387
G1 X160.908 Y92.354 E27.62211
G1 X162.425 Y94.357 E27.70568
G1 X164.005 Y96.327 E27.78967
G1 X165.64 Y98.251 E27.87365
G1 X167.333 Y100.131 E27.95779
G1 X169.05 Y101.933 E28.04058
G1 X170.857 Y103.727 E28.12527
G1 X171.851 Y104.693 E28.17137
G1 X172.518 Y105.382 E28.20327
G1 X172.863 Y105.756 E28.22019
G1 X173.469 Y106.471 E28.25136
G1 X174.012 Y107.236 E28.28257
G1 X174.488 Y108.045 E28.31378
G1 X174.996 Y109.141 E28.35396
G1 X175.582 Y110.614 E28.40669
G1 X175.746 Y111.045 E28.42203
G1 X176.01 Y111.721 E28.44617
G1 X176.314 Y112.609 E28.47738
G1 X176.541 Y113.519 E28.50858
G1 X176.689 Y114.445 E28.53977
G1 X176.762 Y115.519 E28.57557
G1 X176.77 Y115.951 E28.58994
G1 X176.77 Y116.379 E28.60418
G1 X176.758 Y116.968 E28.62377
G1 X176.699 Y117.904 E28.65496
G1 X176.557 Y118.848 E28.68672
G1 X176.429 Y119.505 E28.70898
G1 X176.35 Y119.877 E28.72163
G1 X176.277 Y120.193 E28.73241
G1 X176.027 Y121.097 E28.76361
G1 X175.692 Y121.997 E28.79555
G1 X175.39 Y122.712 E28.82137
G1 X175.216 Y123.104 E28.83563
G1 X175.087 Y123.379 E28.84573
G1 X174.845 Y123.863 E28.86373
G1 X174.715 Y124.108 E28.87296
G1 X174.536 Y124.431 E28.88524
G1 X174.208 Y125.002 E28.90714
G1 X156.431 Y155.794 E30.08971
G1 X155.135 Y158.114 E30.1781
G1 X153.974 Y160.339 E30.26157
G1 X152.871 Y162.604 E30.34536
