;FLAVOR:Marlin
;TIME:4268
;Filament used: 4.28875m
;Layer height: 0.28
;MINX:86.274
;MINY:53.724
;MINZ:0.285
;MAXX:148.749
;MAXY:181.5
;MAXZ:41.725
;Generated with Cura_SteamEngine 4.6.1
M140 S50
M105
M190 S50
M104 S200
M105
M109 S200
M82 ;absolute extrusion mode
; Ender 3 Custom Start G-code
G92 E0 ; Reset Extruder
G28 ; Home all axes
G1 Z2.0 F3000 ; Move Z Axis up little to prevent scratching of Heat Bed
G1 X0.1 Y20 Z0.3 F5000.0 ; Move to start position
G1 X0.1 Y200.0 Z0.3 F1500.0 E15 ; Draw the first line
G1 X0.4 Y200.0 Z0.3 F5000.0 ; Move to side a little
G1 X0.4 Y20 Z0.3 F1500.0 E30 ; Draw the second line
G92 E0 ; Reset Extruder
G1 Z2.0 F3000 ; Move Z Axis up little to prevent scratching of Heat Bed
G1 X5 Y20 Z0.3 F5000.0 ; Move over to prevent blob squish
G92 E0
G92 E0
G1 F2700 E-6
;LAYER_COUNT:149
;LAYER:0
M107
M204 S500
M205 X8 Y8
G0 F7500 X137.77 Y54.535 Z0.285
;TYPE:SKIRT
G1 F2700 E0
G1 F1500 X138.672 Y54.588 E0.04068
G1 X139.565 Y54.72 E0.08133
G1 X140.444 Y54.931 E0.12203
G1 X141.3 Y55.219 E0.1627
G1 X142.127 Y55.581 E0.20334
G1 X142.919 Y56.015 E0.24401
G1 X143.669 Y56.518 E0.28467
G1 X144.372 Y57.085 E0.32533
G1 X145.022 Y57.711 E0.36597
G1 X145.568 Y58.335 E0.4033
G1 X145.684 Y58.479 E0.41163
G1 X146.219 Y59.207 E0.4523
G1 X146.688 Y59.979 E0.49298
G1 X147.086 Y60.79 E0.53365
G1 X147.411 Y61.632 E0.57429
G1 X147.66 Y62.5 E0.61495
G1 X147.831 Y63.387 E0.65562
G1 X147.94 Y64.73 E0.71629
G1 X147.949 Y65.428 E0.74772
G1 X147.948 Y114.227 E2.94494
G1 X147.948 Y130.791 E3.69075
G1 X147.938 Y131.489 E3.72218
G1 X147.885 Y132.391 E3.76286
G1 X147.817 Y132.914 E3.78661
G1 X147.657 Y133.941 E3.83341
G1 X147.295 Y136.476 E3.94871
G1 X147.002 Y139.051 E4.0654
G1 X146.785 Y141.587 E4.18
G1 X146.643 Y144.079 E4.29239
G1 X146.569 Y146.645 E4.40797
G1 X146.569 Y149.18 E4.52211
G1 X146.64 Y151.713 E4.63621
G1 X146.783 Y154.256 E4.75089
G1 X146.997 Y156.786 E4.86521
G1 X147.284 Y159.318 E4.97995
G1 X147.645 Y161.867 E5.09586
G1 X147.779 Y162.679 E5.13292
G1 X147.891 Y163.635 E5.17626
G1 X147.925 Y164.128 E5.19851
G1 X147.949 Y164.83 E5.23014
G1 X147.948 Y169.89 E5.45797
G1 X147.939 Y170.617 E5.4907
G1 X147.888 Y171.519 E5.53138
G1 X147.757 Y172.413 E5.57207
G1 X147.548 Y173.291 E5.6127
G1 X147.262 Y174.148 E5.65338
G1 X146.901 Y174.976 E5.69405
G1 X146.469 Y175.768 E5.73467
G1 X145.968 Y176.52 E5.77536
G1 X145.402 Y177.224 E5.81603
G1 X144.777 Y177.875 E5.85667
G1 X144.096 Y178.469 E5.89735
G1 X143.365 Y179 E5.93803
G1 X142.591 Y179.464 E5.97867
G1 X141.778 Y179.858 E6.01935
G1 X140.934 Y180.178 E6.05999
G1 X140.064 Y180.423 E6.10068
G1 X139.177 Y180.589 E6.14131
G1 X138.026 Y180.687 E6.19333
G1 X137.419 Y180.7 E6.22066
G1 X130.31 Y180.699 E6.54075
G1 X129.613 Y180.689 E6.57214
G1 X128.81 Y180.646 E6.60835
G1 X128.596 Y180.626 E6.61802
G1 X128.069 Y180.565 E6.64191
G1 X127.178 Y180.414 E6.6826
G1 X126.261 Y180.171 E6.72532
G1 X126.039 Y180.101 E6.7358
G1 X125.616 Y179.958 E6.7559
G1 X125.41 Y179.883 E6.76577
G1 X124.576 Y179.536 E6.80644
G1 X123.572 Y178.996 E6.85777
G1 X123.208 Y178.773 E6.87699
G1 X122.459 Y178.267 E6.91769
G1 X121.602 Y177.555 E6.96786
G1 X121.424 Y177.39 E6.97879
G1 X121.056 Y177.032 E7.00191
G1 X120.897 Y176.869 E7.01216
G1 X120.296 Y176.196 E7.05278
G1 X119.728 Y175.428 E7.09579
G1 X119.616 Y175.261 E7.10485
G1 X119.356 Y174.853 E7.12663
G1 X119.234 Y174.651 E7.13726
G1 X118.802 Y173.858 E7.17792
G1 X118.392 Y172.898 E7.22492
G1 X118.23 Y172.455 E7.24616
G1 X117.341 Y169.913 E7.36741
G1 X116.439 Y167.55 E7.48129
G1 X115.464 Y165.2 E7.59585
G1 X114.424 Y162.877 E7.71045
G1 X113.324 Y160.598 E7.82439
G1 X112.163 Y158.357 E7.93803
G1 X110.719 Y155.76 E8.07182
G1 X88.935 Y118.027 E10.03359
G1 X88.604 Y117.434 E10.06417
G1 X88.217 Y116.667 E10.10285
G1 X88.141 Y116.499 E10.11115
G1 X87.805 Y115.661 E10.15181
G1 X87.494 Y114.581 E10.20241
G1 X87.347 Y113.928 E10.23255
G1 X87.274 Y113.569 E10.24904
G1 X87.133 Y112.676 E10.28975
G1 X87.072 Y111.775 E10.33041
G1 X87.11 Y110.622 E10.38235
G1 X87.152 Y110.155 E10.40347
G1 X87.273 Y109.26 E10.44413
G1 X87.472 Y108.379 E10.4848
G1 X87.647 Y107.807 E10.51173
G1 X87.78 Y107.413 E10.53045
G1 X88.106 Y106.571 E10.57111
G1 X88.698 Y105.427 E10.62911
G1 X88.938 Y105.027 E10.65011
G1 X89.436 Y104.274 E10.69076
G1 X89.999 Y103.568 E10.73142
G1 X90.402 Y103.133 E10.75812
G1 X90.707 Y102.822 E10.77773
G1 X91.284 Y102.277 E10.81347
G1 X92.074 Y101.588 E10.86066
G1 X93.991 Y99.871 E10.97654
G1 X95.843 Y98.116 E11.09142
G1 X97.627 Y96.326 E11.20521
G1 X99.385 Y94.459 E11.32068
G1 X101.044 Y92.594 E11.43307
G1 X102.71 Y90.612 E11.54965
G1 X104.278 Y88.636 E11.66323
G1 X105.805 Y86.594 E11.77803
G1 X107.251 Y84.542 E11.89106
G1 X108.665 Y82.411 E12.00621
G1 X110 Y80.27 E12.11982
G1 X111.291 Y78.061 E12.23502
G1 X112.512 Y75.832 E12.34945
G1 X113.663 Y73.58 E12.46333
G1 X114.763 Y71.27 E12.57853
G1 X115.781 Y68.964 E12.69203
G1 X116.725 Y66.654 E12.80439
G1 X118.007 Y63.187 E12.97082
G1 X118.315 Y62.305 E13.01289
G1 X118.649 Y61.466 E13.05355
G1 X119.171 Y60.462 E13.1045
G1 X119.366 Y60.133 E13.12172
G1 X119.861 Y59.378 E13.16237
G1 X120.42 Y58.668 E13.20305
G1 X120.779 Y58.274 E13.22705
G1 X121.106 Y57.933 E13.24833
G1 X121.759 Y57.31 E13.28896
G1 X122.81 Y56.506 E13.34854
G1 X123.176 Y56.262 E13.36835
G1 X123.949 Y55.795 E13.40901
G1 X124.76 Y55.398 E13.44967
G1 X125.603 Y55.074 E13.49033
G1 X126.472 Y54.826 E13.53102
G1 X127.359 Y54.656 E13.57169
G1 X128.497 Y54.555 E13.62313
G1 X129.254 Y54.53 E13.65723
G1 X129.591 Y54.524 E13.67241
G1 X137.069 Y54.525 E14.00911
G1 X137.77 Y54.535 E14.04068
G0 F7500 X137.776 Y54.135
G1 F1500 X138.695 Y54.188 E14.08213
G1 X139.606 Y54.321 E14.12358
G1 X140.502 Y54.532 E14.16503
G1 X141.377 Y54.82 E14.2065
G1 X142.223 Y55.183 E14.24795
G1 X143.034 Y55.618 E14.28939
G1 X143.805 Y56.122 E14.33087
G1 X144.529 Y56.691 E14.37233
G1 X145.201 Y57.32 E14.41377
G1 X145.88 Y58.084 E14.45979
G1 X145.996 Y58.228 E14.46812
G1 X146.542 Y58.97 E14.5096
G1 X147.021 Y59.756 E14.55104
G1 X147.431 Y60.58 E14.59248
G1 X147.767 Y61.437 E14.63393
G1 X148.028 Y62.32 E14.67539
G1 X148.211 Y63.222 E14.71683
G1 X148.315 Y64.137 E14.75829
G1 X148.34 Y64.724 E14.78475
G1 X148.349 Y65.428 E14.81645
G1 X148.348 Y114.227 E17.01367
G1 X148.348 Y130.797 E17.75975
G1 X148.338 Y131.495 E17.79118
G1 X148.285 Y132.414 E17.83263
G1 X148.212 Y132.976 E17.85814
G1 X148.055 Y133.981 E17.90394
G1 X147.689 Y136.546 E18.0206
G1 X147.399 Y139.091 E18.13594
G1 X147.187 Y141.576 E18.24823
G1 X147.042 Y144.114 E18.36269
G1 X146.969 Y146.657 E18.47724
G1 X146.969 Y149.169 E18.59035
G1 X147.04 Y151.716 E18.70507
G1 X147.182 Y154.234 E18.81863
G1 X147.394 Y156.744 E18.93205
G1 X147.679 Y159.254 E19.04579
G1 X148.038 Y161.79 E19.16111
G1 X148.174 Y162.614 E19.19871
G1 X148.29 Y163.608 E19.24377
G1 X148.324 Y164.101 E19.26602
G1 X148.349 Y164.83 E19.29887
G1 X148.348 Y169.895 E19.52692
G1 X148.339 Y170.622 E19.55966
G1 X148.288 Y171.541 E19.6011
G1 X148.157 Y172.453 E19.64259
G1 X147.947 Y173.349 E19.68402
G1 X147.661 Y174.224 E19.72547
G1 X147.3 Y175.071 E19.76693
G1 X146.866 Y175.883 E19.80838
G1 X146.364 Y176.655 E19.84985
G1 X145.796 Y177.38 E19.89132
G1 X145.168 Y178.053 E19.93276
G1 X144.484 Y178.669 E19.97421
G1 X143.749 Y179.223 E20.01565
G1 X142.969 Y179.712 E20.0571
G1 X142.149 Y180.131 E20.09856
G1 X141.296 Y180.477 E20.14001
G1 X140.416 Y180.748 E20.18147
G1 X139.516 Y180.941 E20.22291
G1 X138.602 Y181.056 E20.26439
G1 X138.037 Y181.087 E20.28987
G1 X137.419 Y181.1 E20.3177
G1 X130.304 Y181.099 E20.63806
G1 X129.607 Y181.089 E20.66945
G1 X128.773 Y181.044 E20.70705
G1 X128.019 Y180.962 E20.7412
G1 X127.111 Y180.809 E20.78266
G1 X126.14 Y180.552 E20.82789
G1 X125.918 Y180.482 E20.83837
G1 X125.274 Y180.258 E20.86907
G1 X124.423 Y179.906 E20.91054
G1 X123.363 Y179.337 E20.96471
G1 X122.999 Y179.114 E20.98393
G1 X122.235 Y178.599 E21.02541
G1 X121.33 Y177.849 E21.07833
G1 X121.152 Y177.684 E21.08926
G1 X120.77 Y177.312 E21.11327
G1 X120.611 Y177.149 E21.12352
G1 X119.998 Y176.462 E21.16498
G1 X119.396 Y175.651 E21.21046
G1 X119.284 Y175.484 E21.21951
G1 X119.013 Y175.06 E21.24217
G1 X118.891 Y174.858 E21.25279
G1 X118.45 Y174.05 E21.29424
G1 X118.016 Y173.036 E21.3439
G1 X117.853 Y172.587 E21.36541
G1 X116.977 Y170.082 E21.4849
G1 X116.066 Y167.697 E21.59985
G1 X115.093 Y165.35 E21.71425
G1 X114.069 Y163.064 E21.82703
G1 X112.965 Y160.777 E21.94138
G1 X111.802 Y158.529 E22.05534
G1 X110.381 Y155.975 E22.18694
G1 X88.585 Y118.222 E24.14975
G1 X88.254 Y117.629 E24.18033
G1 X87.852 Y116.832 E24.22052
G1 X87.776 Y116.664 E24.22883
G1 X87.434 Y115.809 E24.27029
G1 X87.104 Y114.671 E24.32364
G1 X86.955 Y114.007 E24.35428
G1 X86.882 Y113.648 E24.37077
G1 X86.737 Y112.739 E24.41222
G1 X86.673 Y111.821 E24.45365
G1 X86.712 Y110.587 E24.50924
G1 X86.754 Y110.12 E24.53036
G1 X86.876 Y109.207 E24.57183
G1 X87.077 Y108.309 E24.61326
G1 X87.268 Y107.679 E24.64291
G1 X87.401 Y107.285 E24.66163
G1 X87.733 Y106.426 E24.70309
G1 X88.355 Y105.221 E24.76415
G1 X88.595 Y104.821 E24.78516
G1 X89.102 Y104.053 E24.82659
G1 X89.674 Y103.332 E24.86803
G1 X90.116 Y102.853 E24.89738
G1 X90.421 Y102.542 E24.91699
G1 X91.021 Y101.976 E24.95413
G1 X91.786 Y101.309 E24.99983
G1 X93.732 Y99.566 E25.11746
G1 X95.567 Y97.826 E25.23132
G1 X97.335 Y96.052 E25.34409
G1 X99.079 Y94.202 E25.45857
G1 X100.756 Y92.316 E25.5722
G1 X102.392 Y90.369 E25.6867
G1 X103.943 Y88.415 E25.79903
G1 X105.49 Y86.346 E25.91535
G1 X106.918 Y84.32 E26.02696
G1 X108.341 Y82.174 E26.1429
G1 X109.659 Y80.062 E26.25499
G1 X110.938 Y77.873 E26.36914
G1 X112.163 Y75.638 E26.4839
G1 X113.303 Y73.405 E26.59679
G1 X114.394 Y71.114 E26.71104
G1 X115.409 Y68.817 E26.82411
G1 X116.363 Y66.482 E26.93768
G1 X117.617 Y63.092 E27.10043
G1 X117.937 Y62.173 E27.14424
G1 X118.278 Y61.318 E27.18569
G1 X118.827 Y60.258 E27.23944
G1 X119.022 Y59.929 E27.25666
G1 X119.526 Y59.158 E27.29813
G1 X120.094 Y58.434 E27.33957
G1 X120.49 Y57.997 E27.36612
G1 X120.817 Y57.656 E27.38739
G1 X121.483 Y57.02 E27.42886
G1 X122.201 Y56.444 E27.4703
G1 X122.588 Y56.173 E27.49158
G1 X122.954 Y55.929 E27.51138
G1 X123.742 Y55.452 E27.55286
G1 X124.568 Y55.046 E27.5943
G1 X125.426 Y54.712 E27.63575
G1 X126.309 Y54.454 E27.67717
G1 X127.212 Y54.274 E27.71863
G1 X128.484 Y54.155 E27.77616
G1 X129.241 Y54.13 E27.81026
G1 X129.591 Y54.124 E27.82602
G1 X137.075 Y54.125 E28.16299
G1 X137.776 Y54.135 E28.19456
G0 F7500 X137.782 Y53.735
G1 F1500 X138.718 Y53.788 E28.23677
G1 X139.647 Y53.921 E28.27903
G1 X140.56 Y54.133 E28.32123
G1 X141.453 Y54.421 E28.36348
G1 X142.317 Y54.785 E28.40569
G1 X143.148 Y55.221 E28.44794
G1 X143.938 Y55.726 E28.49016
G1 X144.682 Y56.296 E28.53236
G1 X145.375 Y56.928 E28.57459
G1 X146.191 Y57.833 E28.62946
G1 X146.307 Y57.977 E28.63778
G1 X146.864 Y58.732 E28.68003
G1 X147.354 Y59.532 E28.72227
G1 X147.775 Y60.37 E28.7645
G1 X148.122 Y61.241 E28.80671
G1 X148.394 Y62.139 E28.84896
G1 X148.589 Y63.056 E28.89117
G1 X148.705 Y63.987 E28.93341
G1 X148.74 Y64.718 E28.96637
G1 X148.749 Y65.428 E28.99834
G1 X148.748 Y114.227 E31.19556
G1 X148.748 Y130.803 E31.9419
G1 X148.738 Y131.501 E31.97334
G1 X148.684 Y132.437 E32.01555
G1 X148.608 Y133.038 E32.04283
G1 X148.441 Y134.109 E32.09163
G1 X148.083 Y136.616 E32.20566
G1 X147.8 Y139.099 E32.31818
G1 X147.584 Y141.632 E32.43264
G1 X147.44 Y144.149 E32.54616
G1 X147.369 Y146.634 E32.6581
G1 X147.369 Y149.158 E32.77174
G1 X147.439 Y151.681 E32.88538
G1 X147.582 Y154.217 E32.99975
G1 X147.792 Y156.698 E33.11186
G1 X148.079 Y159.224 E33.22633
G1 X148.431 Y161.713 E33.33951
G1 X148.569 Y162.549 E33.37766
G1 X148.689 Y163.58 E33.4244
G1 X148.723 Y164.073 E33.44665
G1 X148.749 Y164.83 E33.48075
G1 X148.748 Y169.9 E33.70904
G1 X148.739 Y170.627 E33.74177
G1 X148.688 Y171.564 E33.78402
G1 X148.556 Y172.492 E33.82623
G1 X148.347 Y173.406 E33.86844
G1 X148.06 Y174.299 E33.91068
G1 X147.698 Y175.165 E33.95294
G1 X147.264 Y175.996 E33.99515
G1 X146.76 Y176.787 E34.03738
G1 X146.191 Y177.532 E34.07959
G1 X145.56 Y178.227 E34.12186
G1 X144.873 Y178.865 E34.16407
G1 X144.134 Y179.442 E34.20629
G1 X143.348 Y179.954 E34.24852
G1 X142.522 Y180.397 E34.29073
G1 X141.66 Y180.769 E34.333
G1 X140.771 Y181.065 E34.37519
G1 X139.859 Y181.285 E34.41743
G1 X138.932 Y181.426 E34.45965
G1 X138.048 Y181.487 E34.49955
G1 X137.419 Y181.5 E34.52787
G1 X130.298 Y181.499 E34.8485
G1 X129.601 Y181.489 E34.87989
G1 X128.735 Y181.442 E34.91894
G1 X127.97 Y181.359 E34.95359
G1 X127.045 Y181.203 E34.99582
G1 X126.02 Y180.934 E35.04354
G1 X125.798 Y180.864 E35.05402
G1 X125.137 Y180.634 E35.08553
G1 X124.27 Y180.276 E35.12776
G1 X123.154 Y179.678 E35.18477
G1 X122.79 Y179.455 E35.20399
G1 X122.012 Y178.931 E35.24623
G1 X121.058 Y178.142 E35.30197
G1 X120.88 Y177.977 E35.3129
G1 X120.484 Y177.591 E35.3378
G1 X120.325 Y177.428 E35.34805
G1 X119.699 Y176.729 E35.3903
G1 X119.063 Y175.874 E35.43828
G1 X118.951 Y175.707 E35.44733
G1 X118.671 Y175.267 E35.47082
G1 X118.549 Y175.065 E35.48144
G1 X118.099 Y174.242 E35.52368
G1 X117.641 Y173.174 E35.576
G1 X117.475 Y172.719 E35.59781
G1 X116.597 Y170.208 E35.71758
G1 X115.687 Y167.826 E35.83239
G1 X114.73 Y165.518 E35.94489
G1 X113.702 Y163.222 E36.05816
G1 X112.615 Y160.969 E36.17079
G1 X111.448 Y158.716 E36.28504
G1 X110.029 Y156.165 E36.41647
G1 X88.236 Y118.417 E38.37903
G1 X87.905 Y117.824 E38.4096
G1 X87.488 Y116.997 E38.45131
G1 X87.412 Y116.829 E38.45961
G1 X87.062 Y115.959 E38.50183
G1 X86.714 Y114.761 E38.558
G1 X86.563 Y114.087 E38.5891
G1 X86.49 Y113.728 E38.6056
G1 X86.342 Y112.802 E38.64782
G1 X86.274 Y111.866 E38.69008
G1 X86.313 Y110.551 E38.74931
G1 X86.355 Y110.084 E38.77042
G1 X86.479 Y109.154 E38.81267
G1 X86.681 Y108.238 E38.8549
G1 X86.889 Y107.551 E38.88722
G1 X87.022 Y107.157 E38.90595
G1 X87.359 Y106.282 E38.94816
G1 X87.77 Y105.439 E38.99039
G1 X88.012 Y105.016 E39.01233
G1 X88.252 Y104.616 E39.03334
G1 X88.768 Y103.833 E39.07556
G1 X89.349 Y103.097 E39.11778
G1 X89.83 Y102.573 E39.14981
G1 X90.135 Y102.262 E39.16942
G1 X90.758 Y101.674 E39.20799
G1 X91.541 Y100.991 E39.25478
G1 X93.489 Y99.246 E39.37253
G1 X95.256 Y97.571 E39.48216
G1 X97.078 Y95.742 E39.5984
G1 X98.772 Y93.944 E39.70963
G1 X100.467 Y92.038 E39.82447
G1 X102.071 Y90.13 E39.93671
G1 X103.642 Y88.151 E40.05047
G1 X105.158 Y86.123 E40.16448
G1 X106.591 Y84.091 E40.27644
G1 X107.985 Y81.988 E40.39004
G1 X109.332 Y79.828 E40.50466
G1 X110.584 Y77.686 E40.61637
G1 X111.799 Y75.47 E40.73016
G1 X112.958 Y73.201 E40.84488
G1 X114.032 Y70.947 E40.9573
G1 X115.044 Y68.654 E41.07015
G1 X115.987 Y66.346 E41.18241
G1 X117.232 Y62.979 E41.34405
G1 X117.559 Y62.041 E41.38877
G1 X117.906 Y61.17 E41.43099
G1 X118.483 Y60.054 E41.48756
G1 X118.678 Y59.725 E41.50478
G1 X119.19 Y58.94 E41.54698
G1 X119.768 Y58.201 E41.58922
G1 X120.202 Y57.721 E41.61835
G1 X120.529 Y57.38 E41.63963
G1 X121.206 Y56.731 E41.68185
G1 X121.936 Y56.142 E41.72409
G1 X122.366 Y55.84 E41.74775
G1 X122.732 Y55.596 E41.76755
G1 X123.534 Y55.11 E41.80978
G1 X124.374 Y54.694 E41.85198
G1 X125.247 Y54.35 E41.89423
G1 X126.146 Y54.082 E41.93647
G1 X127.064 Y53.892 E41.97868
G1 X127.996 Y53.781 E42.02094
G1 X128.471 Y53.755 E42.04236
G1 X129.228 Y53.73 E42.07646
G1 X129.591 Y53.724 E42.09281
G1 X137.081 Y53.725 E42.43005
G1 X137.782 Y53.735 E42.46162
G1 F2700 E36.46162
G0 F7500 X131.549 Y68.059
G0 X131.549 Y68.524
G1 F2700 E42.46162
G1 F1500 X133.949 Y68.524 E42.56968
G1 X133.949 Y101.641 E44.06081
G1 X131.549 Y101.64 E44.16887
G1 X131.549 Y68.524 E45.65995
G0 F7500 X131.149 Y68.124
G1 F1500 X134.349 Y68.124 E45.80403
