;FLAVOR:Marlin
;TIME:3550
;Filament used: 2.89582m
;Layer height: 0.28
;MINX:76.727
;MINY:61.67
;MINZ:0.285
;MAXX:159.879
;MAXY:181.5
;MAXZ:52.925
;Generated with Cura_SteamEngine 4.6.2
M140 S60
M105
M190 S60
M104 S200
M105
M109 S200
M82 ;absolute extrusion mode
; Ender 3 Custom Start G-code
G92 E0 ; Reset Extruder
G28 ; Home all axes
G1 Z2.0 F3000 ; Move Z Axis up little to prevent scratching of Heat Bed
G1 X0.1 Y20 Z0.3 F5000.0 ; Move to start position
G1 X0.1 Y200.0 Z0.3 F1500.0 E15 ; Draw the first line
G1 X0.4 Y200.0 Z0.3 F5000.0 ; Move to side a little
G1 X0.4 Y20 Z0.3 F1500.0 E30 ; Draw the second line
G92 E0 ; Reset Extruder
G1 Z2.0 F3000 ; Move Z Axis up little to prevent scratching of Heat Bed
G1 X5 Y20 Z0.3 F5000.0 ; Move over to prevent blob squish
G92 E0
G92 E0
G1 F2700 E-6
;LAYER_COUNT:189
;LAYER:0
M107
M204 S500
M205 X8 Y8
G0 F7500 X140.133 Y62.533 Z0.285
;TYPE:SKIRT
G1 F2700 E0
G1 F1500 X141.026 Y62.665 E0.04065
G1 X141.904 Y62.875 E0.08129
G1 X142.636 Y63.116 E0.11599
G1 X143.417 Y63.41 E0.15357
G1 X143.773 Y63.554 E0.17086
G1 X144.594 Y63.93 E0.21152
G1 X145.379 Y64.376 E0.25217
G1 X145.788 Y64.648 E0.27428
G1 X146.658 Y65.26 E0.32218
G1 X147.354 Y65.778 E0.36124
G1 X148.054 Y66.349 E0.40192
G1 X148.7 Y66.98 E0.44258
G1 X149.289 Y67.665 E0.48325
G1 X149.814 Y68.399 E0.52389
G1 X150.44 Y69.507 E0.58119
G1 X151.05 Y70.773 E0.64446
G1 X152.203 Y73.105 E0.76159
G1 X153.39 Y75.345 E0.87574
G1 X154.639 Y77.548 E0.98976
G1 X155.138 Y78.37 E1.03306
G1 X155.672 Y79.279 E1.08053
G1 X156.094 Y80.078 E1.12121
G1 X156.445 Y80.91 E1.16187
G1 X156.603 Y81.372 E1.18386
G1 X156.877 Y82.243 E1.22497
G1 X157.335 Y83.782 E1.29727
G1 X157.583 Y84.669 E1.33874
G1 X157.783 Y85.465 E1.37569
G1 X157.857 Y85.784 E1.39044
G1 X157.977 Y86.336 E1.41587
G1 X158.122 Y87.169 E1.45394
G1 X158.178 Y87.596 E1.47333
G1 X158.566 Y90.266 E1.59482
G1 X158.933 Y92.408 E1.69267
G1 X159.046 Y93.304 E1.73333
G1 X159.079 Y94.206 E1.77397
G1 X159.032 Y95.108 E1.81464
G1 X158.948 Y95.76 E1.84424
G1 X158.759 Y96.916 E1.89698
G1 X158.666 Y97.44 E1.92094
G1 X158.29 Y99.972 E2.0362
G1 X157.991 Y102.463 E2.14916
G1 X157.758 Y105.013 E2.26446
G1 X157.599 Y107.544 E2.37864
G1 X157.499 Y110.811 E2.52581
G1 X157.49 Y112.855 E2.61784
G1 X157.497 Y113.759 E2.65855
G1 X157.496 Y114.913 E2.71051
G1 X157.486 Y115.633 E2.74293
G1 X157.434 Y116.534 E2.78357
G1 X157.301 Y117.428 E2.82426
G1 X157.091 Y118.306 E2.86491
G1 X156.803 Y119.162 E2.90557
G1 X156.441 Y119.989 E2.94622
G1 X156.008 Y120.781 E2.98686
G1 X155.414 Y121.655 E3.03445
G1 X153.856 Y123.71 E3.15056
G1 X152.365 Y125.788 E3.26572
G1 X150.958 Y127.872 E3.37893
G1 X149.593 Y130.019 E3.49349
G1 X148.299 Y132.192 E3.60736
G1 X147.044 Y134.44 E3.72329
G1 X145.876 Y136.677 E3.83691
G1 X144.772 Y138.948 E3.95061
G1 X143.722 Y141.274 E4.06552
G1 X142.739 Y143.623 E4.18017
G1 X141.824 Y145.995 E4.29464
G1 X140.978 Y148.397 E4.4093
G1 X140.209 Y150.788 E4.52239
G1 X139.496 Y153.237 E4.63724
G1 X138.851 Y155.719 E4.75271
G1 X138.288 Y158.16 E4.8655
G1 X137.784 Y160.669 E4.98073
G1 X137.356 Y163.174 E5.09515
G1 X136.997 Y165.698 E5.20994
G1 X136.712 Y168.196 E5.32314
G1 X136.458 Y171.241 E5.46072
G1 X136.352 Y172.137 E5.50135
G1 X136.167 Y173.021 E5.54201
G1 X135.905 Y173.885 E5.58267
G1 X135.567 Y174.723 E5.62335
G1 X135.156 Y175.527 E5.66401
G1 X134.676 Y176.292 E5.70467
G1 X134.13 Y177.011 E5.74532
G1 X133.522 Y177.68 E5.78603
G1 X132.858 Y178.292 E5.82668
G1 X132.142 Y178.842 E5.86734
G1 X131.381 Y179.328 E5.90799
G1 X130.579 Y179.744 E5.94867
G1 X129.744 Y180.087 E5.98932
G1 X128.881 Y180.355 E6.03001
G1 X127.999 Y180.546 E6.07064
G1 X127.103 Y180.658 E6.1113
G1 X126.574 Y180.687 E6.13515
G1 X125.967 Y180.7 E6.16249
G1 X122.281 Y180.699 E6.32845
G1 X121.584 Y180.689 E6.35984
G1 X120.75 Y180.643 E6.39745
G1 X120.377 Y180.607 E6.41432
G1 X119.483 Y180.48 E6.45498
G1 X118.416 Y180.221 E6.50442
G1 X117.991 Y180.093 E6.5244
G1 X117.138 Y179.794 E6.5651
G1 X115.976 Y179.241 E6.62304
G1 X115.618 Y179.042 E6.64148
G1 X114.849 Y178.569 E6.68213
G1 X113.918 Y177.856 E6.73493
G1 X113.601 Y177.583 E6.75377
G1 X112.943 Y176.964 E6.79445
G1 X112.124 Y176.01 E6.85106
G1 X111.853 Y175.652 E6.87128
G1 X111.238 Y174.742 E6.92073
G1 X110.825 Y174.049 E6.95705
G1 X81.186 Y122.712 E9.62613
G1 X79.457 Y119.715 E9.78192
G1 X78.912 Y118.732 E9.83252
G1 X78.446 Y117.776 E9.88041
G1 X78.344 Y117.536 E9.89215
G1 X77.987 Y116.562 E9.93886
G1 X77.746 Y115.646 E9.98151
G1 X77.595 Y114.756 E10.02215
G1 X77.524 Y113.855 E10.06285
G1 X77.533 Y112.952 E10.10351
G1 X77.622 Y112.054 E10.14414
G1 X77.789 Y111.166 E10.18482
G1 X78.035 Y110.297 E10.22549
G1 X78.357 Y109.453 E10.26616
G1 X78.752 Y108.641 E10.30682
G1 X79.217 Y107.867 E10.34748
G1 X79.749 Y107.137 E10.38815
G1 X80.343 Y106.457 E10.4288
G1 X80.996 Y105.833 E10.46947
G1 X81.7 Y105.268 E10.51011
G1 X82.453 Y104.768 E10.55081
G1 X83.18 Y104.369 E10.58815
G1 X83.647 Y104.139 E10.61159
G1 X85.318 Y103.343 E10.69493
G1 X87.638 Y102.156 E10.81227
G1 X89.804 Y100.971 E10.92343
G1 X92.051 Y99.655 E11.04068
G1 X94.162 Y98.338 E11.15271
G1 X96.305 Y96.916 E11.26851
G1 X98.383 Y95.45 E11.38302
G1 X100.404 Y93.939 E11.49664
G1 X102.381 Y92.369 E11.61031
G1 X104.35 Y90.713 E11.72615
G1 X106.226 Y89.042 E11.83927
G1 X108.111 Y87.268 E11.95582
G1 X109.862 Y85.52 E12.06722
G1 X111.632 Y83.653 E12.18306
G1 X113.317 Y81.771 E12.2968
G1 X114.969 Y79.819 E12.41194
G1 X116.557 Y77.829 E12.52657
G1 X118.639 Y75.049 E12.68295
G1 X118.973 Y74.624 E12.70729
G1 X119.189 Y74.364 E12.72251
G1 X119.394 Y74.126 E12.73666
G1 X119.936 Y73.513 E12.7735
G1 X120.563 Y72.863 E12.81416
G1 X121.428 Y72.131 E12.86518
G1 X122.345 Y71.443 E12.9168
G1 X122.951 Y71.013 E12.95026
G1 X125.021 Y69.507 E13.06552
G1 X127.028 Y67.958 E13.17967
G1 X129.648 Y65.799 E13.33253
G1 X130 Y65.522 E13.3527
G1 X130.981 Y64.789 E13.40784
G1 X131.587 Y64.36 E13.44127
G1 X132.346 Y63.871 E13.48192
G1 X133.146 Y63.452 E13.52258
G1 X133.979 Y63.105 E13.56321
G1 X134.841 Y62.832 E13.60393
G1 X135.722 Y62.638 E13.64455
G1 X136.618 Y62.521 E13.68523
G1 X137.298 Y62.487 E13.71589
G1 X138.518 Y62.47 E13.77082
G1 X139.231 Y62.48 E13.80293
G1 X140.133 Y62.533 E13.84361
G0 F7500 X140.156 Y62.133
G1 F1500 X141.067 Y62.265 E13.88506
G1 X141.963 Y62.476 E13.92651
G1 X142.775 Y62.741 E13.96497
G1 X143.567 Y63.039 E14.00307
G1 X143.923 Y63.183 E14.02036
G1 X144.76 Y63.565 E14.06178
G1 X145.562 Y64.019 E14.10328
G1 X146.017 Y64.32 E14.12784
G1 X146.897 Y64.94 E14.17631
G1 X147.593 Y65.458 E14.21538
G1 X148.307 Y66.039 E14.25683
G1 X148.968 Y66.68 E14.29828
G1 X149.57 Y67.376 E14.33972
G1 X150.11 Y68.121 E14.38115
G1 X150.584 Y68.911 E14.42263
G1 X150.8 Y69.332 E14.44393
G1 X151.435 Y70.651 E14.50985
G1 X152.557 Y72.92 E14.62382
G1 X153.733 Y75.14 E14.73694
G1 X154.978 Y77.334 E14.85052
G1 X155.483 Y78.168 E14.89442
G1 X156.017 Y79.077 E14.94189
G1 X156.448 Y79.89 E14.98332
G1 X156.807 Y80.738 E15.02478
G1 X156.984 Y81.251 E15.04922
G1 X157.26 Y82.128 E15.09061
G1 X157.72 Y83.673 E15.1632
G1 X157.886 Y84.257 E15.19053
G1 X157.97 Y84.572 E15.20521
G1 X158.17 Y85.368 E15.24217
G1 X158.248 Y85.699 E15.25748
G1 X158.368 Y86.251 E15.28291
G1 X158.519 Y87.117 E15.32249
G1 X158.581 Y87.588 E15.34388
G1 X158.963 Y90.214 E15.46337
G1 X159.327 Y92.34 E15.56048
G1 X159.443 Y93.253 E15.60192
G1 X159.479 Y94.173 E15.64338
G1 X159.435 Y95.093 E15.68485
G1 X159.343 Y95.824 E15.71802
G1 X159.153 Y96.986 E15.77104
G1 X159.062 Y97.497 E15.79441
G1 X158.684 Y100.042 E15.91026
G1 X158.387 Y102.514 E16.02236
G1 X158.157 Y105.038 E16.13648
G1 X157.999 Y107.55 E16.24981
G1 X157.898 Y110.824 E16.39729
G1 X157.89 Y112.852 E16.4886
G1 X157.897 Y113.756 E16.52931
G1 X157.896 Y114.918 E16.58163
G1 X157.886 Y115.638 E16.61405
G1 X157.833 Y116.557 E16.6555
G1 X157.701 Y117.468 E16.69694
G1 X157.49 Y118.365 E16.73844
G1 X157.202 Y119.239 E16.77987
G1 X156.84 Y120.085 E16.8213
G1 X156.405 Y120.897 E16.86278
G1 X155.733 Y121.897 E16.91703
G1 X154.166 Y123.963 E17.03378
G1 X152.706 Y125.999 E17.14659
G1 X151.294 Y128.089 E17.26016
G1 X149.923 Y130.248 E17.37531
G1 X148.643 Y132.396 E17.4879
G1 X147.405 Y134.614 E17.60227
G1 X146.233 Y136.858 E17.71625
G1 X145.138 Y139.109 E17.82896
G1 X144.084 Y141.444 E17.94431
G1 X143.105 Y143.785 E18.05857
G1 X142.198 Y146.135 E18.17198
G1 X141.36 Y148.515 E18.28559
G1 X140.591 Y150.907 E18.39873
G1 X139.882 Y153.344 E18.513
G1 X139.242 Y155.805 E18.6275
G1 X138.677 Y158.257 E18.74079
G1 X138.177 Y160.744 E18.85501
G1 X137.752 Y163.232 E18.96866
G1 X137.396 Y165.728 E19.08218
G1 X137.11 Y168.239 E19.19597
G1 X136.857 Y171.27 E19.33292
G1 X136.75 Y172.184 E19.37436
G1 X136.563 Y173.086 E19.41583
G1 X136.3 Y173.968 E19.45727
G1 X135.96 Y174.824 E19.49875
G1 X135.548 Y175.647 E19.54019
G1 X135.065 Y176.431 E19.58165
G1 X134.517 Y177.17 E19.62307
G1 X133.906 Y177.859 E19.66454
G1 X133.238 Y178.493 E19.706
G1 X132.517 Y179.066 E19.74747
G1 X131.75 Y179.574 E19.78889
G1 X130.941 Y180.014 E19.83036
G1 X130.097 Y180.382 E19.87182
G1 X129.225 Y180.676 E19.91325
G1 X128.33 Y180.892 E19.9547
G1 X127.42 Y181.03 E19.99615
G1 X126.585 Y181.087 E20.03383
G1 X125.967 Y181.1 E20.06166
G1 X122.275 Y181.099 E20.2279
G1 X121.578 Y181.089 E20.25929
G1 X120.712 Y181.041 E20.29834
G1 X120.339 Y181.005 E20.31521
G1 X119.427 Y180.877 E20.35668
G1 X118.3 Y180.604 E20.40889
G1 X117.875 Y180.476 E20.42887
G1 X117.006 Y180.172 E20.47033
G1 X115.782 Y179.591 E20.53133
G1 X115.424 Y179.392 E20.54977
G1 X114.639 Y178.91 E20.59125
G1 X113.657 Y178.159 E20.64691
G1 X113.34 Y177.886 E20.66575
G1 X112.669 Y177.255 E20.70722
G1 X111.805 Y176.252 E20.76683
G1 X111.534 Y175.894 E20.78705
G1 X110.895 Y174.947 E20.83848
G1 X110.478 Y174.249 E20.87509
G1 X80.839 Y122.912 E23.54417
G1 X79.107 Y119.909 E23.70026
G1 X78.562 Y118.926 E23.75087
G1 X78.077 Y117.932 E23.80067
G1 X77.975 Y117.692 E23.81241
G1 X77.605 Y116.68 E23.86092
G1 X77.358 Y115.748 E23.90434
G1 X77.203 Y114.84 E23.94581
G1 X77.126 Y113.923 E23.98725
G1 X77.13 Y113.002 E24.02871
G1 X77.213 Y112.085 E24.07017
G1 X77.376 Y111.179 E24.11162
G1 X77.617 Y110.291 E24.15305
G1 X77.934 Y109.426 E24.19453
G1 X78.324 Y108.593 E24.23594
G1 X78.786 Y107.796 E24.27742
G1 X79.315 Y107.043 E24.31886
G1 X79.907 Y106.338 E24.36031
G1 X80.559 Y105.687 E24.40179
G1 X81.264 Y105.095 E24.44324
G1 X82.018 Y104.567 E24.48469
G1 X83.002 Y104.011 E24.53558
G1 X83.475 Y103.778 E24.55932
G1 X85.143 Y102.983 E24.64252
G1 X87.443 Y101.807 E24.75883
G1 X89.615 Y100.618 E24.87032
G1 X91.817 Y99.329 E24.9852
G1 X93.976 Y97.982 E25.09978
G1 X96.061 Y96.599 E25.21244
G1 X98.142 Y95.131 E25.3271
G1 X100.161 Y93.621 E25.44062
G1 X102.138 Y92.051 E25.55429
G1 X104.073 Y90.424 E25.66813
G1 X105.969 Y88.735 E25.78246
G1 X107.801 Y87.01 E25.89575
G1 X109.607 Y85.208 E26.01063
G1 X111.326 Y83.395 E26.12312
G1 X113.031 Y81.491 E26.2382
G1 X114.65 Y79.578 E26.35104
G1 X116.245 Y77.579 E26.46619
G1 X118.318 Y74.81 E26.62193
G1 X118.666 Y74.368 E26.64726
G1 X118.882 Y74.108 E26.66248
G1 X119.094 Y73.861 E26.67714
G1 X119.636 Y73.248 E26.71398
G1 X120.275 Y72.585 E26.75544
G1 X121.187 Y71.812 E26.80927
G1 X122.114 Y71.117 E26.86143
G1 X122.72 Y70.687 E26.89489
G1 X124.787 Y69.183 E27.00999
G1 X126.76 Y67.66 E27.12221
G1 X129.394 Y65.49 E27.27588
G1 X129.759 Y65.202 E27.29681
G1 X130.749 Y64.462 E27.35246
G1 X131.355 Y64.033 E27.38589
G1 X132.129 Y63.535 E27.42733
G1 X132.943 Y63.105 E27.46878
G1 X133.792 Y62.747 E27.51027
G1 X134.668 Y62.465 E27.55171
G1 X135.565 Y62.259 E27.59315
G1 X136.477 Y62.133 E27.6346
G1 X137.291 Y62.087 E27.67131
G1 X138.186 Y62.071 E27.71161
G1 X138.524 Y62.07 E27.72683
G1 X139.237 Y62.08 E27.75894
G1 X140.156 Y62.133 E27.80039
G0 F7500 X140.179 Y61.733
G1 F1500 X141.107 Y61.866 E27.8426
G1 X142.021 Y62.077 E27.88483
G1 X142.914 Y62.366 E27.9271
G1 X143.717 Y62.669 E27.96574
G1 X144.073 Y62.813 E27.98303
G1 X144.926 Y63.201 E28.02522
G1 X145.744 Y63.661 E28.06748
G1 X146.246 Y63.992 E28.09455
G1 X146.866 Y64.425 E28.1286
G1 X147.135 Y64.619 E28.14354
G1 X147.831 Y65.137 E28.1826
G1 X148.559 Y65.728 E28.22482
G1 X149.234 Y66.38 E28.26708
G1 X149.851 Y67.086 E28.3093
G1 X150.405 Y67.843 E28.35153
G1 X150.893 Y68.643 E28.39373
G1 X151.16 Y69.158 E28.41985
G1 X151.785 Y70.456 E28.48471
G1 X152.912 Y72.734 E28.59915
G1 X154.084 Y74.947 E28.7119
G1 X155.319 Y77.124 E28.8246
G1 X155.827 Y77.965 E28.86883
G1 X156.361 Y78.874 E28.9163
G1 X156.802 Y79.702 E28.95854
G1 X157.17 Y80.565 E29.00078
G1 X157.366 Y81.131 E29.02775
G1 X157.643 Y82.014 E29.06942
G1 X158.105 Y83.563 E29.1422
G1 X158.271 Y84.147 E29.16954
G1 X158.358 Y84.474 E29.18478
G1 X158.558 Y85.27 E29.22173
G1 X158.639 Y85.614 E29.23764
G1 X158.759 Y86.166 E29.26308
G1 X158.916 Y87.064 E29.30412
G1 X158.981 Y87.555 E29.32643
G1 X159.362 Y90.174 E29.44559
G1 X159.721 Y92.273 E29.54147
G1 X159.84 Y93.203 E29.58369
G1 X159.879 Y94.14 E29.62591
G1 X159.838 Y95.077 E29.66814
G1 X159.737 Y95.888 E29.70494
G1 X159.547 Y97.056 E29.75822
G1 X159.455 Y97.572 E29.78182
G1 X159.088 Y100.042 E29.89426
G1 X158.787 Y102.547 E30.00786
G1 X158.554 Y105.099 E30.12324
G1 X158.399 Y107.556 E30.23409
G1 X158.298 Y110.839 E30.38198
G1 X158.29 Y112.892 E30.47442
G1 X158.297 Y113.753 E30.51319
G1 X158.296 Y114.924 E30.56591
G1 X158.286 Y115.644 E30.59833
G1 X158.233 Y116.58 E30.64055
G1 X158.1 Y117.509 E30.6828
G1 X157.889 Y118.422 E30.72499
G1 X157.601 Y119.315 E30.76724
G1 X157.238 Y120.18 E30.80948
G1 X156.802 Y121.01 E30.85169
G1 X156.051 Y122.138 E30.91271
G1 X154.521 Y124.156 E31.02673
G1 X153.018 Y126.251 E31.14283
G1 X151.619 Y128.321 E31.25532
G1 X150.286 Y130.421 E31.36732
G1 X148.978 Y132.617 E31.4824
G1 X147.766 Y134.788 E31.59436
G1 X146.59 Y137.04 E31.70875
G1 X145.485 Y139.312 E31.8225
G1 X144.46 Y141.584 E31.93473
G1 X143.489 Y143.904 E32.04797
G1 X142.562 Y146.305 E32.16386
G1 X141.742 Y148.633 E32.27499
G1 X140.97 Y151.035 E32.38859
G1 X140.267 Y153.45 E32.50184
G1 X139.635 Y155.881 E32.61494
G1 X139.065 Y158.354 E32.72921
G1 X138.568 Y160.825 E32.84269
G1 X138.15 Y163.278 E32.95473
G1 X137.791 Y165.794 E33.06917
G1 X137.507 Y168.286 E33.1821
G1 X137.287 Y170.872 E33.29896
G1 X137.256 Y171.299 E33.31823
G1 X137.148 Y172.231 E33.36048
G1 X136.96 Y173.15 E33.40271
G1 X136.695 Y174.049 E33.44491
G1 X136.354 Y174.923 E33.48716
G1 X135.939 Y175.765 E33.52942
G1 X135.455 Y176.568 E33.57164
G1 X134.904 Y177.327 E33.61387
G1 X134.291 Y178.036 E33.65607
G1 X133.619 Y178.69 E33.69829
G1 X132.894 Y179.285 E33.74052
G1 X132.121 Y179.816 E33.78275
G1 X131.305 Y180.279 E33.82499
G1 X130.453 Y180.671 E33.86722
G1 X129.571 Y180.989 E33.90943
G1 X128.664 Y181.231 E33.9517
G1 X127.741 Y181.394 E33.9939
G1 X126.596 Y181.487 E34.04563
G1 X125.967 Y181.5 E34.07395
G1 X122.269 Y181.499 E34.24046
G1 X121.572 Y181.489 E34.27184
G1 X120.673 Y181.439 E34.31239
G1 X120.3 Y181.403 E34.32926
G1 X119.371 Y181.273 E34.3715
G1 X118.185 Y180.987 E34.42643
G1 X117.76 Y180.859 E34.44641
G1 X116.874 Y180.55 E34.48866
G1 X116.018 Y180.167 E34.53089
G1 X115.588 Y179.94 E34.55278
G1 X115.23 Y179.741 E34.57122
G1 X114.43 Y179.251 E34.61346
G1 X113.396 Y178.462 E34.67202
G1 X113.079 Y178.189 E34.69086
G1 X112.395 Y177.547 E34.7331
G1 X111.486 Y176.493 E34.79577
G1 X111.215 Y176.135 E34.81598
G1 X110.552 Y175.153 E34.86933
G1 X110.132 Y174.449 E34.90624
G1 X80.493 Y123.112 E37.57532
G1 X78.758 Y120.103 E37.73171
G1 X78.213 Y119.12 E37.78232
G1 X77.709 Y118.089 E37.83399
G1 X77.607 Y117.849 E37.84573
G1 X77.223 Y116.799 E37.89607
G1 X76.971 Y115.85 E37.94028
G1 X76.81 Y114.926 E37.98251
G1 X76.729 Y113.991 E38.02477
G1 X76.727 Y113.053 E38.067
G1 X76.806 Y112.119 E38.10921
G1 X76.963 Y111.194 E38.15145
G1 X77.199 Y110.287 E38.19365
G1 X77.511 Y109.402 E38.2359
G1 X77.898 Y108.548 E38.27812
G1 X78.356 Y107.729 E38.32037
G1 X78.882 Y106.953 E38.36258
G1 X79.472 Y106.224 E38.40481
G1 X80.122 Y105.548 E38.44703
G1 X80.827 Y104.93 E38.48925
G1 X81.583 Y104.374 E38.5315
G1 X82.383 Y103.884 E38.57374
G1 X82.824 Y103.653 E38.59616
G1 X83.303 Y103.417 E38.6202
G1 X84.967 Y102.624 E38.7032
G1 X87.233 Y101.466 E38.81777
