;FLAVOR:Marlin
;TIME:7588
;Filament used: 7.55563m
;Layer height: 0.28
;MINX:58.234
;MINY:53.028
;MINZ:0.285
;MAXX:176.77
;MAXY:181.5
;MAXZ:44.245
;Generated with Cura_SteamEngine 4.6.2
M140 S60
M105
M190 S60
M104 S200
M105
M109 S200
M82 ;absolute extrusion mode
; Ender 3 Custom Start G-code
G92 E0 ; Reset Extruder
G28 ; Home all axes
G1 Z2.0 F3000 ; Move Z Axis up little to prevent scratching of Heat Bed
G1 X0.1 Y20 Z0.3 F5000.0 ; Move to start position
G1 X0.1 Y200.0 Z0.3 F1500.0 E15 ; Draw the first line
G1 X0.4 Y200.0 Z0.3 F5000.0 ; Move to side a little
G1 X0.4 Y20 Z0.3 F1500.0 E30 ; Draw the second line
G92 E0 ; Reset Extruder
G1 Z2.0 F3000 ; Move Z Axis up little to prevent scratching of Heat Bed
G1 X5 Y20 Z0.3 F5000.0 ; Move over to prevent blob squish
G92 E0
G92 E0
G1 F2700 E-6
;LAYER_COUNT:158
;LAYER:0
M107
M204 S500
M205 X8 Y8
G0 F7500 X106.066 Y53.912 Z0.285
;TYPE:SKIRT
G1 F2700 E0
G1 F1500 X107.373 Y54.027 E0.05908
G1 X107.714 Y54.063 E0.07452
G1 X108.593 Y54.171 E0.11439
G1 X109.814 Y54.337 E0.16987
G1 X112.322 Y54.607 E0.28345
G1 X114.837 Y54.806 E0.39704
G1 X117.413 Y54.938 E0.51318
G1 X119.919 Y54.994 E0.62605
G1 X122.359 Y54.983 E0.73591
G1 X125.287 Y54.932 E0.86777
G1 X126.336 Y54.928 E0.915
G1 X127.238 Y54.965 E0.95565
G1 X128.134 Y55.081 E0.99633
G1 X129.016 Y55.276 E1.037
G1 X130.108 Y55.636 E1.08877
G1 X130.666 Y55.858 E1.11581
G1 X132.44 Y56.6 E1.20239
G1 X134.835 Y57.523 E1.31796
G1 X137.461 Y58.444 E1.44326
G1 X138.687 Y58.858 E1.50152
G1 X139.529 Y59.185 E1.54219
G1 X140.339 Y59.584 E1.58285
G1 X141.295 Y60.181 E1.6336
G1 X141.987 Y60.673 E1.67183
G1 X142.219 Y60.846 E1.68486
G1 X142.919 Y61.417 E1.72553
G1 X143.565 Y62.049 E1.76622
G1 X144.153 Y62.734 E1.80687
G1 X144.677 Y63.469 E1.84751
G1 X145.135 Y64.248 E1.8882
G1 X145.558 Y65.149 E1.93302
G1 X145.659 Y65.395 E1.94499
G1 X145.822 Y65.821 E1.96553
G1 X146.447 Y67.562 E2.04882
G1 X147.376 Y69.931 E2.16339
G1 X148.381 Y72.297 E2.27914
G1 X149.423 Y74.57 E2.39172
G1 X150.563 Y76.881 E2.50775
G1 X151.739 Y79.103 E2.62094
G1 X152.995 Y81.324 E2.73583
G1 X154.303 Y83.491 E2.8498
G1 X155.672 Y85.618 E2.96369
G1 X157.113 Y87.728 E3.07874
G1 X158.6 Y89.774 E3.19262
G1 X160.163 Y91.803 E3.30794
G1 X161.76 Y93.759 E3.42164
G1 X163.424 Y95.685 E3.53624
G1 X165.142 Y97.562 E3.65081
G1 X166.899 Y99.376 E3.76452
G1 X168.723 Y101.156 E3.87927
G1 X169.949 Y102.279 E3.95413
G1 X170.972 Y103.229 E4.01699
G1 X171.266 Y103.513 E4.0354
G1 X171.58 Y103.829 E4.05545
G1 X171.843 Y104.104 E4.07259
G1 X172.282 Y104.58 E4.10174
G1 X172.864 Y105.27 E4.14239
G1 X173.383 Y106.009 E4.18305
G1 X173.835 Y106.791 E4.22372
G1 X174.254 Y107.707 E4.26907
G1 X174.698 Y108.818 E4.32294
G1 X175.278 Y110.321 E4.39548
G1 X175.566 Y111.177 E4.43614
G1 X175.777 Y112.055 E4.4768
G1 X175.91 Y112.948 E4.51745
G1 X175.962 Y113.797 E4.55575
G1 X175.97 Y114.203 E4.57404
G1 X175.969 Y114.631 E4.59331
G1 X175.955 Y115.261 E4.62168
G1 X175.895 Y116.162 E4.66234
G1 X175.769 Y116.986 E4.69987
G1 X175.652 Y117.586 E4.7274
G1 X175.576 Y117.946 E4.74396
G1 X175.492 Y118.307 E4.76065
G1 X175.248 Y119.176 E4.80129
G1 X174.954 Y119.961 E4.83903
G1 X174.659 Y120.66 E4.8732
G1 X174.511 Y120.996 E4.88973
G1 X174.371 Y121.297 E4.90467
G1 X174.066 Y121.899 E4.93506
G1 X173.746 Y122.478 E4.96485
G1 X155.694 Y153.747 E6.59054
G1 X154.442 Y155.988 E6.70612
G1 X153.254 Y158.265 E6.82176
G1 X152.157 Y160.519 E6.93463
G1 X151.096 Y162.865 E7.05056
G1 X150.121 Y165.194 E7.16425
G1 X149.21 Y167.56 E7.2784
G1 X148.359 Y169.969 E7.39344
G1 X147.585 Y172.373 E7.50715
G1 X147.259 Y173.437 E7.55726
G1 X146.961 Y174.276 E7.59735
G1 X146.568 Y175.139 E7.64004
G1 X146.122 Y175.924 E7.6807
G1 X145.607 Y176.666 E7.72136
G1 X145.029 Y177.36 E7.76203
G1 X144.392 Y178 E7.80269
G1 X143.701 Y178.581 E7.84334
G1 X142.961 Y179.099 E7.88401
G1 X142.178 Y179.549 E7.92467
G1 X141.358 Y179.929 E7.96536
G1 X140.508 Y180.234 E8.00603
G1 X139.635 Y180.463 E8.04666
G1 X138.744 Y180.613 E8.08735
G1 X137.777 Y180.687 E8.13101
G1 X137.17 Y180.7 E8.15835
G1 X98.061 Y180.699 E9.91927
G1 X97.363 Y180.689 E9.9507
G1 X96.461 Y180.636 E9.99138
G1 X95.568 Y180.504 E10.03203
G1 X94.69 Y180.293 E10.07269
G1 X93.834 Y180.005 E10.11335
G1 X93.007 Y179.643 E10.154
G1 X92.215 Y179.208 E10.19468
G1 X91.464 Y178.706 E10.23536
G1 X90.761 Y178.139 E10.27602
G1 X90.111 Y177.512 E10.31669
G1 X89.519 Y176.83 E10.35735
G1 X88.989 Y176.099 E10.398
G1 X88.527 Y175.323 E10.43867
G1 X88.134 Y174.51 E10.47933
G1 X87.814 Y173.66 E10.52022
G1 X87.673 Y173.223 E10.5409
G1 X87.026 Y171.115 E10.64018
G1 X86.218 Y168.728 E10.75365
G1 X85.332 Y166.334 E10.86859
G1 X84.388 Y163.993 E10.98224
G1 X83.363 Y161.642 E11.09772
G1 X82.285 Y159.347 E11.21188
G1 X81.159 Y157.119 E11.32429
G1 X79.305 Y153.746 E11.49759
G1 X61.301 Y122.557 E13.11908
G1 X61.002 Y122.024 E13.1466
G1 X60.757 Y121.559 E13.17026
G1 X60.518 Y121.065 E13.19497
G1 X60.331 Y120.65 E13.21547
G1 X60.103 Y120.12 E13.24145
G1 X59.783 Y119.275 E13.28213
G1 X59.547 Y118.437 E13.32133
G1 X59.348 Y117.578 E13.36103
G1 X59.261 Y117.157 E13.38039
G1 X59.118 Y116.266 E13.42102
G1 X59.053 Y115.341 E13.46277
G1 X59.034 Y114.56 E13.49795
G1 X59.031 Y114.211 E13.51366
G1 X59.034 Y113.907 E13.52735
G1 X59.083 Y113.006 E13.56798
G1 X59.212 Y112.112 E13.60865
G1 X59.419 Y111.233 E13.64931
G1 X59.73 Y110.306 E13.69333
G1 X60.696 Y107.826 E13.81317
G1 X61.06 Y107 E13.85381
G1 X61.497 Y106.209 E13.8945
G1 X62.001 Y105.46 E13.93515
G1 X62.659 Y104.66 E13.98179
G1 X63.18 Y104.088 E14.01663
G1 X63.432 Y103.82 E14.03319
G1 X63.712 Y103.534 E14.05121
G1 X64.434 Y102.865 E14.09553
G1 X66.334 Y101.266 E14.20734
G1 X68.224 Y99.586 E14.3212
G1 X70.076 Y97.847 E14.43559
G1 X71.88 Y96.049 E14.55027
G1 X73.629 Y94.209 E14.66457
G1 X75.313 Y92.33 E14.77818
G1 X76.962 Y90.384 E14.89303
G1 X78.534 Y88.418 E15.00637
G1 X80.079 Y86.369 E15.12192
G1 X81.552 Y84.298 E15.23635
G1 X82.973 Y82.175 E15.35137
G1 X84.295 Y80.071 E15.46326
G1 X85.616 Y77.834 E15.58023
G1 X86.824 Y75.649 E15.69265
G1 X88.006 Y73.358 E15.80872
G1 X89.105 Y71.074 E15.92285
G1 X90.123 Y68.794 E16.03527
G1 X91.115 Y66.393 E16.15224
G1 X91.791 Y64.638 E16.23692
G1 X92.025 Y64.01 E16.2671
G1 X92.378 Y63.179 E16.30775
G1 X92.803 Y62.382 E16.34842
G1 X93.228 Y61.723 E16.38373
G1 X93.657 Y61.113 E16.41731
G1 X94.586 Y59.828 E16.4887
G1 X95.38 Y58.692 E16.55111
G1 X95.93 Y57.976 E16.59176
G1 X96.54 Y57.311 E16.63239
G1 X97.208 Y56.702 E16.67309
G1 X97.604 Y56.388 E16.69584
G1 X98.009 Y56.083 E16.71867
G1 X98.271 Y55.892 E16.73327
G1 X98.562 Y55.687 E16.7493
G1 X99.322 Y55.2 E16.78994
G1 X100.123 Y54.783 E16.8306
G1 X100.958 Y54.437 E16.8713
G1 X101.819 Y54.167 E16.91193
G1 X102.702 Y53.975 E16.95261
G1 X103.597 Y53.861 E16.99324
G1 X104.5 Y53.826 E17.03393
G1 X105.086 Y53.847 E17.06033
G1 X106.066 Y53.912 E17.10455
G0 F7500 X106.101 Y53.514
G1 F1500 X107.408 Y53.629 E17.16363
G1 X107.762 Y53.666 E17.17965
G1 X108.647 Y53.775 E17.2198
G1 X109.839 Y53.937 E17.27397
G1 X112.36 Y54.209 E17.38814
G1 X114.889 Y54.409 E17.50236
G1 X117.408 Y54.537 E17.61593
G1 X119.926 Y54.594 E17.72933
G1 X122.35 Y54.583 E17.83848
G1 X125.286 Y54.532 E17.97069
G1 X126.335 Y54.528 E18.01793
G1 X127.255 Y54.565 E18.05938
G1 X128.168 Y54.681 E18.10082
G1 X129.068 Y54.876 E18.14229
G1 X130.254 Y55.263 E18.19846
G1 X130.82 Y55.488 E18.22588
G1 X132.62 Y56.241 E18.31373
G1 X134.975 Y57.148 E18.42736
G1 X137.589 Y58.065 E18.55209
G1 X138.815 Y58.479 E18.61036
G1 X139.674 Y58.811 E18.65182
G1 X140.501 Y59.217 E18.6933
G1 X141.525 Y59.854 E18.7476
G1 X142.227 Y60.352 E18.78636
G1 X142.459 Y60.525 E18.79939
G1 X143.172 Y61.107 E18.84083
G1 X143.832 Y61.749 E18.88229
G1 X144.434 Y62.445 E18.92372
G1 X144.974 Y63.191 E18.96519
G1 X145.446 Y63.982 E19.00666
G1 X145.928 Y64.997 E19.05725
G1 X146.029 Y65.243 E19.06923
G1 X146.199 Y65.685 E19.09055
G1 X146.825 Y67.428 E19.17394
G1 X147.758 Y69.808 E19.28904
G1 X148.736 Y72.11 E19.40165
G1 X149.801 Y74.433 E19.51672
G1 X150.903 Y76.668 E19.62892
G1 X152.098 Y78.925 E19.74391
G1 X153.327 Y81.1 E19.85639
G1 X154.655 Y83.298 E19.97202
G1 X156.016 Y85.414 E20.0853
G1 X157.439 Y87.497 E20.19889
G1 X158.907 Y89.518 E20.31136
G1 X160.474 Y91.552 E20.42696
G1 X162.071 Y93.508 E20.54066
G1 X163.723 Y95.419 E20.6544
G1 X165.441 Y97.297 E20.769
G1 X167.182 Y99.094 E20.88166
G1 X168.99 Y100.858 E20.9954
G1 X170.221 Y101.986 E21.07057
G1 X171.244 Y102.936 E21.13343
G1 X171.55 Y103.232 E21.1526
G1 X171.864 Y103.548 E21.17266
G1 X172.137 Y103.833 E21.19043
G1 X172.576 Y104.309 E21.21959
G1 X173.17 Y105.012 E21.26102
G1 X173.701 Y105.764 E21.30247
G1 X174.165 Y106.559 E21.34392
G1 X174.626 Y107.558 E21.39346
G1 X175.071 Y108.676 E21.44764
G1 X175.651 Y110.176 E21.52005
G1 X175.945 Y111.049 E21.56153
G1 X176.163 Y111.943 E21.60296
G1 X176.302 Y112.853 E21.64441
G1 X176.362 Y113.789 E21.68664
G1 X176.37 Y114.195 E21.70493
G1 X176.369 Y114.639 E21.72492
G1 X176.355 Y115.269 E21.75329
G1 X176.295 Y116.188 E21.79476
G1 X176.162 Y117.063 E21.83461
G1 X176.045 Y117.663 E21.86213
G1 X175.965 Y118.036 E21.87931
G1 X175.881 Y118.397 E21.896
G1 X175.634 Y119.284 E21.93745
G1 X175.323 Y120.117 E21.97749
G1 X175.028 Y120.816 E22.01165
G1 X174.873 Y121.164 E22.0288
G1 X174.733 Y121.465 E22.04375
G1 X174.417 Y122.091 E22.07532
G1 X174.092 Y122.678 E22.10554
G1 X156.047 Y153.936 E23.73064
G1 X154.788 Y156.189 E23.84685
G1 X153.624 Y158.418 E23.96007
G1 X152.51 Y160.709 E24.07478
G1 X151.471 Y163.006 E24.18829
G1 X150.482 Y165.367 E24.30355
G1 X149.589 Y167.688 E24.41552
G1 X148.742 Y170.087 E24.53007
G1 X147.947 Y172.557 E24.6469
G1 X147.641 Y173.554 E24.69386
G1 X147.332 Y174.426 E24.73552
G1 X146.932 Y175.306 E24.77904
G1 X146.479 Y176.107 E24.82047
G1 X145.958 Y176.866 E24.86193
G1 X145.373 Y177.577 E24.90338
G1 X144.728 Y178.234 E24.94484
G1 X144.029 Y178.833 E24.98629
G1 X143.281 Y179.369 E25.02772
G1 X142.488 Y179.838 E25.0692
G1 X141.658 Y180.237 E25.11067
G1 X140.797 Y180.562 E25.1521
G1 X139.911 Y180.811 E25.19354
G1 X139.006 Y180.982 E25.23501
G1 X137.788 Y181.087 E25.29006
G1 X137.17 Y181.1 E25.31789
G1 X98.055 Y181.099 E27.07908
G1 X97.357 Y181.089 E27.11051
G1 X96.438 Y181.036 E27.15196
G1 X95.527 Y180.903 E27.19341
G1 X94.631 Y180.692 E27.23486
G1 X93.757 Y180.404 E27.27629
G1 X92.91 Y180.041 E27.31778
G1 X92.099 Y179.606 E27.35922
G1 X91.329 Y179.102 E27.40066
G1 X90.605 Y178.533 E27.44212
G1 X89.933 Y177.903 E27.48359
G1 X89.318 Y177.218 E27.52504
G1 X88.765 Y176.482 E27.56649
G1 X88.278 Y175.701 E27.60793
G1 X87.861 Y174.88 E27.6494
G1 X87.434 Y173.784 E27.70236
G1 X87.291 Y173.341 E27.72332
G1 X86.648 Y171.246 E27.82199
G1 X85.836 Y168.847 E27.93603
G1 X84.962 Y166.485 E28.04943
G1 X84.022 Y164.153 E28.16263
G1 X82.999 Y161.806 E28.27791
G1 X81.93 Y159.532 E28.39105
G1 X80.808 Y157.314 E28.50297
G1 X78.935 Y153.905 E28.6781
G1 X60.952 Y122.753 E30.29768
G1 X60.653 Y122.22 E30.3252
G1 X60.398 Y121.736 E30.34983
G1 X60.299 Y121.536 E30.35988
G1 X59.964 Y120.808 E30.39596
G1 X59.736 Y120.278 E30.42194
G1 X59.409 Y119.417 E30.46341
G1 X59.158 Y118.529 E30.50496
G1 X58.956 Y117.659 E30.54517
G1 X58.869 Y117.238 E30.56453
G1 X58.722 Y116.329 E30.60599
G1 X58.653 Y115.351 E30.65014
G1 X58.634 Y114.57 E30.68531
G1 X58.635 Y113.903 E30.71534
G1 X58.684 Y112.984 E30.75678
G1 X58.812 Y112.072 E30.79825
G1 X59.019 Y111.175 E30.8397
G1 X59.357 Y110.161 E30.88782
G1 X60.323 Y107.681 E31.00766
G1 X60.694 Y106.838 E31.04913
G1 X61.137 Y106.031 E31.09058
G1 X61.648 Y105.265 E31.13204
G1 X62.363 Y104.39 E31.18292
G1 X62.884 Y103.818 E31.21776
G1 X63.147 Y103.541 E31.23495
G1 X63.427 Y103.255 E31.25298
G1 X64.177 Y102.559 E31.29905
G1 X66.048 Y100.985 E31.40913
G1 X67.967 Y99.279 E31.52475
G1 X69.803 Y97.554 E31.63818
G1 X71.572 Y95.791 E31.75063
G1 X73.34 Y93.931 E31.86618
G1 X75.011 Y92.067 E31.97889
G1 X76.661 Y90.121 E32.09377
G1 X78.218 Y88.173 E32.20605
G1 X79.75 Y86.142 E32.3206
G1 X81.237 Y84.049 E32.4362
G1 X82.618 Y81.986 E32.54798
G1 X83.971 Y79.835 E32.6624
G1 X85.264 Y77.644 E32.77695
G1 X86.476 Y75.452 E32.88973
G1 X87.633 Y73.209 E33.00336
G1 X88.737 Y70.916 E33.11795
G1 X89.772 Y68.597 E33.23229
G1 X90.744 Y66.246 E33.34684
G1 X91.379 Y64.596 E33.42645
G1 X91.65 Y63.87 E33.46134
G1 X92.009 Y63.022 E33.5028
G1 X92.441 Y62.209 E33.54425
G1 X92.9 Y61.494 E33.58251
G1 X93.333 Y60.879 E33.61637
G1 X94.246 Y59.616 E33.68655
G1 X95.052 Y58.463 E33.74989
G1 X95.612 Y57.732 E33.79135
G1 X96.233 Y57.053 E33.83278
G1 X96.91 Y56.429 E33.87424
G1 X97.363 Y56.069 E33.90029
G1 X98.04 Y55.565 E33.93829
G1 X98.331 Y55.36 E33.95432
G1 X99.106 Y54.863 E33.99577
G1 X99.921 Y54.435 E34.03722
G1 X100.771 Y54.08 E34.0787
G1 X101.648 Y53.799 E34.12016
G1 X102.545 Y53.596 E34.16157
G1 X103.458 Y53.471 E34.20306
G1 X104.377 Y53.426 E34.24449
G1 X105.112 Y53.448 E34.2776
G1 X106.101 Y53.514 E34.32223
G0 F7500 X106.136 Y53.115
G1 F1500 X107.443 Y53.23 E34.38131
G1 X107.811 Y53.269 E34.39797
G1 X108.701 Y53.379 E34.43835
G1 X109.868 Y53.538 E34.49138
G1 X112.397 Y53.81 E34.6059
G1 X114.904 Y54.009 E34.71914
G1 X117.437 Y54.138 E34.83334
G1 X119.933 Y54.194 E34.94575
G1 X122.341 Y54.183 E35.05417
G1 X125.284 Y54.132 E35.18671
G1 X126.333 Y54.128 E35.23394
G1 X127.27 Y54.164 E35.27616
G1 X128.201 Y54.281 E35.31841
G1 X129.118 Y54.476 E35.36062
G1 X130.401 Y54.891 E35.42133
G1 X130.974 Y55.119 E35.4491
G1 X132.77 Y55.87 E35.53675
G1 X135.116 Y56.774 E35.64996
G1 X137.717 Y57.686 E35.77406
G1 X138.943 Y58.1 E35.83232
G1 X139.818 Y58.438 E35.87456
G1 X140.661 Y58.849 E35.91678
G1 X141.755 Y59.527 E35.97474
G1 X142.466 Y60.032 E36.014
G1 X142.698 Y60.205 E36.02703
G1 X143.425 Y60.797 E36.06925
G1 X144.099 Y61.449 E36.11147
G1 X144.715 Y62.156 E36.15369
G1 X145.269 Y62.913 E36.19593
G1 X145.756 Y63.714 E36.23814
G1 X146.298 Y64.845 E36.29461
G1 X146.399 Y65.091 E36.30658
G1 X146.575 Y65.55 E36.32871
G1 X147.198 Y67.284 E36.41168
G1 X148.122 Y69.642 E36.52571
G1 X149.103 Y71.949 E36.63858
G1 X150.16 Y74.255 E36.7528
G1 X151.258 Y76.483 E36.86464
G1 X152.457 Y78.748 E36.98003
G1 X153.684 Y80.917 E37.09224
G1 X154.975 Y83.056 E37.20473
G1 X156.356 Y85.203 E37.31967
G1 X157.761 Y87.258 E37.43176
G1 X159.249 Y89.307 E37.54578
G1 X160.784 Y91.3 E37.65904
G1 X162.367 Y93.239 E37.77175
G1 X164.019 Y95.151 E37.88552
G1 X165.707 Y96.995 E37.99808
G1 X167.485 Y98.83 E38.11313
G1 X169.257 Y100.559 E38.2246
G1 X170.493 Y101.693 E38.30013
G1 X171.516 Y102.643 E38.36299
G1 X171.834 Y102.95 E38.38289
G1 X172.148 Y103.266 E38.40295
G1 X172.431 Y103.561 E38.42135
G1 X172.87 Y104.037 E38.45051
G1 X173.476 Y104.753 E38.49275
G1 X174.019 Y105.518 E38.53499
G1 X174.494 Y106.327 E38.57723
G1 X174.997 Y107.41 E38.63099
G1 X175.445 Y108.534 E38.68547
G1 X176.024 Y110.032 E38.75779
G1 X176.325 Y110.921 E38.80005
G1 X176.549 Y111.831 E38.84224
G1 X176.694 Y112.758 E38.88449
G1 X176.762 Y113.781 E38.93065
G1 X176.77 Y114.187 E38.94894
G1 X176.769 Y114.648 E38.96969
G1 X176.755 Y115.278 E38.99807
G1 X176.694 Y116.214 E39.0403
G1 X176.555 Y117.139 E39.08242
G1 X176.438 Y117.739 E39.10994
G1 X176.355 Y118.127 E39.12781
G1 X176.271 Y118.488 E39.14449
G1 X176.019 Y119.392 E39.18675
G1 X175.691 Y120.272 E39.22904
G1 X175.396 Y120.971 E39.2632
G1 X175.236 Y121.333 E39.28102
G1 X175.096 Y121.634 E39.29596
G1 X174.767 Y122.284 E39.32877
G1 X174.438 Y122.878 E39.35934
G1 X156.43 Y154.071 E40.98108
G1 X155.134 Y156.391 E41.10073
G1 X153.981 Y158.599 E41.21289
G1 X152.877 Y160.87 E41.32659
G1 X151.828 Y163.189 E41.44119
G1 X150.853 Y165.516 E41.55479
G1 X149.963 Y167.828 E41.66633
G1 X149.127 Y170.195 E41.77936
G1 X148.303 Y172.756 E41.9005
G1 X148.023 Y173.671 E41.94358
G1 X147.702 Y174.576 E41.98682
G1 X147.297 Y175.472 E42.03109
G1 X146.837 Y176.289 E42.07331
G1 X146.309 Y177.064 E42.11553
G1 X145.717 Y177.792 E42.15778
G1 X145.065 Y178.466 E42.2
G1 X144.358 Y179.082 E42.24222
G1 X143.602 Y179.636 E42.28442
G1 X142.8 Y180.124 E42.32669
G1 X141.96 Y180.541 E42.36892
G1 X141.088 Y180.886 E42.41114
G1 X140.19 Y181.154 E42.45334
G1 X139.271 Y181.346 E42.49561
G1 X138.34 Y181.458 E42.53783
G1 X137.799 Y181.487 E42.56223
