;FLAVOR:Marlin
;TIME:6473
;Filament used: 7.00441m
;Layer height: 0.28
;MINX:58.234
;MINY:63.835
;MINZ:0.285
;MAXX:176.77
;MAXY:181.5
;MAXZ:44.245
;Generated with Cura_SteamEngine 4.6.1
M140 S60
M105
M190 S60
M104 S200
M105
M109 S200
M82 ;absolute extrusion mode
; Ender 3 Custom Start G-code
G92 E0 ; Reset Extruder
G28 ; Home all axes
G1 Z2.0 F3000 ; Move Z Axis up little to prevent scratching of Heat Bed
G1 X0.1 Y20 Z0.3 F5000.0 ; Move to start position
G1 X0.1 Y200.0 Z0.3 F1500.0 E15 ; Draw the first line
G1 X0.4 Y200.0 Z0.3 F5000.0 ; Move to side a little
G1 X0.4 Y20 Z0.3 F1500.0 E30 ; Draw the second line
G92 E0 ; Reset Extruder
G1 Z2.0 F3000 ; Move Z Axis up little to prevent scratching of Heat Bed
G1 X5 Y20 Z0.3 F5000.0 ; Move over to prevent blob squish
G92 E0
G92 E0
G1 F2700 E-6
;LAYER_COUNT:158
;LAYER:0
M107
M204 S500
M205 X8 Y8
G0 F7500 X138.351 Y98.249 Z0.285
;TYPE:SKIRT
G1 F2700 E0
G1 F1500 X139.483 Y98.329 E0.0511
G1 X140.718 Y98.486 E0.10715
G1 X141.363 Y98.577 E0.13648
G1 X143.849 Y98.859 E0.24913
G1 X146.421 Y99.077 E0.36535
G1 X148.907 Y99.217 E0.47747
G1 X152.823 Y99.299 E0.65383
G1 X160.234 Y99.301 E0.98751
G1 X160.909 Y99.31 E1.01791
G1 X161.791 Y99.36 E1.05769
G1 X162.752 Y99.461 E1.10119
G1 X163.246 Y99.526 E1.12363
G1 X164.135 Y99.684 E1.16428
G1 X165.194 Y99.98 E1.21379
G1 X166.016 Y100.264 E1.25295
G1 X166.55 Y100.463 E1.27861
G1 X167.381 Y100.816 E1.31926
G1 X168.376 Y101.36 E1.37032
G1 X168.945 Y101.714 E1.4005
G1 X169.21 Y101.885 E1.4147
G1 X169.623 Y102.16 E1.43704
G1 X170.352 Y102.693 E1.4777
G1 X171.02 Y103.279 E1.51771
G1 X171.25 Y103.499 E1.53204
G1 X171.646 Y103.899 E1.55738
G1 X172.219 Y104.511 E1.59513
G1 X172.806 Y105.197 E1.63578
G1 X173.331 Y105.932 E1.67645
G1 X173.788 Y106.711 E1.71712
G1 X174.224 Y107.645 E1.76353
G1 X174.698 Y108.818 E1.82049
G1 X175.278 Y110.321 E1.89303
G1 X175.566 Y111.177 E1.9337
G1 X175.777 Y112.055 E1.97435
G1 X175.91 Y112.948 E2.01501
G1 X175.962 Y113.797 E2.05331
G1 X175.97 Y114.203 E2.07159
G1 X175.969 Y114.631 E2.09086
G1 X175.955 Y115.261 E2.11923
G1 X175.895 Y116.162 E2.15989
G1 X175.769 Y116.986 E2.19742
G1 X175.652 Y117.586 E2.22495
G1 X175.576 Y117.946 E2.24152
G1 X175.492 Y118.307 E2.2582
G1 X175.248 Y119.176 E2.29884
G1 X174.954 Y119.961 E2.33659
G1 X174.659 Y120.66 E2.37075
G1 X174.511 Y120.996 E2.38728
G1 X174.371 Y121.297 E2.40223
G1 X174.066 Y121.899 E2.43261
G1 X173.746 Y122.478 E2.4624
G1 X155.694 Y153.747 E4.08809
G1 X154.442 Y155.988 E4.20368
G1 X153.254 Y158.265 E4.31932
G1 X152.157 Y160.519 E4.43219
G1 X151.096 Y162.865 E4.54812
G1 X150.121 Y165.194 E4.6618
G1 X149.21 Y167.56 E4.77596
G1 X148.359 Y169.969 E4.89099
G1 X147.585 Y172.373 E5.00471
G1 X147.259 Y173.437 E5.05481
G1 X146.961 Y174.276 E5.0949
G1 X146.568 Y175.139 E5.1376
G1 X146.122 Y175.924 E5.17825
G1 X145.607 Y176.666 E5.21892
G1 X145.029 Y177.36 E5.25958
G1 X144.392 Y178 E5.30024
G1 X143.701 Y178.581 E5.34089
G1 X142.961 Y179.099 E5.38156
G1 X142.178 Y179.549 E5.42222
G1 X141.358 Y179.929 E5.46292
G1 X140.508 Y180.234 E5.50358
G1 X139.635 Y180.463 E5.54422
G1 X138.744 Y180.613 E5.5849
G1 X137.777 Y180.687 E5.62857
G1 X137.17 Y180.7 E5.6559
G1 X98.061 Y180.699 E7.41682
G1 X97.363 Y180.689 E7.44825
G1 X96.461 Y180.636 E7.48894
G1 X95.568 Y180.504 E7.52958
G1 X94.69 Y180.293 E7.57024
G1 X93.834 Y180.005 E7.6109
G1 X93.007 Y179.643 E7.65155
G1 X92.215 Y179.208 E7.69224
G1 X91.464 Y178.706 E7.73291
G1 X90.761 Y178.139 E7.77358
G1 X90.111 Y177.512 E7.81424
G1 X89.519 Y176.83 E7.8549
G1 X88.989 Y176.099 E7.89556
G1 X88.527 Y175.323 E7.93622
G1 X88.134 Y174.51 E7.97688
G1 X87.814 Y173.66 E8.01777
G1 X87.673 Y173.223 E8.03845
G1 X87.026 Y171.115 E8.13773
G1 X86.218 Y168.728 E8.2512
G1 X85.332 Y166.334 E8.36614
G1 X84.388 Y163.993 E8.47979
G1 X83.363 Y161.642 E8.59527
G1 X82.285 Y159.347 E8.70944
G1 X81.159 Y157.119 E8.82184
G1 X79.305 Y153.746 E8.99514
G1 X61.301 Y122.557 E10.61663
G1 X61.002 Y122.024 E10.64415
G1 X60.757 Y121.559 E10.66782
G1 X60.518 Y121.065 E10.69253
G1 X60.331 Y120.65 E10.71302
G1 X60.103 Y120.12 E10.739
G1 X59.783 Y119.275 E10.77968
G1 X59.547 Y118.437 E10.81888
G1 X59.348 Y117.578 E10.85858
G1 X59.261 Y117.157 E10.87794
G1 X59.118 Y116.266 E10.91857
G1 X59.053 Y115.341 E10.96032
G1 X59.034 Y114.56 E10.9955
G1 X59.031 Y114.212 E11.01117
G1 X59.034 Y113.907 E11.0249
G1 X59.083 Y113.005 E11.06558
G1 X59.212 Y112.111 E11.10625
G1 X59.419 Y111.232 E11.14691
G1 X59.736 Y110.287 E11.19179
G1 X60.681 Y107.862 E11.30897
G1 X61.043 Y107.035 E11.34962
G1 X61.476 Y106.242 E11.3903
G1 X61.978 Y105.491 E11.43097
G1 X62.659 Y104.66 E11.47935
G1 X63.181 Y104.087 E11.51425
G1 X63.427 Y103.826 E11.5304
G1 X63.688 Y103.559 E11.54721
G1 X64.347 Y102.942 E11.58786
G1 X65.25 Y102.252 E11.63903
G1 X65.849 Y101.845 E11.67164
G1 X66.123 Y101.665 E11.6864
G1 X66.494 Y101.43 E11.70617
G1 X67.277 Y100.981 E11.74681
G1 X68.324 Y100.514 E11.79843
G1 X69.241 Y100.17 E11.84253
G1 X69.697 Y100.012 E11.86426
G1 X70.562 Y99.755 E11.90489
G1 X71.685 Y99.54 E11.95637
G1 X72.625 Y99.419 E11.99904
G1 X73.129 Y99.367 E12.02186
G1 X74.01 Y99.314 E12.0616
G1 X74.977 Y99.3 E12.10514
G1 X82.241 Y99.3 E12.43221
G1 X84.847 Y99.263 E12.54956
G1 X87.415 Y99.154 E12.66529
G1 X89.917 Y98.977 E12.77823
G1 X92.439 Y98.727 E12.89234
G1 X95.457 Y98.335 E13.02937
G1 X96.323 Y98.26 E13.06851
G1 X96.551 Y98.25 E13.07878
G1 X97.234 Y98.238 E13.10954
G1 X110.15 Y98.238 E13.69109
G1 X111.134 Y98.256 E13.73541
G1 X111.616 Y98.277 E13.75713
G1 X113.614 Y98.39 E13.84723
G1 X116.148 Y98.462 E13.96138
G1 X118.646 Y98.462 E14.07385
G1 X122.506 Y98.328 E14.24776
G1 X123.388 Y98.279 E14.28753
G1 X123.748 Y98.265 E14.30375
G1 X125.286 Y98.236 E14.37301
G1 X137.518 Y98.238 E14.92377
G1 X138.351 Y98.249 E14.96128
G0 F7500 X138.357 Y97.849
G1 F1500 X139.533 Y97.932 E15.01436
G1 X140.774 Y98.09 E15.07069
G1 X141.392 Y98.178 E15.0988
G1 X143.93 Y98.465 E15.2138
G1 X146.441 Y98.678 E15.32727
G1 X148.908 Y98.817 E15.43852
G1 X152.832 Y98.899 E15.61524
G1 X160.239 Y98.901 E15.94875
G1 X160.914 Y98.91 E15.97915
G1 X161.831 Y98.962 E16.0205
G1 X162.479 Y99.027 E16.04982
G1 X162.804 Y99.065 E16.06456
G1 X163.298 Y99.13 E16.08699
G1 X164.205 Y99.289 E16.12845
G1 X165.323 Y99.602 E16.18073
G1 X166.156 Y99.889 E16.2204
G1 X166.69 Y100.088 E16.24606
G1 X167.537 Y100.447 E16.28748
G1 X168.587 Y101.021 E16.34136
G1 X169.432 Y101.552 E16.38629
G1 X169.845 Y101.827 E16.40863
G1 X170.588 Y102.37 E16.45007
G1 X171.297 Y102.99 E16.49248
G1 X171.527 Y103.21 E16.50681
G1 X171.938 Y103.625 E16.53311
G1 X172.511 Y104.237 E16.57086
G1 X173.11 Y104.936 E16.6123
G1 X173.647 Y105.684 E16.65376
G1 X174.116 Y106.476 E16.69521
G1 X174.594 Y107.494 E16.74585
G1 X175.071 Y108.676 E16.80324
G1 X175.651 Y110.176 E16.87565
G1 X175.945 Y111.049 E16.91713
G1 X176.163 Y111.943 E16.95856
G1 X176.302 Y112.853 E17.00001
G1 X176.362 Y113.789 E17.04224
G1 X176.37 Y114.195 E17.06052
G1 X176.369 Y114.639 E17.08051
G1 X176.355 Y115.269 E17.10889
G1 X176.295 Y116.188 E17.15035
G1 X176.162 Y117.063 E17.1902
G1 X176.045 Y117.663 E17.21773
G1 X175.965 Y118.036 E17.2349
G1 X175.881 Y118.397 E17.25159
G1 X175.634 Y119.284 E17.29305
G1 X175.323 Y120.117 E17.33309
G1 X175.028 Y120.816 E17.36725
G1 X174.873 Y121.164 E17.3844
G1 X174.733 Y121.465 E17.39935
G1 X174.417 Y122.091 E17.43092
G1 X174.092 Y122.678 E17.46113
G1 X156.047 Y153.936 E19.08624
G1 X154.788 Y156.189 E19.20245
G1 X153.624 Y158.418 E19.31567
G1 X152.51 Y160.709 E19.43037
G1 X151.471 Y163.006 E19.54389
G1 X150.482 Y165.367 E19.65914
G1 X149.589 Y167.688 E19.77112
G1 X148.742 Y170.087 E19.88567
G1 X147.947 Y172.557 E20.0025
G1 X147.641 Y173.554 E20.04946
G1 X147.332 Y174.426 E20.09111
G1 X146.932 Y175.306 E20.13464
G1 X146.479 Y176.107 E20.17607
G1 X145.958 Y176.866 E20.21752
G1 X145.373 Y177.577 E20.25898
G1 X144.728 Y178.234 E20.30043
G1 X144.029 Y178.833 E20.34188
G1 X143.281 Y179.369 E20.38332
G1 X142.488 Y179.838 E20.4248
G1 X141.658 Y180.237 E20.46626
G1 X140.797 Y180.562 E20.5077
G1 X139.911 Y180.811 E20.54914
G1 X139.006 Y180.982 E20.59061
G1 X137.788 Y181.087 E20.64565
G1 X137.17 Y181.1 E20.67349
G1 X98.055 Y181.099 E22.43467
G1 X97.357 Y181.089 E22.46611
G1 X96.438 Y181.036 E22.50755
G1 X95.527 Y180.903 E22.54901
G1 X94.631 Y180.692 E22.59045
G1 X93.757 Y180.404 E22.63189
G1 X92.91 Y180.041 E22.67338
G1 X92.099 Y179.606 E22.71482
G1 X91.329 Y179.102 E22.75625
G1 X90.605 Y178.533 E22.79771
G1 X89.933 Y177.903 E22.83919
G1 X89.318 Y177.218 E22.88064
G1 X88.765 Y176.482 E22.92209
G1 X88.278 Y175.701 E22.96353
G1 X87.861 Y174.88 E23.00499
G1 X87.434 Y173.784 E23.05795
G1 X87.291 Y173.341 E23.07891
G1 X86.648 Y171.246 E23.17759
G1 X85.836 Y168.847 E23.29162
G1 X84.962 Y166.485 E23.40502
G1 X84.022 Y164.153 E23.51823
G1 X82.999 Y161.806 E23.63351
G1 X81.93 Y159.532 E23.74665
G1 X80.808 Y157.314 E23.85857
G1 X78.935 Y153.905 E24.0337
G1 X60.952 Y122.753 E25.65328
G1 X60.653 Y122.22 E25.6808
G1 X60.398 Y121.736 E25.70543
G1 X60.299 Y121.536 E25.71548
G1 X59.964 Y120.808 E25.75156
G1 X59.736 Y120.278 E25.77754
G1 X59.409 Y119.417 E25.81901
G1 X59.158 Y118.529 E25.86056
G1 X58.956 Y117.659 E25.90077
G1 X58.869 Y117.238 E25.92013
G1 X58.722 Y116.329 E25.96159
G1 X58.653 Y115.351 E26.00573
G1 X58.634 Y114.57 E26.04091
G1 X58.635 Y113.903 E26.07094
G1 X58.684 Y112.983 E26.11242
G1 X58.812 Y112.072 E26.15384
G1 X59.019 Y111.175 E26.19529
G1 X59.364 Y110.142 E26.24433
G1 X59.988 Y108.549 E26.32136
G1 X60.308 Y107.718 E26.36146
G1 X60.676 Y106.874 E26.40292
G1 X61.115 Y106.066 E26.44432
G1 X61.624 Y105.298 E26.4858
G1 X62.363 Y104.391 E26.53848
G1 X62.885 Y103.818 E26.57338
G1 X63.141 Y103.546 E26.5902
G1 X63.402 Y103.279 E26.60701
G1 X64.074 Y102.65 E26.64846
G1 X65.025 Y101.921 E26.70241
G1 X65.624 Y101.514 E26.73502
G1 X65.909 Y101.327 E26.75037
G1 X66.28 Y101.092 E26.77014
G1 X67.078 Y100.634 E26.81157
G1 X68.182 Y100.14 E26.86603
G1 X69.11 Y99.792 E26.91065
G1 X69.566 Y99.634 E26.93238
G1 X70.448 Y99.371 E26.97382
G1 X71.632 Y99.143 E27.02811
G1 X72.268 Y99.058 E27.057
G1 X72.584 Y99.021 E27.07133
G1 X73.088 Y98.969 E27.09414
G1 X74.004 Y98.914 E27.13546
G1 X74.977 Y98.9 E27.17927
G1 X82.235 Y98.9 E27.50607
G1 X84.86 Y98.863 E27.62428
G1 X87.368 Y98.756 E27.7373
G1 X89.885 Y98.578 E27.85092
G1 X92.385 Y98.33 E27.96403
G1 X95.406 Y97.938 E28.1012
G1 X96.306 Y97.86 E28.14187
G1 X96.534 Y97.85 E28.15215
G1 X97.234 Y97.838 E28.18367
G1 X110.156 Y97.838 E28.7655
G1 X111.151 Y97.856 E28.8103
G1 X111.639 Y97.878 E28.8323
G1 X113.614 Y97.99 E28.92137
G1 X116.159 Y98.062 E29.03601
G1 X118.632 Y98.062 E29.14735
G1 X122.471 Y97.929 E29.32031
G1 X123.366 Y97.879 E29.36067
G1 X123.74 Y97.865 E29.37753
G1 X125.286 Y97.836 E29.44715
G1 X137.518 Y97.838 E29.9979
G1 X138.357 Y97.849 E30.03568
G0 F7500 X138.363 Y97.449
G1 F1500 X139.584 Y97.535 E30.0908
G1 X140.83 Y97.694 E30.14735
G1 X141.457 Y97.783 E30.17587
G1 X143.938 Y98.063 E30.28829
G1 X146.461 Y98.277 E30.4023
G1 X148.94 Y98.417 E30.51409
G1 X152.84 Y98.499 E30.68973
G1 X160.245 Y98.501 E31.02315
G1 X160.92 Y98.51 E31.05354
G1 X161.871 Y98.564 E31.09643
G1 X162.519 Y98.629 E31.12576
G1 X162.856 Y98.668 E31.14103
G1 X163.35 Y98.733 E31.16347
G1 X164.274 Y98.895 E31.2057
G1 X165.451 Y99.223 E31.26072
G1 X166.295 Y99.514 E31.30092
G1 X166.829 Y99.713 E31.32658
G1 X167.693 Y100.078 E31.36881
G1 X168.799 Y100.681 E31.42553
G1 X169.368 Y101.035 E31.4557
G1 X169.654 Y101.219 E31.47101
G1 X170.067 Y101.494 E31.49335
G1 X170.824 Y102.047 E31.53556
G1 X171.573 Y102.701 E31.58033
G1 X171.803 Y102.921 E31.59467
G1 X172.23 Y103.352 E31.62198
G1 X172.803 Y103.964 E31.65973
G1 X173.414 Y104.675 E31.70194
G1 X173.962 Y105.436 E31.74417
G1 X174.444 Y106.241 E31.78641
G1 X174.965 Y107.344 E31.84134
G1 X175.445 Y108.534 E31.89911
G1 X176.024 Y110.032 E31.97142
G1 X176.325 Y110.921 E32.01368
G1 X176.549 Y111.831 E32.05588
G1 X176.694 Y112.758 E32.09813
G1 X176.762 Y113.781 E32.14429
G1 X176.77 Y114.187 E32.16258
G1 X176.769 Y114.648 E32.18333
G1 X176.755 Y115.278 E32.21171
G1 X176.694 Y116.214 E32.25394
G1 X176.555 Y117.139 E32.29606
G1 X176.438 Y117.739 E32.32358
G1 X176.355 Y118.127 E32.34145
G1 X176.271 Y118.488 E32.35813
G1 X176.019 Y119.392 E32.40039
G1 X175.691 Y120.272 E32.44267
G1 X175.396 Y120.971 E32.47684
G1 X175.236 Y121.333 E32.49466
G1 X175.096 Y121.634 E32.5096
G1 X174.767 Y122.284 E32.54241
G1 X174.438 Y122.878 E32.57298
G1 X156.43 Y154.071 E34.19472
G1 X155.134 Y156.391 E34.31437
G1 X153.981 Y158.599 E34.42653
G1 X152.877 Y160.87 E34.54023
G1 X151.828 Y163.189 E34.65483
G1 X150.853 Y165.516 E34.76843
G1 X149.963 Y167.828 E34.87997
G1 X149.127 Y170.195 E34.993
G1 X148.303 Y172.756 E35.11413
G1 X148.023 Y173.671 E35.15722
G1 X147.702 Y174.576 E35.20046
G1 X147.297 Y175.472 E35.24473
G1 X146.837 Y176.289 E35.28694
G1 X146.309 Y177.064 E35.32917
G1 X145.717 Y177.792 E35.37142
G1 X145.065 Y178.466 E35.41364
G1 X144.358 Y179.082 E35.45586
G1 X143.602 Y179.636 E35.49806
G1 X142.8 Y180.124 E35.54033
G1 X141.96 Y180.541 E35.58256
G1 X141.088 Y180.886 E35.62478
G1 X140.19 Y181.154 E35.66698
G1 X139.271 Y181.346 E35.70925
G1 X138.34 Y181.458 E35.75147
G1 X137.799 Y181.487 E35.77587
G1 X137.17 Y181.5 E35.80419
G1 X98.049 Y181.499 E37.56565
G1 X97.351 Y181.489 E37.59708
G1 X96.415 Y181.435 E37.6393
G1 X95.487 Y181.303 E37.6815
G1 X94.573 Y181.091 E37.72375
G1 X93.681 Y180.802 E37.76597
G1 X92.816 Y180.439 E37.8082
G1 X91.986 Y180.003 E37.85042
G1 X91.195 Y179.498 E37.89267
G1 X90.451 Y178.927 E37.9349
G1 X89.758 Y178.295 E37.97713
G1 X89.121 Y177.607 E38.01935
G1 X88.546 Y176.866 E38.06158
G1 X88.035 Y176.08 E38.10379
G1 X87.593 Y175.252 E38.14605
G1 X87.224 Y174.39 E38.18827
G1 X87.054 Y173.908 E38.21128
G1 X86.908 Y173.458 E38.23259
G1 X86.262 Y171.354 E38.33168
G1 X85.457 Y168.977 E38.44468
G1 X84.591 Y166.637 E38.55703
G1 X83.643 Y164.284 E38.67125
G1 X82.642 Y161.987 E38.78407
G1 X81.569 Y159.704 E38.89765
G1 X80.453 Y157.497 E39.009
G1 X78.606 Y154.135 E39.18172
G1 X60.603 Y122.949 E40.80307
G1 X60.304 Y122.416 E40.83059
G1 X60.04 Y121.914 E40.85613
G1 X59.941 Y121.714 E40.86618
G1 X59.596 Y120.966 E40.90327
G1 X59.368 Y120.436 E40.92924
G1 X59.035 Y119.559 E40.97148
G1 X58.768 Y118.621 E41.01539
G1 X58.632 Y118.046 E41.042
G1 X58.565 Y117.74 E41.0561
G1 X58.478 Y117.319 E41.07546
G1 X58.327 Y116.393 E41.1177
G1 X58.253 Y115.361 E41.16429
G1 X58.234 Y114.58 E41.19947
G1 X58.235 Y113.899 E41.23013
G1 X58.284 Y112.962 E41.27238
G1 X58.413 Y112.033 E41.31461
G1 X58.62 Y111.119 E41.3568
G1 X58.991 Y109.996 E41.41005
G1 X59.934 Y107.575 E41.52704
G1 X60.309 Y106.715 E41.56928
G1 X60.755 Y105.89 E41.61151
G1 X61.269 Y105.106 E41.65372
G1 X62.067 Y104.121 E41.7108
G1 X62.589 Y103.548 E41.7457
G1 X62.855 Y103.267 E41.76312
G1 X63.116 Y103 E41.77993
G1 X63.8 Y102.358 E41.82217
G1 X64.8 Y101.591 E41.87892
G1 X65.399 Y101.184 E41.91152
G1 X65.695 Y100.989 E41.92748
G1 X66.066 Y100.754 E41.94726
G1 X66.879 Y100.287 E41.98947
G1 X68.039 Y99.766 E42.04673
G1 X68.667 Y99.527 E42.07698
G1 X68.979 Y99.414 E42.09192
G1 X69.435 Y99.256 E42.11365
G1 X70.333 Y98.987 E42.15586
G1 X71.579 Y98.747 E42.213
G1 X72.543 Y98.623 E42.25676
G1 X73.047 Y98.571 E42.27957
G1 X73.997 Y98.514 E42.32242
G1 X74.977 Y98.5 E42.36655
G1 X82.229 Y98.5 E42.69308
G1 X84.837 Y98.463 E42.81052
G1 X87.359 Y98.356 E42.92418
G1 X89.854 Y98.179 E43.0368
G1 X92.324 Y97.934 E43.14856
G1 X95.354 Y97.541 E43.28613
G1 X96.288 Y97.461 E43.32834
G1 X96.516 Y97.451 E43.33861
G1 X97.234 Y97.438 E43.37095
G1 X110.162 Y97.438 E43.95304
G1 X111.168 Y97.457 E43.99835
G1 X111.662 Y97.479 E44.02061
G1 X113.614 Y97.59 E44.10865
G1 X116.17 Y97.662 E44.22378
G1 X118.648 Y97.662 E44.33535
G1 X122.434 Y97.531 E44.50592
G1 X123.344 Y97.48 E44.54696
G1 X123.732 Y97.465 E44.56444
G1 X125.286 Y97.436 E44.63442
G1 X137.518 Y97.438 E45.18518
G1 X138.363 Y97.449 E45.22323
G1 F2700 E39.22323
;MESH:soporte_v3_2.stl
G0 F7500 X138.051 Y107.772
G0 X138.051 Y108.856
G0 X137.824 Y109.438
;TYPE:WALL-INNER
G1 F2700 E45.22323
G1 F1800 X138.187 Y109.773 E45.24547
G1 X138.806 Y110.107 E45.27714
G1 X139.021 Y110.223 E45.28814
