;FLAVOR:Marlin
;TIME:17128
;Filament used: 7.73482m
;Layer height: 0.12
;MINX:58.229
;MINY:63.835
;MINZ:0.2
;MAXX:176.77
;MAXY:181.5
;MAXZ:44.48
;Generated with Cura_SteamEngine 4.6.1
M140 S80
M105
M190 S80
M104 S240
M105
M109 S240
M82 ;absolute extrusion mode
; Ender 3 Custom Start G-code
G92 E0 ; Reset Extruder
G28 ; Home all axes
G1 Z2.0 F3000 ; Move Z Axis up little to prevent scratching of Heat Bed
G1 X0.1 Y20 Z0.3 F5000.0 ; Move to start position
G1 X0.1 Y200.0 Z0.3 F1500.0 E15 ; Draw the first line
G1 X0.4 Y200.0 Z0.3 F5000.0 ; Move to side a little
G1 X0.4 Y20 Z0.3 F1500.0 E30 ; Draw the second line
G92 E0 ; Reset Extruder
G1 Z2.0 F3000 ; Move Z Axis up little to prevent scratching of Heat Bed
G1 X5 Y20 Z0.3 F5000.0 ; Move over to prevent blob squish
G92 E0
G92 E0
G1 F2700 E-6
;LAYER_COUNT:370
;LAYER:0
M107
M204 S500
M205 X8 Y8
G0 F7500 X138.668 Y98.562 Z0.2
;TYPE:SKIRT
G1 F2700 E0
G1 F1500 X139.531 Y98.61 E0.02731
G1 X140.293 Y98.687 E0.05151
G1 X141.739 Y98.852 E0.0975
G1 X144.325 Y99.074 E0.17951
G1 X146.807 Y99.216 E0.25806
G1 X149.398 Y99.29 E0.33996
G1 X150.761 Y99.3 E0.38303
G1 X160.247 Y99.301 E0.68276
G1 X160.933 Y99.311 E0.70444
G1 X161.789 Y99.36 E0.73153
G1 X162.718 Y99.457 E0.76104
G1 X163.251 Y99.527 E0.77803
G1 X164.141 Y99.684 E0.80658
G1 X165.212 Y99.985 E0.84173
G1 X166.038 Y100.271 E0.86935
G1 X166.56 Y100.466 E0.88696
G1 X167.392 Y100.819 E0.91552
G1 X168.392 Y101.368 E0.95156
G1 X168.972 Y101.73 E0.97317
G1 X169.255 Y101.914 E0.98383
G1 X169.626 Y102.163 E0.99795
G1 X170.353 Y102.699 E1.02649
G1 X171.095 Y103.361 E1.05791
G1 X171.586 Y103.844 E1.07967
G1 X171.93 Y104.199 E1.09529
G1 X172.275 Y104.573 E1.11137
G1 X172.858 Y105.263 E1.13991
G1 X173.377 Y106.002 E1.16844
G1 X173.828 Y106.784 E1.19697
G1 X174.253 Y107.712 E1.22922
G1 X174.835 Y109.174 E1.27894
G1 X175.265 Y110.287 E1.31664
G1 X175.556 Y111.142 E1.34518
G1 X175.77 Y112.02 E1.37373
G1 X175.906 Y112.913 E1.40227
G1 X175.962 Y113.809 E1.43064
G1 X175.97 Y114.241 E1.44429
G1 X175.97 Y114.638 E1.45684
G1 X175.958 Y115.227 E1.47545
G1 X175.9 Y116.128 E1.50398
G1 X175.772 Y116.97 E1.53089
G1 X175.644 Y117.627 E1.55204
G1 X175.57 Y117.972 E1.56319
G1 X175.497 Y118.288 E1.57344
G1 X175.255 Y119.158 E1.60197
G1 X174.955 Y119.961 E1.62906
G1 X174.653 Y120.676 E1.65358
G1 X174.491 Y121.039 E1.66614
G1 X174.362 Y121.314 E1.67574
G1 X174.138 Y121.763 E1.69159
G1 X174.008 Y122.008 E1.70036
G1 X173.832 Y122.326 E1.71184
G1 X155.711 Y153.716 E2.85708
G1 X154.442 Y155.988 E2.93931
G1 X153.254 Y158.265 E3.02046
G1 X152.157 Y160.519 E3.09966
G1 X151.096 Y162.865 E3.18102
G1 X150.121 Y165.194 E3.2608
G1 X149.21 Y167.56 E3.34091
G1 X148.359 Y169.969 E3.42163
G1 X147.585 Y172.373 E3.50143
G1 X147.259 Y173.437 E3.53659
G1 X146.961 Y174.276 E3.56473
G1 X146.568 Y175.139 E3.59469
G1 X146.122 Y175.924 E3.62322
G1 X145.607 Y176.666 E3.65176
G1 X145.029 Y177.36 E3.68029
G1 X144.392 Y178 E3.70883
G1 X143.701 Y178.581 E3.73735
G1 X142.961 Y179.099 E3.76589
G1 X142.178 Y179.549 E3.79443
G1 X141.358 Y179.929 E3.82298
G1 X140.508 Y180.234 E3.85152
G1 X139.635 Y180.463 E3.88004
G1 X138.744 Y180.613 E3.90859
G1 X137.777 Y180.687 E3.93923
G1 X137.17 Y180.7 E3.95841
G1 X98.061 Y180.699 E5.19414
G1 X97.363 Y180.689 E5.2162
G1 X96.461 Y180.636 E5.24475
G1 X95.568 Y180.504 E5.27327
G1 X94.69 Y180.293 E5.30181
G1 X93.834 Y180.005 E5.33034
G1 X93.007 Y179.643 E5.35887
G1 X92.215 Y179.208 E5.38742
G1 X91.464 Y178.706 E5.41596
G1 X90.761 Y178.139 E5.4445
G1 X90.111 Y177.512 E5.47304
G1 X89.519 Y176.83 E5.50157
G1 X88.989 Y176.099 E5.5301
G1 X88.527 Y175.323 E5.55864
G1 X88.134 Y174.51 E5.58717
G1 X87.814 Y173.66 E5.61587
G1 X87.673 Y173.223 E5.63038
G1 X87.022 Y171.102 E5.70048
G1 X86.22 Y168.732 E5.77954
G1 X85.322 Y166.309 E5.86118
G1 X84.383 Y163.981 E5.9405
G1 X83.358 Y161.629 E6.02157
G1 X82.28 Y159.338 E6.10157
G1 X81.156 Y157.112 E6.18036
G1 X79.3 Y153.738 E6.30204
G1 X61.315 Y122.583 E7.4387
G1 X60.973 Y121.97 E7.46088
G1 X60.712 Y121.471 E7.47867
G1 X60.613 Y121.268 E7.48581
G1 X60.426 Y120.861 E7.49996
G1 X60.118 Y120.152 E7.52438
G1 X59.795 Y119.309 E7.55291
G1 X59.545 Y118.429 E7.58181
G1 X59.396 Y117.797 E7.60233
G1 X59.331 Y117.499 E7.61197
G1 X59.249 Y117.098 E7.6249
G1 X59.107 Y116.207 E7.65341
G1 X59.051 Y115.485 E7.67629
G1 X59.038 Y115.177 E7.68603
G1 X59.029 Y114.665 E7.70221
G1 X59.035 Y113.919 E7.72578
G1 X59.083 Y113.017 E7.75432
G1 X59.209 Y112.123 E7.78285
G1 X59.415 Y111.244 E7.81138
G1 X59.752 Y110.244 E7.84472
G1 X60.002 Y109.613 E7.86617
G1 X60.363 Y108.687 E7.89757
G1 X60.68 Y107.86 E7.92556
G1 X61.041 Y107.032 E7.9541
G1 X61.473 Y106.239 E7.98263
G1 X61.974 Y105.488 E8.01115
G1 X62.593 Y104.723 E8.04225
G1 X62.834 Y104.453 E8.05368
G1 X63.15 Y104.115 E8.0683
G1 X63.713 Y103.539 E8.09375
G1 X64.372 Y102.922 E8.12228
G1 X65.283 Y102.226 E8.1585
G1 X66.075 Y101.695 E8.18863
G1 X66.485 Y101.435 E8.20397
G1 X67.269 Y100.986 E8.23252
G1 X68.309 Y100.52 E8.26853
G1 X68.948 Y100.276 E8.29014
G1 X69.259 Y100.163 E8.3006
G1 X69.708 Y100.008 E8.3156
G1 X70.573 Y99.752 E8.34411
G1 X71.685 Y99.54 E8.37988
G1 X72.625 Y99.419 E8.40982
G1 X73.129 Y99.367 E8.42583
G1 X74.01 Y99.314 E8.45372
G1 X74.977 Y99.3 E8.48428
G1 X84.249 Y99.3 E8.77725
G1 X86.855 Y99.263 E8.8596
G1 X89.423 Y99.154 E8.94081
G1 X91.89 Y98.979 E9.01896
G1 X94.795 Y98.674 E9.11125
G1 X95.469 Y98.609 E9.13265
G1 X96.289 Y98.563 E9.1586
G1 X97.089 Y98.552 E9.18388
G1 X110.486 Y98.553 E9.60718
G1 X111.48 Y98.571 E9.6386
G1 X112.266 Y98.606 E9.66346
G1 X113.607 Y98.683 E9.7059
G1 X116.176 Y98.756 E9.7871
G1 X118.71 Y98.758 E9.86717
G1 X121.23 Y98.687 E9.94683
G1 X122.38 Y98.622 E9.98322
G1 X123.707 Y98.565 E10.02519
G1 X124.793 Y98.549 E10.05951
G1 X137.868 Y98.552 E10.47264
G0 F1350 X137.871 Y98.552
G0 X138.668 Y98.562
G0 F7500 X138.674 Y98.162
G1 F1500 X139.57 Y98.212 E10.501
G1 X140.338 Y98.289 E10.52538
G1 X141.818 Y98.458 E10.57245
G1 X144.313 Y98.672 E10.65158
G1 X146.839 Y98.816 E10.73152
G1 X149.413 Y98.89 E10.81288
G1 X150.764 Y98.9 E10.85557
G1 X160.253 Y98.901 E11.1554
G1 X160.939 Y98.911 E11.17708
G1 X161.828 Y98.962 E11.20521
G1 X162.77 Y99.06 E11.23514
G1 X163.303 Y99.13 E11.25212
G1 X164.21 Y99.29 E11.28122
G1 X165.341 Y99.606 E11.31833
G1 X166.178 Y99.896 E11.34632
G1 X166.7 Y100.091 E11.36393
G1 X167.548 Y100.451 E11.39303
G1 X168.603 Y101.029 E11.43104
G1 X169.183 Y101.391 E11.45265
G1 X169.478 Y101.582 E11.46375
G1 X169.849 Y101.831 E11.47787
G1 X170.591 Y102.376 E11.50696
G1 X171.376 Y103.075 E11.54017
G1 X171.867 Y103.558 E11.56193
G1 X172.224 Y103.928 E11.57818
G1 X172.569 Y104.302 E11.59426
G1 X173.164 Y105.005 E11.62336
G1 X173.695 Y105.757 E11.65244
G1 X174.158 Y106.552 E11.68151
G1 X174.624 Y107.564 E11.71672
G1 X175.208 Y109.032 E11.76664
G1 X175.374 Y109.466 E11.78132
G1 X175.638 Y110.142 E11.80425
G1 X175.935 Y111.013 E11.83333
G1 X176.156 Y111.907 E11.86243
G1 X176.298 Y112.817 E11.89153
G1 X176.362 Y113.802 E11.92272
G1 X176.37 Y114.234 E11.93637
G1 X176.37 Y114.646 E11.94939
G1 X176.358 Y115.235 E11.968
G1 X176.299 Y116.154 E11.9971
G1 X176.164 Y117.046 E12.0256
G1 X176.036 Y117.703 E12.04675
G1 X175.96 Y118.062 E12.05835
G1 X175.887 Y118.378 E12.0686
G1 X175.641 Y119.265 E12.09768
G1 X175.324 Y120.116 E12.12637
G1 X175.022 Y120.831 E12.1509
G1 X174.854 Y121.209 E12.16397
G1 X174.725 Y121.484 E12.17357
G1 X174.491 Y121.95 E12.19004
G1 X174.361 Y122.195 E12.19881
G1 X174.178 Y122.526 E12.21076
G1 X156.064 Y153.905 E13.35559
G1 X154.788 Y156.189 E13.43825
G1 X153.624 Y158.418 E13.51771
G1 X152.51 Y160.709 E13.5982
G1 X151.471 Y163.006 E13.67786
G1 X150.482 Y165.367 E13.75874
G1 X149.589 Y167.688 E13.83732
G1 X148.742 Y170.087 E13.9177
G1 X147.947 Y172.557 E13.99969
G1 X147.641 Y173.554 E14.03265
G1 X147.332 Y174.426 E14.06188
G1 X146.932 Y175.306 E14.09242
G1 X146.479 Y176.107 E14.1215
G1 X145.958 Y176.866 E14.15058
G1 X145.373 Y177.577 E14.17968
G1 X144.728 Y178.234 E14.20877
G1 X144.029 Y178.833 E14.23786
G1 X143.281 Y179.369 E14.26693
G1 X142.488 Y179.838 E14.29604
G1 X141.658 Y180.237 E14.32514
G1 X140.797 Y180.562 E14.35422
G1 X139.911 Y180.811 E14.3833
G1 X139.006 Y180.982 E14.4124
G1 X137.788 Y181.087 E14.45103
G1 X137.17 Y181.1 E14.47056
G1 X98.055 Y181.099 E15.70648
G1 X97.357 Y181.089 E15.72854
G1 X96.438 Y181.036 E15.75762
G1 X95.527 Y180.903 E15.78671
G1 X94.631 Y180.692 E15.8158
G1 X93.757 Y180.404 E15.84488
G1 X92.91 Y180.041 E15.87399
G1 X92.099 Y179.606 E15.90307
G1 X91.329 Y179.102 E15.93215
G1 X90.605 Y178.533 E15.96125
G1 X89.933 Y177.903 E15.99035
G1 X89.318 Y177.218 E16.01944
G1 X88.765 Y176.482 E16.04853
G1 X88.278 Y175.701 E16.07761
G1 X87.861 Y174.88 E16.1067
G1 X87.434 Y173.784 E16.14387
G1 X87.291 Y173.341 E16.15858
G1 X86.644 Y171.233 E16.22825
G1 X85.841 Y168.863 E16.30732
G1 X84.947 Y166.449 E16.38866
G1 X84.017 Y164.141 E16.46728
G1 X82.993 Y161.793 E16.54822
G1 X81.919 Y159.51 E16.62794
G1 X80.812 Y157.318 E16.70553
G1 X78.93 Y153.896 E16.82893
G1 X60.965 Y122.777 E17.96429
G1 X60.623 Y122.164 E17.98647
G1 X60.353 Y121.646 E18.00493
G1 X60.254 Y121.443 E18.01206
G1 X60.059 Y121.02 E18.02678
G1 X59.751 Y120.311 E18.05121
G1 X59.421 Y119.452 E18.08028
G1 X59.156 Y118.52 E18.1109
G1 X58.939 Y117.58 E18.14138
G1 X58.857 Y117.179 E18.15431
G1 X58.712 Y116.269 E18.18343
G1 X58.651 Y115.502 E18.20774
G1 X58.638 Y115.194 E18.21748
G1 X58.629 Y114.662 E18.23429
G1 X58.635 Y113.916 E18.25786
G1 X58.683 Y112.996 E18.28697
G1 X58.81 Y112.084 E18.31607
G1 X59.015 Y111.187 E18.34514
G1 X59.38 Y110.097 E18.38146
G1 X59.609 Y109.519 E18.40111
G1 X60.307 Y107.717 E18.46217
G1 X60.674 Y106.872 E18.49128
G1 X61.113 Y106.063 E18.52036
G1 X61.62 Y105.295 E18.54944
G1 X62.295 Y104.456 E18.58346
G1 X62.536 Y104.186 E18.5949
G1 X62.864 Y103.836 E18.61005
G1 X63.427 Y103.26 E18.6355
G1 X64.098 Y102.63 E18.66458
G1 X65.059 Y101.895 E18.70281
G1 X65.861 Y101.357 E18.73333
G1 X66.271 Y101.097 E18.74867
G1 X67.069 Y100.638 E18.77775
G1 X68.167 Y100.146 E18.81577
G1 X68.806 Y99.902 E18.83738
G1 X69.128 Y99.785 E18.84821
G1 X69.577 Y99.63 E18.86322
G1 X70.46 Y99.368 E18.89232
G1 X71.632 Y99.143 E18.93003
G1 X72.268 Y99.058 E18.9503
G1 X72.584 Y99.021 E18.96036
G1 X73.088 Y98.969 E18.97637
G1 X74.004 Y98.914 E19.00536
G1 X74.977 Y98.9 E19.03611
G1 X84.243 Y98.9 E19.32889
G1 X86.868 Y98.863 E19.41184
G1 X89.376 Y98.756 E19.49116
G1 X91.853 Y98.581 E19.56962
G1 X94.756 Y98.276 E19.66185
G1 X95.43 Y98.211 E19.68324
G1 X96.283 Y98.163 E19.71024
G1 X97.089 Y98.152 E19.73571
G1 X110.492 Y98.153 E20.1592
G1 X111.497 Y98.172 E20.19096
G1 X112.289 Y98.206 E20.21601
G1 X113.642 Y98.283 E20.25883
G1 X116.187 Y98.356 E20.33928
G1 X118.699 Y98.358 E20.41865
G1 X121.229 Y98.287 E20.49862
G1 X122.361 Y98.222 E20.53445
G1 X123.701 Y98.165 E20.57683
G1 X124.793 Y98.149 E20.61134
G1 X137.871 Y98.152 E21.02457
G1 X137.874 Y98.153 E21.02467
G0 F1350 X138.674 Y98.162
G0 F7500 X138.679 Y97.762
G1 F1500 X139.609 Y97.814 E21.0541
G1 X140.384 Y97.892 E21.07871
G1 X141.83 Y98.057 E21.12469
G1 X144.369 Y98.275 E21.20521
G1 X146.874 Y98.418 E21.28449
G1 X149.38 Y98.49 E21.36371
G1 X150.767 Y98.5 E21.40754
G1 X160.258 Y98.501 E21.70742
G1 X160.944 Y98.511 E21.7291
G1 X161.868 Y98.564 E21.75835
G1 X162.474 Y98.624 E21.77759
G1 X162.822 Y98.664 E21.78865
G1 X163.355 Y98.734 E21.80564
G1 X164.279 Y98.895 E21.83528
G1 X165.47 Y99.228 E21.87435
G1 X166.318 Y99.522 E21.90271
G1 X166.84 Y99.717 E21.92032
G1 X167.704 Y100.082 E21.94995
G1 X168.815 Y100.689 E21.98996
G1 X169.395 Y101.051 E22.01156
G1 X169.701 Y101.249 E22.02308
G1 X170.072 Y101.498 E22.03719
G1 X170.828 Y102.054 E22.06685
G1 X171.656 Y102.79 E22.10185
G1 X172.147 Y103.273 E22.12361
G1 X172.518 Y103.657 E22.14048
G1 X172.863 Y104.031 E22.15656
G1 X173.469 Y104.746 E22.18618
G1 X174.012 Y105.511 E22.21582
G1 X174.488 Y106.32 E22.24548
G1 X174.996 Y107.416 E22.28365
G1 X175.582 Y108.889 E22.33374
G1 X175.746 Y109.32 E22.34831
G1 X176.01 Y109.996 E22.37124
G1 X176.314 Y110.884 E22.40089
G1 X176.541 Y111.794 E22.43053
G1 X176.689 Y112.72 E22.46016
G1 X176.762 Y113.794 E22.49417
G1 X176.77 Y114.226 E22.50782
G1 X176.77 Y114.654 E22.52135
G1 X176.758 Y115.243 E22.53996
G1 X176.699 Y116.179 E22.5696
G1 X176.557 Y117.123 E22.59976
G1 X176.429 Y117.78 E22.62091
G1 X176.35 Y118.152 E22.63293
G1 X176.277 Y118.468 E22.64317
G1 X176.027 Y119.372 E22.67281
G1 X175.692 Y120.272 E22.70315
G1 X175.39 Y120.987 E22.72768
G1 X175.216 Y121.379 E22.74123
G1 X175.087 Y121.654 E22.75083
G1 X174.845 Y122.138 E22.76792
G1 X174.715 Y122.383 E22.77669
G1 X174.525 Y122.726 E22.78908
G1 X156.417 Y154.094 E23.93351
G1 X155.134 Y156.391 E24.01664
G1 X153.981 Y158.599 E24.09535
G1 X152.877 Y160.87 E24.17513
G1 X151.828 Y163.189 E24.25556
G1 X150.853 Y165.516 E24.33528
G1 X149.963 Y167.828 E24.41355
G1 X149.127 Y170.195 E24.49287
G1 X148.303 Y172.756 E24.57788
G1 X148.023 Y173.671 E24.60811
G1 X147.702 Y174.576 E24.63845
G1 X147.297 Y175.472 E24.66952
G1 X146.837 Y176.289 E24.69915
G1 X146.309 Y177.064 E24.72878
G1 X145.717 Y177.792 E24.75843
G1 X145.065 Y178.466 E24.78806
G1 X144.358 Y179.082 E24.81769
G1 X143.602 Y179.636 E24.8473
G1 X142.8 Y180.124 E24.87696
G1 X141.96 Y180.541 E24.9066
G1 X141.088 Y180.886 E24.93623
G1 X140.19 Y181.154 E24.96584
G1 X139.271 Y181.346 E24.9955
G1 X138.34 Y181.458 E25.02513
G1 X137.799 Y181.487 E25.04225
G1 X137.17 Y181.5 E25.06213
G1 X98.049 Y181.499 E26.29824
G1 X97.351 Y181.489 E26.3203
G1 X96.415 Y181.435 E26.34992
G1 X95.487 Y181.303 E26.37954
G1 X94.573 Y181.091 E26.40919
G1 X93.681 Y180.802 E26.43881
G1 X92.816 Y180.439 E26.46845
G1 X91.986 Y180.003 E26.49808
G1 X91.195 Y179.498 E26.52773
G1 X90.451 Y178.927 E26.55736
G1 X89.758 Y178.295 E26.587
G1 X89.121 Y177.607 E26.61662
G1 X88.546 Y176.866 E26.64626
G1 X88.035 Y176.08 E26.67588
G1 X87.593 Y175.252 E26.70554
G1 X87.224 Y174.39 E26.73517
G1 X87.054 Y173.908 E26.75132
G1 X86.908 Y173.458 E26.76626
G1 X86.258 Y171.341 E26.83624
G1 X85.463 Y168.993 E26.91456
G1 X84.577 Y166.601 E26.99516
G1 X83.638 Y164.272 E27.07451
G1 X82.636 Y161.974 E27.15372
G1 X81.565 Y159.696 E27.23326
G1 X80.45 Y157.49 E27.31136
G1 X78.581 Y154.091 E27.43392
G1 X60.616 Y122.972 E28.56928
G1 X60.274 Y122.359 E28.59146
G1 X59.993 Y121.822 E28.61061
G1 X59.894 Y121.619 E28.61775
G1 X59.692 Y121.18 E28.63302
G1 X59.384 Y120.471 E28.65744
G1 X59.047 Y119.596 E28.68707
G1 X58.767 Y118.612 E28.7194
G1 X58.547 Y117.66 E28.75027
G1 X58.465 Y117.259 E28.7632
G1 X58.316 Y116.333 E28.79284
G1 X58.252 Y115.519 E28.81864
G1 X58.239 Y115.211 E28.82838
G1 X58.229 Y114.659 E28.84582
G1 X58.235 Y113.913 E28.86939
G1 X58.283 Y112.976 E28.89904
G1 X58.41 Y112.047 E28.92867
G1 X58.616 Y111.132 E28.9583
G1 X59.008 Y109.949 E28.99768
G1 X59.258 Y109.318 E29.01912
G1 X59.933 Y107.573 E29.07824
G1 X60.307 Y106.713 E29.10787
G1 X60.752 Y105.887 E29.13752
G1 X61.265 Y105.103 E29.16712
G1 X61.997 Y104.19 E29.2041
G1 X62.238 Y103.92 E29.21553
G1 X62.578 Y103.556 E29.23127
G1 X63.141 Y102.98 E29.25672
G1 X63.824 Y102.338 E29.28634
G1 X64.834 Y101.564 E29.32655
G1 X65.365 Y101.204 E29.34682
G1 X65.647 Y101.019 E29.35747
G1 X66.057 Y100.759 E29.37281
G1 X66.87 Y100.291 E29.40246
G1 X68.024 Y99.773 E29.44242
G1 X68.663 Y99.529 E29.46404
G1 X68.998 Y99.407 E29.4753
G1 X69.447 Y99.252 E29.49031
G1 X70.345 Y98.984 E29.51992
G1 X71.579 Y98.747 E29.55962
G1 X72.543 Y98.623 E29.59033
G1 X73.047 Y98.571 E29.60634
G1 X73.997 Y98.514 E29.63642
G1 X74.977 Y98.5 E29.66738
G1 X84.237 Y98.5 E29.95997
G1 X86.845 Y98.463 E30.04239
G1 X89.367 Y98.356 E30.12215
G1 X91.811 Y98.183 E30.19956
G1 X94.718 Y97.878 E30.29192
G1 X95.392 Y97.813 E30.31331
G1 X96.276 Y97.763 E30.34129
G1 X97.089 Y97.752 E30.36698
G1 X110.498 Y97.753 E30.79067
G1 X111.514 Y97.772 E30.82278
G1 X112.312 Y97.807 E30.84802
G1 X113.676 Y97.885 E30.89118
G1 X116.164 Y97.956 E30.96983
G1 X118.688 Y97.958 E31.04958
G1 X121.228 Y97.887 E31.12987
G1 X122.343 Y97.822 E31.16516
G1 X123.694 Y97.765 E31.20789
G1 X124.794 Y97.749 E31.24265
G1 X137.872 Y97.752 E31.65587
G1 X137.879 Y97.753 E31.6561
G0 F1350 X138.679 Y97.762
G1 F2700 E25.6561
;MESH:soporte_v3_2.stl
